
;Header Start
;header_type: cnc
;tool_head: levelTwoCNCToolheadForSM2
;machine: A400
;gcode_flavor: marlin
;renderMethod: line
;max_power: 255
;file_total_lines: 176
;estimated_time(s): 636
;is_rotate: false
;diameter: 0
;max_x(mm): 40.116
;max_y(mm): 27.162
;max_z(mm): 80
;max_b(mm): 0
;min_x(mm): -1.0
;min_y(mm): -1.0
;min_b(mm): 0
;min_z(mm): -3.5
;work_speed(mm/minute): 60
;jog_speed(mm/minute): 1500
;power(%): 0
;work_size_x: 400
;work_size_y: 400
;origin: bottom-left
;Header End
;PCB_To_CNC v0.3
; Made by Daniel Dobromylskyj (https://www.github.com/DanielDobromylskyj)
; G-code START <<<
G90
G21
G0 X0 Y0 Z8
G1 F60
G0 X0.05 Y0.0 Z5
M3 P100
G1 X0.05 Y0.0 Z-0.4
G1 X0.0 Y0.0 Z-0.4
G1 X0.0 Y0.05 Z-0.4
G1 X0.05 Y0.05 Z-0.4
G1 X0.1 Y0.05 Z-0.4
G1 X0.15 Y0.05 Z-0.4
G1 X0.15 Y0.0 Z-0.4
G1 X0.1 Y0.0 Z-0.4
G1 X0.1 Y0.0 Z5
M5
G0 X0.05 Y0.1 Z5
M3 P100
G1 X0.05 Y0.1 Z-0.4
G1 X0.0 Y0.1 Z-0.4
G1 X0.0 Y0.15 Z-0.4
G1 X0.05 Y0.15 Z-0.4
G1 X0.1 Y0.15 Z-0.4
G1 X0.15 Y0.15 Z-0.4
G1 X0.15 Y0.1 Z-0.4
G1 X0.1 Y0.1 Z-0.4
G1 X0.1 Y0.1 Z5
M5
G0 X34.782 Y6.183999999999999 Z1
M3 P100
G1 X34.782 Y6.183999999999999 Z1.0
G2 X34.782 Y6.183999999999999 I0 J0.15 Z1.0 F300
G1 X34.782 Y6.183999999999999 Z0.0
G2 X34.782 Y6.183999999999999 I0 J0.15 Z0.0 F300
G2 X34.782 Y6.183999999999999 I0 J0.15 Z-1 F300
G0 X34.782 Y6.183999999999999 Z1
M5
G0 X34.782 Y3.644 Z1
M3 P100
G1 X34.782 Y3.644 Z1.0
G2 X34.782 Y3.644 I0 J0.15 Z1.0 F300
G1 X34.782 Y3.644 Z0.0
G2 X34.782 Y3.644 I0 J0.15 Z0.0 F300
G2 X34.782 Y3.644 I0 J0.15 Z-1 F300
G0 X34.782 Y3.644 Z1
M5
G0 X11.792 Y22.92275 Z1
M3 P100
G1 X11.792 Y22.92275 Z1.0
G2 X11.792 Y22.92275 I0 J0.17525 Z1.0 F300
G1 X11.792 Y22.92275 Z0.0
G2 X11.792 Y22.92275 I0 J0.17525 Z0.0 F300
G2 X11.792 Y22.92275 I0 J0.17525 Z-1 F300
G0 X11.792 Y22.92275 Z1
M5
G0 X27.292 Y22.92275 Z1
M3 P100
G1 X27.292 Y22.92275 Z1.0
G2 X27.292 Y22.92275 I0 J0.17525 Z1.0 F300
G1 X27.292 Y22.92275 Z0.0
G2 X27.292 Y22.92275 I0 J0.17525 Z0.0 F300
G2 X27.292 Y22.92275 I0 J0.17525 Z-1 F300
G0 X27.292 Y22.92275 Z1
M5
G0 X11.792 Y16.31875 Z1
M3 P100
G1 X11.792 Y16.31875 Z1.0
G2 X11.792 Y16.31875 I0 J0.17525 Z1.0 F300
G1 X11.792 Y16.31875 Z0.0
G2 X11.792 Y16.31875 I0 J0.17525 Z0.0 F300
G2 X11.792 Y16.31875 I0 J0.17525 Z-1 F300
G0 X11.792 Y16.31875 Z1
M5
G0 X27.292 Y16.31875 Z1
M3 P100
G1 X27.292 Y16.31875 Z1.0
G2 X27.292 Y16.31875 I0 J0.17525 Z1.0 F300
G1 X27.292 Y16.31875 Z0.0
G2 X27.292 Y16.31875 I0 J0.17525 Z0.0 F300
G2 X27.292 Y16.31875 I0 J0.17525 Z-1 F300
G0 X27.292 Y16.31875 Z1
M5
G0 X11.792 Y9.96875 Z1
M3 P100
G1 X11.792 Y9.96875 Z1.0
G2 X11.792 Y9.96875 I0 J0.17525 Z1.0 F300
G1 X11.792 Y9.96875 Z0.0
G2 X11.792 Y9.96875 I0 J0.17525 Z0.0 F300
G2 X11.792 Y9.96875 I0 J0.17525 Z-1 F300
G0 X11.792 Y9.96875 Z1
M5
G0 X27.292 Y9.96875 Z1
M3 P100
G1 X27.292 Y9.96875 Z1.0
G2 X27.292 Y9.96875 I0 J0.17525 Z1.0 F300
G1 X27.292 Y9.96875 Z0.0
G2 X27.292 Y9.96875 I0 J0.17525 Z0.0 F300
G2 X27.292 Y9.96875 I0 J0.17525 Z-1 F300
G0 X27.292 Y9.96875 Z1
M5
G0 X11.792 Y3.61875 Z1
M3 P100
G1 X11.792 Y3.61875 Z1.0
G2 X11.792 Y3.61875 I0 J0.17525 Z1.0 F300
G1 X11.792 Y3.61875 Z0.0
G2 X11.792 Y3.61875 I0 J0.17525 Z0.0 F300
G2 X11.792 Y3.61875 I0 J0.17525 Z-1 F300
G0 X11.792 Y3.61875 Z1
M5
G0 X27.292 Y3.61875 Z1
M3 P100
G1 X27.292 Y3.61875 Z1.0
G2 X27.292 Y3.61875 I0 J0.17525 Z1.0 F300
G1 X27.292 Y3.61875 Z0.0
G2 X27.292 Y3.61875 I0 J0.17525 Z0.0 F300
G2 X27.292 Y3.61875 I0 J0.17525 Z-1 F300
G0 X27.292 Y3.61875 Z1
M5
G0 X5.445 Y20.181 Z1
M3 P100
G1 X5.445 Y20.181 Z1.0
G2 X5.445 Y20.181 I0 J0.15 Z1.0 F300
G1 X5.445 Y20.181 Z0.0
G2 X5.445 Y20.181 I0 J0.15 Z0.0 F300
G2 X5.445 Y20.181 I0 J0.15 Z-1 F300
G0 X5.445 Y20.181 Z1
M5
G0 X5.445 Y7.681 Z1
M3 P100
G1 X5.445 Y7.681 Z1.0
G2 X5.445 Y7.681 I0 J0.15 Z1.0 F300
G1 X5.445 Y7.681 Z0.0
G2 X5.445 Y7.681 I0 J0.15 Z0.0 F300
G2 X5.445 Y7.681 I0 J0.15 Z-1 F300
G0 X5.445 Y7.681 Z1
M5
G0 X0.0 Y26.162 Z5
M3 P100
G1 X0.0 Y26.162 Z-1
G1 X39.116 Y26.162 Z-1
G1 X39.116 Y0.0 Z-1
G1 X0.0 Y0.0 Z-1
G1 X0.0 Y26.162 Z-1
M5
G1 X0.0 Y0.0 Z5
M30