
;Header Start
;header_type: cnc
;tool_head: levelTwoCNCToolheadForSM2
;machine: A400
;gcode_flavor: marlin
;renderMethod: line
;max_power: 255
;file_total_lines: 176
;estimated_time(s): 276
;is_rotate: false
;diameter: 0
;max_x(mm): 40.116
;max_y(mm): 27.162
;max_z(mm): 80
;max_b(mm): 0
;min_x(mm): -1.0
;min_y(mm): -1.0
;min_b(mm): 0
;min_z(mm): -3.5
;work_speed(mm/minute): 60
;jog_speed(mm/minute): 1500
;power(%): 0
;work_size_x: 400
;work_size_y: 400
;origin: bottom-left
;Header End
;PCB_To_CNC v0.3
; Made by Daniel Dobromylskyj (https://www.github.com/DanielDobromylskyj)
; G-code START <<<
G90
G21
G0 X0 Y0 Z8
G1 F60
G0 X0.05 Y0.0 Z5
M3 P100
G1 X0.05 Y0.0 Z-0.4
G1 X0.0 Y0.0 Z-0.4
G1 X0.0 Y0.05 Z-0.4
G1 X0.05 Y0.05 Z-0.4
G1 X0.1 Y0.05 Z-0.4
G1 X0.15 Y0.05 Z-0.4
G1 X0.15 Y0.0 Z-0.4
G1 X0.1 Y0.0 Z-0.4
G1 X0.1 Y0.0 Z5
M5
G0 X0.05 Y0.1 Z5
M3 P100
G1 X0.05 Y0.1 Z-0.4
G1 X0.0 Y0.1 Z-0.4
G1 X0.0 Y0.15 Z-0.4
G1 X0.05 Y0.15 Z-0.4
G1 X0.1 Y0.15 Z-0.4
G1 X0.15 Y0.15 Z-0.4
G1 X0.15 Y0.1 Z-0.4
G1 X0.1 Y0.1 Z-0.4
G1 X0.1 Y0.1 Z5
M5
G0 X34.782 Y6.334 Z1
M3 P100
G1 X34.782 Y6.334 Z1.0
G0 X34.782 Y6.334 Z1
G1 X34.782 Y6.334 Z0.0
G0 X34.782 Y6.334 Z1
G1 X34.782 Y6.334 Z-1
G0 X34.782 Y6.334 Z1
M5
G0 X34.782 Y3.794 Z1
M3 P100
G1 X34.782 Y3.794 Z1.0
G0 X34.782 Y3.794 Z1
G1 X34.782 Y3.794 Z0.0
G0 X34.782 Y3.794 Z1
G1 X34.782 Y3.794 Z-1
G0 X34.782 Y3.794 Z1
M5
G0 X11.792 Y23.098 Z1
M3 P100
G1 X11.792 Y23.098 Z1.0
G0 X11.792 Y23.098 Z1
G1 X11.792 Y23.098 Z0.0
G0 X11.792 Y23.098 Z1
G1 X11.792 Y23.098 Z-1
G0 X11.792 Y23.098 Z1
M5
G0 X27.292 Y23.098 Z1
M3 P100
G1 X27.292 Y23.098 Z1.0
G0 X27.292 Y23.098 Z1
G1 X27.292 Y23.098 Z0.0
G0 X27.292 Y23.098 Z1
G1 X27.292 Y23.098 Z-1
G0 X27.292 Y23.098 Z1
M5
G0 X11.792 Y16.494 Z1
M3 P100
G1 X11.792 Y16.494 Z1.0
G0 X11.792 Y16.494 Z1
G1 X11.792 Y16.494 Z0.0
G0 X11.792 Y16.494 Z1
G1 X11.792 Y16.494 Z-1
G0 X11.792 Y16.494 Z1
M5
G0 X27.292 Y16.494 Z1
M3 P100
G1 X27.292 Y16.494 Z1.0
G0 X27.292 Y16.494 Z1
G1 X27.292 Y16.494 Z0.0
G0 X27.292 Y16.494 Z1
G1 X27.292 Y16.494 Z-1
G0 X27.292 Y16.494 Z1
M5
G0 X11.792 Y10.144 Z1
M3 P100
G1 X11.792 Y10.144 Z1.0
G0 X11.792 Y10.144 Z1
G1 X11.792 Y10.144 Z0.0
G0 X11.792 Y10.144 Z1
G1 X11.792 Y10.144 Z-1
G0 X11.792 Y10.144 Z1
M5
G0 X27.292 Y10.144 Z1
M3 P100
G1 X27.292 Y10.144 Z1.0
G0 X27.292 Y10.144 Z1
G1 X27.292 Y10.144 Z0.0
G0 X27.292 Y10.144 Z1
G1 X27.292 Y10.144 Z-1
G0 X27.292 Y10.144 Z1
M5
G0 X11.792 Y3.794 Z1
M3 P100
G1 X11.792 Y3.794 Z1.0
G0 X11.792 Y3.794 Z1
G1 X11.792 Y3.794 Z0.0
G0 X11.792 Y3.794 Z1
G1 X11.792 Y3.794 Z-1
G0 X11.792 Y3.794 Z1
M5
G0 X27.292 Y3.794 Z1
M3 P100
G1 X27.292 Y3.794 Z1.0
G0 X27.292 Y3.794 Z1
G1 X27.292 Y3.794 Z0.0
G0 X27.292 Y3.794 Z1
G1 X27.292 Y3.794 Z-1
G0 X27.292 Y3.794 Z1
M5
G0 X5.445 Y20.331 Z1
M3 P100
G1 X5.445 Y20.331 Z1.0
G0 X5.445 Y20.331 Z1
G1 X5.445 Y20.331 Z0.0
G0 X5.445 Y20.331 Z1
G1 X5.445 Y20.331 Z-1
G0 X5.445 Y20.331 Z1
M5
G0 X5.445 Y7.831 Z1
M3 P100
G1 X5.445 Y7.831 Z1.0
G0 X5.445 Y7.831 Z1
G1 X5.445 Y7.831 Z0.0
G0 X5.445 Y7.831 Z1
G1 X5.445 Y7.831 Z-1
G0 X5.445 Y7.831 Z1
M5
G0 X0.0 Y26.162 Z5
M3 P100
G1 X0.0 Y26.162 Z-1
G1 X39.116 Y26.162 Z-1
G1 X39.116 Y0.0 Z-1
G1 X0.0 Y0.0 Z-1
G1 X0.0 Y26.162 Z-1
M5
G1 X0.0 Y0.0 Z5
M30