
;Header Start
;header_type: cnc
;tool_head: levelTwoCNCToolheadForSM2
;machine: A400
;gcode_flavor: marlin
;renderMethod: line
;max_power: 255
;file_total_lines: 666
;estimated_time(s): 540
;is_rotate: false
;diameter: 0
;max_x(mm): 50.99992
;max_y(mm): 81.99983
;max_z(mm): 80
;max_b(mm): 0
;min_x(mm): -1
;min_y(mm): -1
;min_b(mm): 0
;min_z(mm): -3.5
;work_speed(mm/minute): 240.0
;jog_speed(mm/minute): 1500.0
;power(%): 0
;work_size_x: 400
;work_size_y: 400
;origin: bottom-left
;Header End
;PCB_To_CNC v0.3
; Made by Daniel Dobromylskyj (https://www.github.com/DanielDobromylskyj)
; G-code START <<<
G90
G21
G0 X0 Y0 Z8
G1 F240.0
G0 X0.05 Y0.0 Z5
M3 P100
G1 X0.05 Y0.0 Z-0.4
G1 X0.0 Y0.0 Z-0.4
G1 X0.0 Y0.05 Z-0.4
G1 X0.05 Y0.05 Z-0.4
G1 X0.1 Y0.05 Z-0.4
G1 X0.15 Y0.05 Z-0.4
G1 X0.15 Y0.0 Z-0.4
G1 X0.1 Y0.0 Z-0.4
G1 X0.1 Y0.0 Z5
M5
G0 X0.05 Y0.1 Z5
M3 P100
G1 X0.05 Y0.1 Z-0.4
G1 X0.0 Y0.1 Z-0.4
G1 X0.0 Y0.15 Z-0.4
G1 X0.05 Y0.15 Z-0.4
G1 X0.1 Y0.15 Z-0.4
G1 X0.15 Y0.15 Z-0.4
G1 X0.15 Y0.1 Z-0.4
G1 X0.1 Y0.1 Z-0.4
G1 X0.1 Y0.1 Z5
M5
G0 X44.307 Y28.793 Z1
M3 P100
G1 X44.307 Y28.793 Z1.0
G0 X44.307 Y28.793 Z1
G1 X44.307 Y28.793 Z0.0
G0 X44.307 Y28.793 Z1
G1 X44.307 Y28.793 Z-1.0
G0 X44.307 Y28.793 Z1
G1 X44.307 Y28.793 Z-2.0
G0 X44.307 Y28.793 Z1
G1 X44.307 Y28.793 Z-3.0
G0 X44.307 Y28.793 Z1
M5
G0 X44.307 Y38.993 Z1
M3 P100
G1 X44.307 Y38.993 Z1.0
G0 X44.307 Y38.993 Z1
G1 X44.307 Y38.993 Z0.0
G0 X44.307 Y38.993 Z1
G1 X44.307 Y38.993 Z-1.0
G0 X44.307 Y38.993 Z1
G1 X44.307 Y38.993 Z-2.0
G0 X44.307 Y38.993 Z1
G1 X44.307 Y38.993 Z-3.0
G0 X44.307 Y38.993 Z1
M5
G0 X26.019 Y25.765 Z1
M3 P100
G1 X26.019 Y25.765 Z1.0
G0 X26.019 Y25.765 Z1
G1 X26.019 Y25.765 Z0.0
G0 X26.019 Y25.765 Z1
G1 X26.019 Y25.765 Z-1.0
G0 X26.019 Y25.765 Z1
G1 X26.019 Y25.765 Z-2.0
G0 X26.019 Y25.765 Z1
G1 X26.019 Y25.765 Z-3.0
G0 X26.019 Y25.765 Z1
M5
G0 X26.019 Y28.305 Z1
M3 P100
G1 X26.019 Y28.305 Z1.0
G0 X26.019 Y28.305 Z1
G1 X26.019 Y28.305 Z0.0
G0 X26.019 Y28.305 Z1
G1 X26.019 Y28.305 Z-1.0
G0 X26.019 Y28.305 Z1
G1 X26.019 Y28.305 Z-2.0
G0 X26.019 Y28.305 Z1
G1 X26.019 Y28.305 Z-3.0
G0 X26.019 Y28.305 Z1
M5
G0 X26.019 Y30.845 Z1
M3 P100
G1 X26.019 Y30.845 Z1.0
G0 X26.019 Y30.845 Z1
G1 X26.019 Y30.845 Z0.0
G0 X26.019 Y30.845 Z1
G1 X26.019 Y30.845 Z-1.0
G0 X26.019 Y30.845 Z1
G1 X26.019 Y30.845 Z-2.0
G0 X26.019 Y30.845 Z1
G1 X26.019 Y30.845 Z-3.0
G0 X26.019 Y30.845 Z1
M5
G0 X26.019 Y33.385 Z1
M3 P100
G1 X26.019 Y33.385 Z1.0
G0 X26.019 Y33.385 Z1
G1 X26.019 Y33.385 Z0.0
G0 X26.019 Y33.385 Z1
G1 X26.019 Y33.385 Z-1.0
G0 X26.019 Y33.385 Z1
G1 X26.019 Y33.385 Z-2.0
G0 X26.019 Y33.385 Z1
G1 X26.019 Y33.385 Z-3.0
G0 X26.019 Y33.385 Z1
M5
G0 X26.019 Y35.925 Z1
M3 P100
G1 X26.019 Y35.925 Z1.0
G0 X26.019 Y35.925 Z1
G1 X26.019 Y35.925 Z0.0
G0 X26.019 Y35.925 Z1
G1 X26.019 Y35.925 Z-1.0
G0 X26.019 Y35.925 Z1
G1 X26.019 Y35.925 Z-2.0
G0 X26.019 Y35.925 Z1
G1 X26.019 Y35.925 Z-3.0
G0 X26.019 Y35.925 Z1
M5
G0 X26.019 Y38.465 Z1
M3 P100
G1 X26.019 Y38.465 Z1.0
G0 X26.019 Y38.465 Z1
G1 X26.019 Y38.465 Z0.0
G0 X26.019 Y38.465 Z1
G1 X26.019 Y38.465 Z-1.0
G0 X26.019 Y38.465 Z1
G1 X26.019 Y38.465 Z-2.0
G0 X26.019 Y38.465 Z1
G1 X26.019 Y38.465 Z-3.0
G0 X26.019 Y38.465 Z1
M5
G0 X26.019 Y41.005 Z1
M3 P100
G1 X26.019 Y41.005 Z1.0
G0 X26.019 Y41.005 Z1
G1 X26.019 Y41.005 Z0.0
G0 X26.019 Y41.005 Z1
G1 X26.019 Y41.005 Z-1.0
G0 X26.019 Y41.005 Z1
G1 X26.019 Y41.005 Z-2.0
G0 X26.019 Y41.005 Z1
G1 X26.019 Y41.005 Z-3.0
G0 X26.019 Y41.005 Z1
M5
G0 X26.019 Y43.545 Z1
M3 P100
G1 X26.019 Y43.545 Z1.0
G0 X26.019 Y43.545 Z1
G1 X26.019 Y43.545 Z0.0
G0 X26.019 Y43.545 Z1
G1 X26.019 Y43.545 Z-1.0
G0 X26.019 Y43.545 Z1
G1 X26.019 Y43.545 Z-2.0
G0 X26.019 Y43.545 Z1
G1 X26.019 Y43.545 Z-3.0
G0 X26.019 Y43.545 Z1
M5
G0 X26.019 Y46.085 Z1
M3 P100
G1 X26.019 Y46.085 Z1.0
G0 X26.019 Y46.085 Z1
G1 X26.019 Y46.085 Z0.0
G0 X26.019 Y46.085 Z1
G1 X26.019 Y46.085 Z-1.0
G0 X26.019 Y46.085 Z1
G1 X26.019 Y46.085 Z-2.0
G0 X26.019 Y46.085 Z1
G1 X26.019 Y46.085 Z-3.0
G0 X26.019 Y46.085 Z1
M5
G0 X33.639 Y46.085 Z1
M3 P100
G1 X33.639 Y46.085 Z1.0
G0 X33.639 Y46.085 Z1
G1 X33.639 Y46.085 Z0.0
G0 X33.639 Y46.085 Z1
G1 X33.639 Y46.085 Z-1.0
G0 X33.639 Y46.085 Z1
G1 X33.639 Y46.085 Z-2.0
G0 X33.639 Y46.085 Z1
G1 X33.639 Y46.085 Z-3.0
G0 X33.639 Y46.085 Z1
M5
G0 X33.639 Y43.545 Z1
M3 P100
G1 X33.639 Y43.545 Z1.0
G0 X33.639 Y43.545 Z1
G1 X33.639 Y43.545 Z0.0
G0 X33.639 Y43.545 Z1
G1 X33.639 Y43.545 Z-1.0
G0 X33.639 Y43.545 Z1
G1 X33.639 Y43.545 Z-2.0
G0 X33.639 Y43.545 Z1
G1 X33.639 Y43.545 Z-3.0
G0 X33.639 Y43.545 Z1
M5
G0 X33.639 Y41.005 Z1
M3 P100
G1 X33.639 Y41.005 Z1.0
G0 X33.639 Y41.005 Z1
G1 X33.639 Y41.005 Z0.0
G0 X33.639 Y41.005 Z1
G1 X33.639 Y41.005 Z-1.0
G0 X33.639 Y41.005 Z1
G1 X33.639 Y41.005 Z-2.0
G0 X33.639 Y41.005 Z1
G1 X33.639 Y41.005 Z-3.0
G0 X33.639 Y41.005 Z1
M5
G0 X33.639 Y38.465 Z1
M3 P100
G1 X33.639 Y38.465 Z1.0
G0 X33.639 Y38.465 Z1
G1 X33.639 Y38.465 Z0.0
G0 X33.639 Y38.465 Z1
G1 X33.639 Y38.465 Z-1.0
G0 X33.639 Y38.465 Z1
G1 X33.639 Y38.465 Z-2.0
G0 X33.639 Y38.465 Z1
G1 X33.639 Y38.465 Z-3.0
G0 X33.639 Y38.465 Z1
M5
G0 X33.639 Y35.925 Z1
M3 P100
G1 X33.639 Y35.925 Z1.0
G0 X33.639 Y35.925 Z1
G1 X33.639 Y35.925 Z0.0
G0 X33.639 Y35.925 Z1
G1 X33.639 Y35.925 Z-1.0
G0 X33.639 Y35.925 Z1
G1 X33.639 Y35.925 Z-2.0
G0 X33.639 Y35.925 Z1
G1 X33.639 Y35.925 Z-3.0
G0 X33.639 Y35.925 Z1
M5
G0 X33.639 Y33.385 Z1
M3 P100
G1 X33.639 Y33.385 Z1.0
G0 X33.639 Y33.385 Z1
G1 X33.639 Y33.385 Z0.0
G0 X33.639 Y33.385 Z1
G1 X33.639 Y33.385 Z-1.0
G0 X33.639 Y33.385 Z1
G1 X33.639 Y33.385 Z-2.0
G0 X33.639 Y33.385 Z1
G1 X33.639 Y33.385 Z-3.0
G0 X33.639 Y33.385 Z1
M5
G0 X33.639 Y30.845 Z1
M3 P100
G1 X33.639 Y30.845 Z1.0
G0 X33.639 Y30.845 Z1
G1 X33.639 Y30.845 Z0.0
G0 X33.639 Y30.845 Z1
G1 X33.639 Y30.845 Z-1.0
G0 X33.639 Y30.845 Z1
G1 X33.639 Y30.845 Z-2.0
G0 X33.639 Y30.845 Z1
G1 X33.639 Y30.845 Z-3.0
G0 X33.639 Y30.845 Z1
M5
G0 X33.639 Y28.305 Z1
M3 P100
G1 X33.639 Y28.305 Z1.0
G0 X33.639 Y28.305 Z1
G1 X33.639 Y28.305 Z0.0
G0 X33.639 Y28.305 Z1
G1 X33.639 Y28.305 Z-1.0
G0 X33.639 Y28.305 Z1
G1 X33.639 Y28.305 Z-2.0
G0 X33.639 Y28.305 Z1
G1 X33.639 Y28.305 Z-3.0
G0 X33.639 Y28.305 Z1
M5
G0 X33.639 Y25.765 Z1
M3 P100
G1 X33.639 Y25.765 Z1.0
G0 X33.639 Y25.765 Z1
G1 X33.639 Y25.765 Z0.0
G0 X33.639 Y25.765 Z1
G1 X33.639 Y25.765 Z-1.0
G0 X33.639 Y25.765 Z1
G1 X33.639 Y25.765 Z-2.0
G0 X33.639 Y25.765 Z1
G1 X33.639 Y25.765 Z-3.0
G0 X33.639 Y25.765 Z1
M5
G0 X33.305 Y70.436 Z1
M3 P100
G1 X33.305 Y70.436 Z1.0
G0 X33.305 Y70.436 Z1
G1 X33.305 Y70.436 Z0.0
G0 X33.305 Y70.436 Z1
G1 X33.305 Y70.436 Z-1.0
G0 X33.305 Y70.436 Z1
G1 X33.305 Y70.436 Z-2.0
G0 X33.305 Y70.436 Z1
G1 X33.305 Y70.436 Z-3.0
G0 X33.305 Y70.436 Z1
M5
G0 X15.772 Y64.24000000000001 Z1
M3 P100
G1 X15.772 Y64.24000000000001 Z1.0
G0 X15.772 Y64.24000000000001 Z1
G1 X15.772 Y64.24000000000001 Z0.0
G0 X15.772 Y64.24000000000001 Z1
G1 X15.772 Y64.24000000000001 Z-1.0
G0 X15.772 Y64.24000000000001 Z1
G1 X15.772 Y64.24000000000001 Z-2.0
G0 X15.772 Y64.24000000000001 Z1
G1 X15.772 Y64.24000000000001 Z-3.0
G0 X15.772 Y64.24000000000001 Z1
M5
G0 X15.772 Y69.239 Z1
M3 P100
G1 X15.772 Y69.239 Z1.0
G0 X15.772 Y69.239 Z1
G1 X15.772 Y69.239 Z0.0
G0 X15.772 Y69.239 Z1
G1 X15.772 Y69.239 Z-1.0
G0 X15.772 Y69.239 Z1
G1 X15.772 Y69.239 Z-2.0
G0 X15.772 Y69.239 Z1
G1 X15.772 Y69.239 Z-3.0
G0 X15.772 Y69.239 Z1
M5
G0 X25.772 Y66.699 Z1
M3 P100
G1 X25.772 Y66.699 Z1.0
G0 X25.772 Y66.699 Z1
G1 X25.772 Y66.699 Z0.0
G0 X25.772 Y66.699 Z1
G1 X25.772 Y66.699 Z-1.0
G0 X25.772 Y66.699 Z1
G1 X25.772 Y66.699 Z-2.0
G0 X25.772 Y66.699 Z1
G1 X25.772 Y66.699 Z-3.0
G0 X25.772 Y66.699 Z1
M5
G0 X28.305 Y70.436 Z1
M3 P100
G1 X28.305 Y70.436 Z1.0
G0 X28.305 Y70.436 Z1
G1 X28.305 Y70.436 Z0.0
G0 X28.305 Y70.436 Z1
G1 X28.305 Y70.436 Z-1.0
G0 X28.305 Y70.436 Z1
G1 X28.305 Y70.436 Z-2.0
G0 X28.305 Y70.436 Z1
G1 X28.305 Y70.436 Z-3.0
G0 X28.305 Y70.436 Z1
M5
G0 X30.765 Y60.436 Z1
M3 P100
G1 X30.765 Y60.436 Z1.0
G0 X30.765 Y60.436 Z1
G1 X30.765 Y60.436 Z0.0
G0 X30.765 Y60.436 Z1
G1 X30.765 Y60.436 Z-1.0
G0 X30.765 Y60.436 Z1
G1 X30.765 Y60.436 Z-2.0
G0 X30.765 Y60.436 Z1
G1 X30.765 Y60.436 Z-3.0
G0 X30.765 Y60.436 Z1
M5
G0 X12.165 Y5.572 Z1
M3 P100
G1 X12.165 Y5.572 Z1.0
G0 X12.165 Y5.572 Z1
G1 X12.165 Y5.572 Z0.0
G0 X12.165 Y5.572 Z1
G1 X12.165 Y5.572 Z-1.0
G0 X12.165 Y5.572 Z1
G1 X12.165 Y5.572 Z-2.0
G0 X12.165 Y5.572 Z1
G1 X12.165 Y5.572 Z-3.0
G0 X12.165 Y5.572 Z1
M5
G0 X30.21 Y78.343 Z1
M3 P100
G1 X30.21 Y78.343 Z1.0
G0 X30.21 Y78.343 Z1
G1 X30.21 Y78.343 Z0.0
G0 X30.21 Y78.343 Z1
G1 X30.21 Y78.343 Z-1.0
G0 X30.21 Y78.343 Z1
G1 X30.21 Y78.343 Z-2.0
G0 X30.21 Y78.343 Z1
G1 X30.21 Y78.343 Z-3.0
G0 X30.21 Y78.343 Z1
M5
G0 X24.241 Y4.683 Z1
M3 P100
G1 X24.241 Y4.683 Z1.0
G0 X24.241 Y4.683 Z1
G1 X24.241 Y4.683 Z0.0
G0 X24.241 Y4.683 Z1
G1 X24.241 Y4.683 Z-1.0
G0 X24.241 Y4.683 Z1
G1 X24.241 Y4.683 Z-2.0
G0 X24.241 Y4.683 Z1
G1 X24.241 Y4.683 Z-3.0
G0 X24.241 Y4.683 Z1
M5
G0 X29.321 Y4.683 Z1
M3 P100
G1 X29.321 Y4.683 Z1.0
G0 X29.321 Y4.683 Z1
G1 X29.321 Y4.683 Z0.0
G0 X29.321 Y4.683 Z1
G1 X29.321 Y4.683 Z-1.0
G0 X29.321 Y4.683 Z1
G1 X29.321 Y4.683 Z-2.0
G0 X29.321 Y4.683 Z1
G1 X29.321 Y4.683 Z-3.0
G0 X29.321 Y4.683 Z1
M5
G0 X25.13 Y78.343 Z1
M3 P100
G1 X25.13 Y78.343 Z1.0
G0 X25.13 Y78.343 Z1
G1 X25.13 Y78.343 Z0.0
G0 X25.13 Y78.343 Z1
G1 X25.13 Y78.343 Z-1.0
G0 X25.13 Y78.343 Z1
G1 X25.13 Y78.343 Z-2.0
G0 X25.13 Y78.343 Z1
G1 X25.13 Y78.343 Z-3.0
G0 X25.13 Y78.343 Z1
M5
G0 X35.29 Y78.343 Z1
M3 P100
G1 X35.29 Y78.343 Z1.0
G0 X35.29 Y78.343 Z1
G1 X35.29 Y78.343 Z0.0
G0 X35.29 Y78.343 Z1
G1 X35.29 Y78.343 Z-1.0
G0 X35.29 Y78.343 Z1
G1 X35.29 Y78.343 Z-2.0
G0 X35.29 Y78.343 Z1
G1 X35.29 Y78.343 Z-3.0
G0 X35.29 Y78.343 Z1
M5
G0 X9.255 Y5.572 Z1
M3 P100
G1 X9.255 Y5.572 Z1.0
G0 X9.255 Y5.572 Z1
G1 X9.255 Y5.572 Z0.0
G0 X9.255 Y5.572 Z1
G1 X9.255 Y5.572 Z-1.0
G0 X9.255 Y5.572 Z1
G1 X9.255 Y5.572 Z-2.0
G0 X9.255 Y5.572 Z1
G1 X9.255 Y5.572 Z-3.0
G0 X9.255 Y5.572 Z1
M5
G0 X15.086 Y5.572 Z1
M3 P100
G1 X15.086 Y5.572 Z1.0
G0 X15.086 Y5.572 Z1
G1 X15.086 Y5.572 Z0.0
G0 X15.086 Y5.572 Z1
G1 X15.086 Y5.572 Z-1.0
G0 X15.086 Y5.572 Z1
G1 X15.086 Y5.572 Z-2.0
G0 X15.086 Y5.572 Z1
G1 X15.086 Y5.572 Z-3.0
G0 X15.086 Y5.572 Z1
M5
G0 X4.175 Y23.479 Z1
M3 P100
G1 X4.175 Y23.479 Z1.0
G0 X4.175 Y23.479 Z1
G1 X4.175 Y23.479 Z0.0
G0 X4.175 Y23.479 Z1
G1 X4.175 Y23.479 Z-1.0
G0 X4.175 Y23.479 Z1
G1 X4.175 Y23.479 Z-2.0
G0 X4.175 Y23.479 Z1
G1 X4.175 Y23.479 Z-3.0
G0 X4.175 Y23.479 Z1
M5
G0 X6.715 Y23.479 Z1
M3 P100
G1 X6.715 Y23.479 Z1.0
G0 X6.715 Y23.479 Z1
G1 X6.715 Y23.479 Z0.0
G0 X6.715 Y23.479 Z1
G1 X6.715 Y23.479 Z-1.0
G0 X6.715 Y23.479 Z1
G1 X6.715 Y23.479 Z-2.0
G0 X6.715 Y23.479 Z1
G1 X6.715 Y23.479 Z-3.0
G0 X6.715 Y23.479 Z1
M5
G0 X4.175 Y31.861 Z1
M3 P100
G1 X4.175 Y31.861 Z1.0
G0 X4.175 Y31.861 Z1
G1 X4.175 Y31.861 Z0.0
G0 X4.175 Y31.861 Z1
G1 X4.175 Y31.861 Z-1.0
G0 X4.175 Y31.861 Z1
G1 X4.175 Y31.861 Z-2.0
G0 X4.175 Y31.861 Z1
G1 X4.175 Y31.861 Z-3.0
G0 X4.175 Y31.861 Z1
M5
G0 X6.715 Y31.861 Z1
M3 P100
G1 X6.715 Y31.861 Z1.0
G0 X6.715 Y31.861 Z1
G1 X6.715 Y31.861 Z0.0
G0 X6.715 Y31.861 Z1
G1 X6.715 Y31.861 Z-1.0
G0 X6.715 Y31.861 Z1
G1 X6.715 Y31.861 Z-2.0
G0 X6.715 Y31.861 Z1
G1 X6.715 Y31.861 Z-3.0
G0 X6.715 Y31.861 Z1
M5
G0 X4.175 Y40.497 Z1
M3 P100
G1 X4.175 Y40.497 Z1.0
G0 X4.175 Y40.497 Z1
G1 X4.175 Y40.497 Z0.0
G0 X4.175 Y40.497 Z1
G1 X4.175 Y40.497 Z-1.0
G0 X4.175 Y40.497 Z1
G1 X4.175 Y40.497 Z-2.0
G0 X4.175 Y40.497 Z1
G1 X4.175 Y40.497 Z-3.0
G0 X4.175 Y40.497 Z1
M5
G0 X6.715 Y40.497 Z1
M3 P100
G1 X6.715 Y40.497 Z1.0
G0 X6.715 Y40.497 Z1
G1 X6.715 Y40.497 Z0.0
G0 X6.715 Y40.497 Z1
G1 X6.715 Y40.497 Z-1.0
G0 X6.715 Y40.497 Z1
G1 X6.715 Y40.497 Z-2.0
G0 X6.715 Y40.497 Z1
G1 X6.715 Y40.497 Z-3.0
G0 X6.715 Y40.497 Z1
M5
G0 X4.175 Y48.879 Z1
M3 P100
G1 X4.175 Y48.879 Z1.0
G0 X4.175 Y48.879 Z1
G1 X4.175 Y48.879 Z0.0
G0 X4.175 Y48.879 Z1
G1 X4.175 Y48.879 Z-1.0
G0 X4.175 Y48.879 Z1
G1 X4.175 Y48.879 Z-2.0
G0 X4.175 Y48.879 Z1
G1 X4.175 Y48.879 Z-3.0
G0 X4.175 Y48.879 Z1
M5
G0 X6.715 Y48.879 Z1
M3 P100
G1 X6.715 Y48.879 Z1.0
G0 X6.715 Y48.879 Z1
G1 X6.715 Y48.879 Z0.0
G0 X6.715 Y48.879 Z1
G1 X6.715 Y48.879 Z-1.0
G0 X6.715 Y48.879 Z1
G1 X6.715 Y48.879 Z-2.0
G0 X6.715 Y48.879 Z1
G1 X6.715 Y48.879 Z-3.0
G0 X6.715 Y48.879 Z1
M5
G0 X4.175 Y58.023 Z1
M3 P100
G1 X4.175 Y58.023 Z1.0
G0 X4.175 Y58.023 Z1
G1 X4.175 Y58.023 Z0.0
G0 X4.175 Y58.023 Z1
G1 X4.175 Y58.023 Z-1.0
G0 X4.175 Y58.023 Z1
G1 X4.175 Y58.023 Z-2.0
G0 X4.175 Y58.023 Z1
G1 X4.175 Y58.023 Z-3.0
G0 X4.175 Y58.023 Z1
M5
G0 X6.715 Y58.023 Z1
M3 P100
G1 X6.715 Y58.023 Z1.0
G0 X6.715 Y58.023 Z1
G1 X6.715 Y58.023 Z0.0
G0 X6.715 Y58.023 Z1
G1 X6.715 Y58.023 Z-1.0
G0 X6.715 Y58.023 Z1
G1 X6.715 Y58.023 Z-2.0
G0 X6.715 Y58.023 Z1
G1 X6.715 Y58.023 Z-3.0
G0 X6.715 Y58.023 Z1
M5
G0 X4.175 Y15.097 Z1
M3 P100
G1 X4.175 Y15.097 Z1.0
G0 X4.175 Y15.097 Z1
G1 X4.175 Y15.097 Z0.0
G0 X4.175 Y15.097 Z1
G1 X4.175 Y15.097 Z-1.0
G0 X4.175 Y15.097 Z1
G1 X4.175 Y15.097 Z-2.0
G0 X4.175 Y15.097 Z1
G1 X4.175 Y15.097 Z-3.0
G0 X4.175 Y15.097 Z1
M5
G0 X6.715 Y15.097 Z1
M3 P100
G1 X6.715 Y15.097 Z1.0
G0 X6.715 Y15.097 Z1
G1 X6.715 Y15.097 Z0.0
G0 X6.715 Y15.097 Z1
G1 X6.715 Y15.097 Z-1.0
G0 X6.715 Y15.097 Z1
G1 X6.715 Y15.097 Z-2.0
G0 X6.715 Y15.097 Z1
G1 X6.715 Y15.097 Z-3.0
G0 X6.715 Y15.097 Z1
M5
G0 X0 Y80.99983 Z5
M3 P100
G1 X0 Y80.99983 Z-3.0
G1 X49.9999 Y80.99983 Z-3.0
G1 X49.99992 Y0 Z-3.0
G1 X0 Y0 Z-3.0
G1 X0 Y80.99983 Z-3.0
M5
G1 X0 Y0 Z5
M30