
;Header Start
;header_type: cnc
;tool_head: levelTwoCNCToolheadForSM2
;machine: A400
;gcode_flavor: marlin
;renderMethod: line
;max_power: 255
;file_total_lines: 4692
;estimated_time(s): 366
;is_rotate: false
;diameter: 0
;max_x(mm): 40.116
;max_y(mm): 27.162
;max_z(mm): 80
;max_b(mm): 0
;min_x(mm): -1
;min_y(mm): -1
;min_b(mm): 0
;min_z(mm): -3.5
;work_speed(mm/minute): 60
;jog_speed(mm/minute): 1500
;power(%): 0
;work_size_x: 400
;work_size_y: 400
;origin: bottom-left
;Header End
;PCB_To_CNC v0.3
; Made by Daniel Dobromylskyj (https://www.github.com/DanielDobromylskyj)
; G-code START <<<
G90
G21
G0 X0 Y0 Z8
G1 F60
G0 X4.66 Y7.62 Z5
M3 P100
G1 X4.66 Y7.62 Z-0.4
G1 X4.64 Y7.62 Z-0.4
G1 X4.64 Y7.64 Z-0.4
G1 X4.64 Y7.66 Z-0.4
G1 X4.64 Y7.68 Z-0.4
G1 X4.64 Y7.7 Z-0.4
G1 X4.64 Y7.72 Z-0.4
G1 X4.64 Y7.74 Z-0.4
G1 X4.64 Y7.76 Z-0.4
G1 X4.64 Y7.78 Z-0.4
G1 X4.64 Y7.8 Z-0.4
G1 X4.64 Y7.82 Z-0.4
G1 X4.64 Y7.84 Z-0.4
G1 X4.64 Y7.86 Z-0.4
G1 X4.64 Y7.88 Z-0.4
G1 X4.64 Y7.9 Z-0.4
G1 X4.64 Y7.92 Z-0.4
G1 X4.64 Y7.94 Z-0.4
G1 X4.64 Y7.96 Z-0.4
G1 X4.64 Y7.98 Z-0.4
G1 X4.64 Y8.0 Z-0.4
G1 X4.64 Y8.02 Z-0.4
G1 X4.66 Y8.02 Z-0.4
G1 X4.66 Y8.04 Z-0.4
G1 X4.66 Y8.06 Z-0.4
G1 X4.66 Y8.08 Z-0.4
G1 X4.66 Y8.1 Z-0.4
G1 X4.66 Y8.12 Z-0.4
G1 X4.68 Y8.12 Z-0.4
G1 X4.68 Y8.14 Z-0.4
G1 X4.68 Y8.16 Z-0.4
G1 X4.7 Y8.16 Z-0.4
G1 X4.7 Y8.18 Z-0.4
G1 X4.7 Y8.2 Z-0.4
G1 X4.7 Y8.22 Z-0.4
G1 X4.72 Y8.22 Z-0.4
G1 X4.72 Y8.24 Z-0.4
G1 X4.72 Y8.26 Z-0.4
G1 X4.74 Y8.26 Z-0.4
G1 X4.74 Y8.28 Z-0.4
G1 X4.76 Y8.28 Z-0.4
G1 X4.76 Y8.3 Z-0.4
G1 X4.76 Y8.32 Z-0.4
G1 X4.78 Y8.32 Z-0.4
G1 X4.78 Y8.34 Z-0.4
G1 X4.8 Y8.34 Z-0.4
G1 X4.8 Y8.36 Z-0.4
G1 X4.82 Y8.36 Z-0.4
G1 X4.82 Y8.38 Z-0.4
G1 X4.84 Y8.38 Z-0.4
G1 X4.84 Y8.4 Z-0.4
G1 X4.86 Y8.4 Z-0.4
G1 X4.86 Y8.42 Z-0.4
G1 X4.88 Y8.42 Z-0.4
G1 X4.88 Y8.44 Z-0.4
G1 X4.9 Y8.44 Z-0.4
G1 X4.9 Y8.46 Z-0.4
G1 X4.92 Y8.46 Z-0.4
G1 X4.92 Y8.48 Z-0.4
G1 X4.94 Y8.48 Z-0.4
G1 X4.94 Y8.5 Z-0.4
G1 X4.96 Y8.5 Z-0.4
G1 X4.98 Y8.5 Z-0.4
G1 X4.98 Y8.52 Z-0.4
G1 X5.0 Y8.52 Z-0.4
G1 X5.0 Y8.54 Z-0.4
G1 X5.02 Y8.54 Z-0.4
G1 X5.04 Y8.54 Z-0.4
G1 X5.04 Y8.56 Z-0.4
G1 X5.06 Y8.56 Z-0.4
G1 X5.08 Y8.56 Z-0.4
G1 X5.1 Y8.56 Z-0.4
G1 X5.1 Y8.58 Z-0.4
G1 X5.12 Y8.58 Z-0.4
G1 X5.14 Y8.58 Z-0.4
G1 X5.14 Y8.6 Z-0.4
G1 X5.16 Y8.6 Z-0.4
G1 X5.18 Y8.6 Z-0.4
G1 X5.2 Y8.6 Z-0.4
G1 X5.22 Y8.6 Z-0.4
G1 X5.24 Y8.6 Z-0.4
G1 X5.24 Y8.62 Z-0.4
G1 X5.26 Y8.62 Z-0.4
G1 X5.28 Y8.62 Z-0.4
G1 X5.3 Y8.62 Z-0.4
G1 X5.32 Y8.62 Z-0.4
G1 X5.34 Y8.62 Z-0.4
G1 X5.36 Y8.62 Z-0.4
G1 X5.38 Y8.62 Z-0.4
G1 X5.4 Y8.62 Z-0.4
G1 X5.42 Y8.62 Z-0.4
G1 X5.44 Y8.62 Z-0.4
G1 X5.46 Y8.62 Z-0.4
G1 X5.48 Y8.62 Z-0.4
G1 X5.5 Y8.62 Z-0.4
G1 X5.52 Y8.62 Z-0.4
G1 X5.54 Y8.62 Z-0.4
G1 X5.56 Y8.62 Z-0.4
G1 X5.58 Y8.62 Z-0.4
G1 X5.6 Y8.62 Z-0.4
G1 X5.62 Y8.62 Z-0.4
G1 X5.64 Y8.62 Z-0.4
G1 X5.64 Y8.6 Z-0.4
G1 X5.66 Y8.6 Z-0.4
G1 X5.68 Y8.6 Z-0.4
G1 X5.7 Y8.6 Z-0.4
G1 X5.72 Y8.6 Z-0.4
G1 X5.74 Y8.6 Z-0.4
G1 X5.74 Y8.58 Z-0.4
G1 X5.76 Y8.58 Z-0.4
G1 X5.78 Y8.58 Z-0.4
G1 X5.78 Y8.56 Z-0.4
G1 X5.8 Y8.56 Z-0.4
G1 X5.82 Y8.56 Z-0.4
G1 X5.84 Y8.56 Z-0.4
G1 X5.84 Y8.54 Z-0.4
G1 X5.86 Y8.54 Z-0.4
G1 X5.88 Y8.54 Z-0.4
G1 X5.88 Y8.52 Z-0.4
G1 X5.9 Y8.52 Z-0.4
G1 X5.9 Y8.5 Z-0.4
G1 X5.92 Y8.5 Z-0.4
G1 X5.94 Y8.5 Z-0.4
G1 X5.94 Y8.48 Z-0.4
G1 X5.96 Y8.48 Z-0.4
G1 X5.96 Y8.46 Z-0.4
G1 X5.98 Y8.46 Z-0.4
G1 X5.98 Y8.44 Z-0.4
G1 X6.0 Y8.44 Z-0.4
G1 X6.0 Y8.42 Z-0.4
G1 X6.02 Y8.42 Z-0.4
G1 X6.02 Y8.4 Z-0.4
G1 X6.04 Y8.4 Z-0.4
G1 X6.04 Y8.38 Z-0.4
G1 X6.06 Y8.38 Z-0.4
G1 X6.06 Y8.36 Z-0.4
G1 X6.08 Y8.36 Z-0.4
G1 X6.08 Y8.34 Z-0.4
G1 X6.1 Y8.34 Z-0.4
G1 X6.1 Y8.32 Z-0.4
G1 X6.12 Y8.32 Z-0.4
G1 X6.12 Y8.3 Z-0.4
G1 X6.12 Y8.28 Z-0.4
G1 X6.14 Y8.28 Z-0.4
G1 X6.14 Y8.26 Z-0.4
G1 X6.16 Y8.26 Z-0.4
G1 X6.16 Y8.24 Z-0.4
G1 X6.16 Y8.22 Z-0.4
G1 X6.18 Y8.22 Z-0.4
G1 X6.18 Y8.2 Z-0.4
G1 X6.18 Y8.18 Z-0.4
G1 X6.18 Y8.16 Z-0.4
G1 X6.2 Y8.16 Z-0.4
G1 X6.2 Y8.14 Z-0.4
G1 X6.2 Y8.12 Z-0.4
G1 X6.22 Y8.12 Z-0.4
G1 X6.22 Y8.1 Z-0.4
G1 X6.22 Y8.08 Z-0.4
G1 X6.22 Y8.06 Z-0.4
G1 X6.22 Y8.04 Z-0.4
G1 X6.22 Y8.02 Z-0.4
G1 X6.24 Y8.02 Z-0.4
G1 X6.24 Y8.0 Z-0.4
G1 X6.24 Y7.98 Z-0.4
G1 X6.24 Y7.96 Z-0.4
G1 X6.24 Y7.94 Z-0.4
G1 X6.24 Y7.92 Z-0.4
G1 X6.24 Y7.9 Z-0.4
G1 X6.24 Y7.88 Z-0.4
G1 X6.24 Y7.86 Z-0.4
G1 X6.24 Y7.84 Z-0.4
G1 X6.24 Y7.82 Z-0.4
G1 X6.24 Y7.8 Z-0.4
G1 X6.24 Y7.78 Z-0.4
G1 X6.24 Y7.76 Z-0.4
G1 X6.24 Y7.74 Z-0.4
G1 X6.24 Y7.72 Z-0.4
G1 X6.24 Y7.7 Z-0.4
G1 X6.24 Y7.68 Z-0.4
G1 X6.24 Y7.66 Z-0.4
G1 X6.24 Y7.64 Z-0.4
G1 X6.24 Y7.62 Z-0.4
G1 X6.22 Y7.62 Z-0.4
G1 X6.22 Y7.6 Z-0.4
G1 X6.22 Y7.58 Z-0.4
G1 X6.22 Y7.56 Z-0.4
G1 X6.22 Y7.54 Z-0.4
G1 X6.22 Y7.52 Z-0.4
G1 X6.2 Y7.52 Z-0.4
G1 X6.2 Y7.5 Z-0.4
G1 X6.2 Y7.48 Z-0.4
G1 X6.18 Y7.48 Z-0.4
G1 X6.18 Y7.46 Z-0.4
G1 X6.18 Y7.44 Z-0.4
G1 X6.18 Y7.42 Z-0.4
G1 X6.16 Y7.42 Z-0.4
G1 X6.16 Y7.4 Z-0.4
G1 X6.16 Y7.38 Z-0.4
G1 X6.14 Y7.38 Z-0.4
G1 X6.14 Y7.36 Z-0.4
G1 X6.12 Y7.36 Z-0.4
G1 X6.12 Y7.34 Z-0.4
G1 X6.12 Y7.32 Z-0.4
G1 X6.1 Y7.32 Z-0.4
G1 X6.1 Y7.3 Z-0.4
G1 X6.08 Y7.3 Z-0.4
G1 X6.08 Y7.28 Z-0.4
G1 X6.06 Y7.28 Z-0.4
G1 X6.06 Y7.26 Z-0.4
G1 X6.04 Y7.26 Z-0.4
G1 X6.04 Y7.24 Z-0.4
G1 X6.02 Y7.24 Z-0.4
G1 X6.02 Y7.22 Z-0.4
G1 X6.0 Y7.22 Z-0.4
G1 X6.0 Y7.2 Z-0.4
G1 X5.98 Y7.2 Z-0.4
G1 X5.98 Y7.18 Z-0.4
G1 X5.96 Y7.18 Z-0.4
G1 X5.96 Y7.16 Z-0.4
G1 X5.94 Y7.16 Z-0.4
G1 X5.94 Y7.14 Z-0.4
G1 X5.92 Y7.14 Z-0.4
G1 X5.9 Y7.14 Z-0.4
G1 X5.9 Y7.12 Z-0.4
G1 X5.88 Y7.12 Z-0.4
G1 X5.88 Y7.1 Z-0.4
G1 X5.86 Y7.1 Z-0.4
G1 X5.84 Y7.1 Z-0.4
G1 X5.84 Y7.08 Z-0.4
G1 X5.82 Y7.08 Z-0.4
G1 X5.8 Y7.08 Z-0.4
G1 X5.78 Y7.08 Z-0.4
G1 X5.78 Y7.06 Z-0.4
G1 X5.76 Y7.06 Z-0.4
G1 X5.74 Y7.06 Z-0.4
G1 X5.74 Y7.04 Z-0.4
G1 X5.72 Y7.04 Z-0.4
G1 X5.7 Y7.04 Z-0.4
G1 X5.68 Y7.04 Z-0.4
G1 X5.66 Y7.04 Z-0.4
G1 X5.64 Y7.04 Z-0.4
G1 X5.64 Y7.02 Z-0.4
G1 X5.62 Y7.02 Z-0.4
G1 X5.6 Y7.02 Z-0.4
G1 X5.58 Y7.02 Z-0.4
G1 X5.56 Y7.02 Z-0.4
G1 X5.54 Y7.02 Z-0.4
G1 X5.52 Y7.02 Z-0.4
G1 X5.5 Y7.02 Z-0.4
G1 X5.48 Y7.02 Z-0.4
G1 X5.46 Y7.02 Z-0.4
G1 X5.44 Y7.02 Z-0.4
G1 X5.42 Y7.02 Z-0.4
G1 X5.4 Y7.02 Z-0.4
G1 X5.38 Y7.02 Z-0.4
G1 X5.36 Y7.02 Z-0.4
G1 X5.34 Y7.02 Z-0.4
G1 X5.32 Y7.02 Z-0.4
G1 X5.3 Y7.02 Z-0.4
G1 X5.28 Y7.02 Z-0.4
G1 X5.26 Y7.02 Z-0.4
G1 X5.24 Y7.02 Z-0.4
G1 X5.24 Y7.04 Z-0.4
G1 X5.22 Y7.04 Z-0.4
G1 X5.2 Y7.04 Z-0.4
G1 X5.18 Y7.04 Z-0.4
G1 X5.16 Y7.04 Z-0.4
G1 X5.14 Y7.04 Z-0.4
G1 X5.14 Y7.06 Z-0.4
G1 X5.12 Y7.06 Z-0.4
G1 X5.1 Y7.06 Z-0.4
G1 X5.1 Y7.08 Z-0.4
G1 X5.08 Y7.08 Z-0.4
G1 X5.06 Y7.08 Z-0.4
G1 X5.04 Y7.08 Z-0.4
G1 X5.04 Y7.1 Z-0.4
G1 X5.02 Y7.1 Z-0.4
G1 X5.0 Y7.1 Z-0.4
G1 X5.0 Y7.12 Z-0.4
G1 X4.98 Y7.12 Z-0.4
G1 X4.98 Y7.14 Z-0.4
G1 X4.96 Y7.14 Z-0.4
G1 X4.94 Y7.14 Z-0.4
G1 X4.94 Y7.16 Z-0.4
G1 X4.92 Y7.16 Z-0.4
G1 X4.92 Y7.18 Z-0.4
G1 X4.9 Y7.18 Z-0.4
G1 X4.9 Y7.2 Z-0.4
G1 X4.88 Y7.2 Z-0.4
G1 X4.88 Y7.22 Z-0.4
G1 X4.86 Y7.22 Z-0.4
G1 X4.86 Y7.24 Z-0.4
G1 X4.84 Y7.24 Z-0.4
G1 X4.84 Y7.26 Z-0.4
G1 X4.82 Y7.26 Z-0.4
G1 X4.82 Y7.28 Z-0.4
G1 X4.8 Y7.28 Z-0.4
G1 X4.8 Y7.3 Z-0.4
G1 X4.78 Y7.3 Z-0.4
G1 X4.78 Y7.32 Z-0.4
G1 X4.76 Y7.32 Z-0.4
G1 X4.76 Y7.34 Z-0.4
G1 X4.76 Y7.36 Z-0.4
G1 X4.74 Y7.36 Z-0.4
G1 X4.74 Y7.38 Z-0.4
G1 X4.72 Y7.38 Z-0.4
G1 X4.72 Y7.4 Z-0.4
G1 X4.72 Y7.42 Z-0.4
G1 X4.7 Y7.42 Z-0.4
G1 X4.7 Y7.44 Z-0.4
G1 X4.7 Y7.46 Z-0.4
G1 X4.7 Y7.48 Z-0.4
G1 X4.68 Y7.48 Z-0.4
G1 X4.68 Y7.5 Z-0.4
G1 X4.68 Y7.52 Z-0.4
G1 X4.66 Y7.52 Z-0.4
G1 X4.66 Y7.54 Z-0.4
G1 X4.66 Y7.56 Z-0.4
G1 X4.66 Y7.58 Z-0.4
G1 X4.66 Y7.6 Z-0.4
G1 X4.66 Y7.6 Z5
M5
G0 X4.66 Y20.12 Z5
M3 P100
G1 X4.66 Y20.12 Z-0.4
G1 X4.64 Y20.12 Z-0.4
G1 X4.64 Y20.14 Z-0.4
G1 X4.64 Y20.16 Z-0.4
G1 X4.64 Y20.18 Z-0.4
G1 X4.64 Y20.2 Z-0.4
G1 X4.64 Y20.22 Z-0.4
G1 X4.64 Y20.24 Z-0.4
G1 X4.64 Y20.26 Z-0.4
G1 X4.64 Y20.28 Z-0.4
G1 X4.64 Y20.3 Z-0.4
G1 X4.64 Y20.32 Z-0.4
G1 X4.64 Y20.34 Z-0.4
G1 X4.64 Y20.36 Z-0.4
G1 X4.64 Y20.38 Z-0.4
G1 X4.64 Y20.4 Z-0.4
G1 X4.64 Y20.42 Z-0.4
G1 X4.64 Y20.44 Z-0.4
G1 X4.64 Y20.46 Z-0.4
G1 X4.64 Y20.48 Z-0.4
G1 X4.64 Y20.5 Z-0.4
G1 X4.64 Y20.52 Z-0.4
G1 X4.66 Y20.52 Z-0.4
G1 X4.66 Y20.54 Z-0.4
G1 X4.66 Y20.56 Z-0.4
G1 X4.66 Y20.58 Z-0.4
G1 X4.66 Y20.6 Z-0.4
G1 X4.66 Y20.62 Z-0.4
G1 X4.68 Y20.62 Z-0.4
G1 X4.68 Y20.64 Z-0.4
G1 X4.68 Y20.66 Z-0.4
G1 X4.7 Y20.66 Z-0.4
G1 X4.7 Y20.68 Z-0.4
G1 X4.7 Y20.7 Z-0.4
G1 X4.7 Y20.72 Z-0.4
G1 X4.72 Y20.72 Z-0.4
G1 X4.72 Y20.74 Z-0.4
G1 X4.72 Y20.76 Z-0.4
G1 X4.74 Y20.76 Z-0.4
G1 X4.74 Y20.78 Z-0.4
G1 X4.76 Y20.78 Z-0.4
G1 X4.76 Y20.8 Z-0.4
G1 X4.76 Y20.82 Z-0.4
G1 X4.78 Y20.82 Z-0.4
G1 X4.78 Y20.84 Z-0.4
G1 X4.8 Y20.84 Z-0.4
G1 X4.8 Y20.86 Z-0.4
G1 X4.82 Y20.86 Z-0.4
G1 X4.82 Y20.88 Z-0.4
G1 X4.84 Y20.88 Z-0.4
G1 X4.84 Y20.9 Z-0.4
G1 X4.86 Y20.9 Z-0.4
G1 X4.86 Y20.92 Z-0.4
G1 X4.88 Y20.92 Z-0.4
G1 X4.88 Y20.94 Z-0.4
G1 X4.9 Y20.94 Z-0.4
G1 X4.9 Y20.96 Z-0.4
G1 X4.92 Y20.96 Z-0.4
G1 X4.92 Y20.98 Z-0.4
G1 X4.94 Y20.98 Z-0.4
G1 X4.94 Y21.0 Z-0.4
G1 X4.96 Y21.0 Z-0.4
G1 X4.98 Y21.0 Z-0.4
G1 X4.98 Y21.02 Z-0.4
G1 X5.0 Y21.02 Z-0.4
G1 X5.0 Y21.04 Z-0.4
G1 X5.02 Y21.04 Z-0.4
G1 X5.04 Y21.04 Z-0.4
G1 X5.04 Y21.06 Z-0.4
G1 X5.06 Y21.06 Z-0.4
G1 X5.08 Y21.06 Z-0.4
G1 X5.1 Y21.06 Z-0.4
G1 X5.1 Y21.08 Z-0.4
G1 X5.12 Y21.08 Z-0.4
G1 X5.14 Y21.08 Z-0.4
G1 X5.14 Y21.1 Z-0.4
G1 X5.16 Y21.1 Z-0.4
G1 X5.18 Y21.1 Z-0.4
G1 X5.2 Y21.1 Z-0.4
G1 X5.22 Y21.1 Z-0.4
G1 X5.24 Y21.1 Z-0.4
G1 X5.24 Y21.12 Z-0.4
G1 X5.26 Y21.12 Z-0.4
G1 X5.28 Y21.12 Z-0.4
G1 X5.3 Y21.12 Z-0.4
G1 X5.32 Y21.12 Z-0.4
G1 X5.34 Y21.12 Z-0.4
G1 X5.36 Y21.12 Z-0.4
G1 X5.38 Y21.12 Z-0.4
G1 X5.4 Y21.12 Z-0.4
G1 X5.42 Y21.12 Z-0.4
G1 X5.44 Y21.12 Z-0.4
G1 X5.46 Y21.12 Z-0.4
G1 X5.48 Y21.12 Z-0.4
G1 X5.5 Y21.12 Z-0.4
G1 X5.52 Y21.12 Z-0.4
G1 X5.54 Y21.12 Z-0.4
G1 X5.56 Y21.12 Z-0.4
G1 X5.58 Y21.12 Z-0.4
G1 X5.6 Y21.12 Z-0.4
G1 X5.62 Y21.12 Z-0.4
G1 X5.64 Y21.12 Z-0.4
G1 X5.64 Y21.1 Z-0.4
G1 X5.66 Y21.1 Z-0.4
G1 X5.68 Y21.1 Z-0.4
G1 X5.7 Y21.1 Z-0.4
G1 X5.72 Y21.1 Z-0.4
G1 X5.74 Y21.1 Z-0.4
G1 X5.74 Y21.08 Z-0.4
G1 X5.76 Y21.08 Z-0.4
G1 X5.78 Y21.08 Z-0.4
G1 X5.78 Y21.06 Z-0.4
G1 X5.8 Y21.06 Z-0.4
G1 X5.82 Y21.06 Z-0.4
G1 X5.84 Y21.06 Z-0.4
G1 X5.84 Y21.04 Z-0.4
G1 X5.86 Y21.04 Z-0.4
G1 X5.88 Y21.04 Z-0.4
G1 X5.88 Y21.02 Z-0.4
G1 X5.9 Y21.02 Z-0.4
G1 X5.9 Y21.0 Z-0.4
G1 X5.92 Y21.0 Z-0.4
G1 X5.94 Y21.0 Z-0.4
G1 X5.94 Y20.98 Z-0.4
G1 X5.96 Y20.98 Z-0.4
G1 X5.96 Y20.96 Z-0.4
G1 X5.98 Y20.96 Z-0.4
G1 X5.98 Y20.94 Z-0.4
G1 X6.0 Y20.94 Z-0.4
G1 X6.0 Y20.92 Z-0.4
G1 X6.02 Y20.92 Z-0.4
G1 X6.02 Y20.9 Z-0.4
G1 X6.04 Y20.9 Z-0.4
G1 X6.04 Y20.88 Z-0.4
G1 X6.06 Y20.88 Z-0.4
G1 X6.06 Y20.86 Z-0.4
G1 X6.08 Y20.86 Z-0.4
G1 X6.08 Y20.84 Z-0.4
G1 X6.1 Y20.84 Z-0.4
G1 X6.1 Y20.82 Z-0.4
G1 X6.12 Y20.82 Z-0.4
G1 X6.12 Y20.8 Z-0.4
G1 X6.12 Y20.78 Z-0.4
G1 X6.14 Y20.78 Z-0.4
G1 X6.14 Y20.76 Z-0.4
G1 X6.16 Y20.76 Z-0.4
G1 X6.16 Y20.74 Z-0.4
G1 X6.16 Y20.72 Z-0.4
G1 X6.18 Y20.72 Z-0.4
G1 X6.18 Y20.7 Z-0.4
G1 X6.18 Y20.68 Z-0.4
G1 X6.18 Y20.66 Z-0.4
G1 X6.2 Y20.66 Z-0.4
G1 X6.2 Y20.64 Z-0.4
G1 X6.2 Y20.62 Z-0.4
G1 X6.22 Y20.62 Z-0.4
G1 X6.22 Y20.6 Z-0.4
G1 X6.22 Y20.58 Z-0.4
G1 X6.22 Y20.56 Z-0.4
G1 X6.22 Y20.54 Z-0.4
G1 X6.22 Y20.52 Z-0.4
G1 X6.24 Y20.52 Z-0.4
G1 X6.24 Y20.5 Z-0.4
G1 X6.24 Y20.48 Z-0.4
G1 X6.24 Y20.46 Z-0.4
G1 X6.24 Y20.44 Z-0.4
G1 X6.24 Y20.42 Z-0.4
G1 X6.24 Y20.4 Z-0.4
G1 X6.24 Y20.38 Z-0.4
G1 X6.24 Y20.36 Z-0.4
G1 X6.24 Y20.34 Z-0.4
G1 X6.24 Y20.32 Z-0.4
G1 X6.24 Y20.3 Z-0.4
G1 X6.24 Y20.28 Z-0.4
G1 X6.24 Y20.26 Z-0.4
G1 X6.24 Y20.24 Z-0.4
G1 X6.24 Y20.22 Z-0.4
G1 X6.24 Y20.2 Z-0.4
G1 X6.24 Y20.18 Z-0.4
G1 X6.24 Y20.16 Z-0.4
G1 X6.24 Y20.14 Z-0.4
G1 X6.24 Y20.12 Z-0.4
G1 X6.22 Y20.12 Z-0.4
G1 X6.22 Y20.1 Z-0.4
G1 X6.22 Y20.08 Z-0.4
G1 X6.22 Y20.06 Z-0.4
G1 X6.22 Y20.04 Z-0.4
G1 X6.22 Y20.02 Z-0.4
G1 X6.2 Y20.02 Z-0.4
G1 X6.2 Y20.0 Z-0.4
G1 X6.2 Y19.98 Z-0.4
G1 X6.18 Y19.98 Z-0.4
G1 X6.18 Y19.96 Z-0.4
G1 X6.18 Y19.94 Z-0.4
G1 X6.18 Y19.92 Z-0.4
G1 X6.16 Y19.92 Z-0.4
G1 X6.16 Y19.9 Z-0.4
G1 X6.16 Y19.88 Z-0.4
G1 X6.14 Y19.88 Z-0.4
G1 X6.14 Y19.86 Z-0.4
G1 X6.12 Y19.86 Z-0.4
G1 X6.12 Y19.84 Z-0.4
G1 X6.12 Y19.82 Z-0.4
G1 X6.1 Y19.82 Z-0.4
G1 X6.1 Y19.8 Z-0.4
G1 X6.08 Y19.8 Z-0.4
G1 X6.08 Y19.78 Z-0.4
G1 X6.06 Y19.78 Z-0.4
G1 X6.06 Y19.76 Z-0.4
G1 X6.04 Y19.76 Z-0.4
G1 X6.04 Y19.74 Z-0.4
G1 X6.02 Y19.74 Z-0.4
G1 X6.02 Y19.72 Z-0.4
G1 X6.0 Y19.72 Z-0.4
G1 X6.0 Y19.7 Z-0.4
G1 X5.98 Y19.7 Z-0.4
G1 X5.98 Y19.68 Z-0.4
G1 X5.96 Y19.68 Z-0.4
G1 X5.96 Y19.66 Z-0.4
G1 X5.94 Y19.66 Z-0.4
G1 X5.94 Y19.64 Z-0.4
G1 X5.92 Y19.64 Z-0.4
G1 X5.9 Y19.64 Z-0.4
G1 X5.9 Y19.62 Z-0.4
G1 X5.88 Y19.62 Z-0.4
G1 X5.88 Y19.6 Z-0.4
G1 X5.86 Y19.6 Z-0.4
G1 X5.84 Y19.6 Z-0.4
G1 X5.84 Y19.58 Z-0.4
G1 X5.82 Y19.58 Z-0.4
G1 X5.8 Y19.58 Z-0.4
G1 X5.78 Y19.58 Z-0.4
G1 X5.78 Y19.56 Z-0.4
G1 X5.76 Y19.56 Z-0.4
G1 X5.74 Y19.56 Z-0.4
G1 X5.74 Y19.54 Z-0.4
G1 X5.72 Y19.54 Z-0.4
G1 X5.7 Y19.54 Z-0.4
G1 X5.68 Y19.54 Z-0.4
G1 X5.66 Y19.54 Z-0.4
G1 X5.64 Y19.54 Z-0.4
G1 X5.64 Y19.52 Z-0.4
G1 X5.62 Y19.52 Z-0.4
G1 X5.6 Y19.52 Z-0.4
G1 X5.58 Y19.52 Z-0.4
G1 X5.56 Y19.52 Z-0.4
G1 X5.54 Y19.52 Z-0.4
G1 X5.52 Y19.52 Z-0.4
G1 X5.5 Y19.52 Z-0.4
G1 X5.48 Y19.52 Z-0.4
G1 X5.46 Y19.52 Z-0.4
G1 X5.44 Y19.52 Z-0.4
G1 X5.42 Y19.52 Z-0.4
G1 X5.4 Y19.52 Z-0.4
G1 X5.38 Y19.52 Z-0.4
G1 X5.36 Y19.52 Z-0.4
G1 X5.34 Y19.52 Z-0.4
G1 X5.32 Y19.52 Z-0.4
G1 X5.3 Y19.52 Z-0.4
G1 X5.28 Y19.52 Z-0.4
G1 X5.26 Y19.52 Z-0.4
G1 X5.24 Y19.52 Z-0.4
G1 X5.24 Y19.54 Z-0.4
G1 X5.22 Y19.54 Z-0.4
G1 X5.2 Y19.54 Z-0.4
G1 X5.18 Y19.54 Z-0.4
G1 X5.16 Y19.54 Z-0.4
G1 X5.14 Y19.54 Z-0.4
G1 X5.14 Y19.56 Z-0.4
G1 X5.12 Y19.56 Z-0.4
G1 X5.1 Y19.56 Z-0.4
G1 X5.1 Y19.58 Z-0.4
G1 X5.08 Y19.58 Z-0.4
G1 X5.06 Y19.58 Z-0.4
G1 X5.04 Y19.58 Z-0.4
G1 X5.04 Y19.6 Z-0.4
G1 X5.02 Y19.6 Z-0.4
G1 X5.0 Y19.6 Z-0.4
G1 X5.0 Y19.62 Z-0.4
G1 X4.98 Y19.62 Z-0.4
G1 X4.98 Y19.64 Z-0.4
G1 X4.96 Y19.64 Z-0.4
G1 X4.94 Y19.64 Z-0.4
G1 X4.94 Y19.66 Z-0.4
G1 X4.92 Y19.66 Z-0.4
G1 X4.92 Y19.68 Z-0.4
G1 X4.9 Y19.68 Z-0.4
G1 X4.9 Y19.7 Z-0.4
G1 X4.88 Y19.7 Z-0.4
G1 X4.88 Y19.72 Z-0.4
G1 X4.86 Y19.72 Z-0.4
G1 X4.86 Y19.74 Z-0.4
G1 X4.84 Y19.74 Z-0.4
G1 X4.84 Y19.76 Z-0.4
G1 X4.82 Y19.76 Z-0.4
G1 X4.82 Y19.78 Z-0.4
G1 X4.8 Y19.78 Z-0.4
G1 X4.8 Y19.8 Z-0.4
G1 X4.78 Y19.8 Z-0.4
G1 X4.78 Y19.82 Z-0.4
G1 X4.76 Y19.82 Z-0.4
G1 X4.76 Y19.84 Z-0.4
G1 X4.76 Y19.86 Z-0.4
G1 X4.74 Y19.86 Z-0.4
G1 X4.74 Y19.88 Z-0.4
G1 X4.72 Y19.88 Z-0.4
G1 X4.72 Y19.9 Z-0.4
G1 X4.72 Y19.92 Z-0.4
G1 X4.7 Y19.92 Z-0.4
G1 X4.7 Y19.94 Z-0.4
G1 X4.7 Y19.96 Z-0.4
G1 X4.7 Y19.98 Z-0.4
G1 X4.68 Y19.98 Z-0.4
G1 X4.68 Y20.0 Z-0.4
G1 X4.68 Y20.02 Z-0.4
G1 X4.66 Y20.02 Z-0.4
G1 X4.66 Y20.04 Z-0.4
G1 X4.66 Y20.06 Z-0.4
G1 X4.66 Y20.08 Z-0.4
G1 X4.66 Y20.1 Z-0.4
G1 X4.66 Y20.1 Z5
M5
G0 X10.82 Y3.54 Z5
M3 P100
G1 X10.82 Y3.54 Z-0.4
G1 X10.8 Y3.54 Z-0.4
G1 X10.8 Y3.56 Z-0.4
G1 X10.8 Y3.58 Z-0.4
G1 X10.8 Y3.6 Z-0.4
G1 X10.8 Y3.62 Z-0.4
G1 X10.8 Y3.64 Z-0.4
G1 X10.8 Y3.66 Z-0.4
G1 X10.8 Y3.68 Z-0.4
G1 X10.8 Y3.7 Z-0.4
G1 X10.8 Y3.72 Z-0.4
G1 X10.8 Y3.74 Z-0.4
G1 X10.8 Y3.76 Z-0.4
G1 X10.8 Y3.78 Z-0.4
G1 X10.8 Y3.8 Z-0.4
G1 X10.8 Y3.82 Z-0.4
G1 X10.8 Y3.84 Z-0.4
G1 X10.8 Y3.86 Z-0.4
G1 X10.8 Y3.88 Z-0.4
G1 X10.8 Y3.9 Z-0.4
G1 X10.8 Y3.92 Z-0.4
G1 X10.8 Y3.94 Z-0.4
G1 X10.8 Y3.96 Z-0.4
G1 X10.8 Y3.98 Z-0.4
G1 X10.8 Y4.0 Z-0.4
G1 X10.8 Y4.02 Z-0.4
G1 X10.8 Y4.04 Z-0.4
G1 X10.8 Y4.06 Z-0.4
G1 X10.82 Y4.06 Z-0.4
G1 X10.82 Y4.08 Z-0.4
G1 X10.82 Y4.1 Z-0.4
G1 X10.82 Y4.12 Z-0.4
G1 X10.82 Y4.14 Z-0.4
G1 X10.84 Y4.14 Z-0.4
G1 X10.84 Y4.16 Z-0.4
G1 X10.84 Y4.18 Z-0.4
G1 X10.84 Y4.2 Z-0.4
G1 X10.86 Y4.2 Z-0.4
G1 X10.86 Y4.22 Z-0.4
G1 X10.88 Y4.22 Z-0.4
G1 X10.88 Y4.24 Z-0.4
G1 X10.88 Y4.26 Z-0.4
G1 X10.9 Y4.26 Z-0.4
G1 X10.9 Y4.28 Z-0.4
G1 X10.9 Y4.3 Z-0.4
G1 X10.92 Y4.3 Z-0.4
G1 X10.92 Y4.32 Z-0.4
G1 X10.94 Y4.32 Z-0.4
G1 X10.94 Y4.34 Z-0.4
G1 X10.94 Y4.36 Z-0.4
G1 X10.96 Y4.36 Z-0.4
G1 X10.96 Y4.38 Z-0.4
G1 X10.96 Y4.4 Z-0.4
G1 X10.98 Y4.4 Z-0.4
G1 X10.98 Y4.42 Z-0.4
G1 X11.0 Y4.42 Z-0.4
G1 X11.0 Y4.44 Z-0.4
G1 X11.0 Y4.46 Z-0.4
G1 X11.02 Y4.46 Z-0.4
G1 X11.02 Y4.48 Z-0.4
G1 X11.02 Y4.5 Z-0.4
G1 X11.04 Y4.5 Z-0.4
G1 X11.04 Y4.52 Z-0.4
G1 X11.06 Y4.52 Z-0.4
G1 X11.06 Y4.54 Z-0.4
G1 X11.08 Y4.54 Z-0.4
G1 X11.08 Y4.56 Z-0.4
G1 X11.1 Y4.56 Z-0.4
G1 X11.1 Y4.58 Z-0.4
G1 X11.12 Y4.58 Z-0.4
G1 X11.14 Y4.58 Z-0.4
G1 X11.14 Y4.6 Z-0.4
G1 X11.16 Y4.6 Z-0.4
G1 X11.18 Y4.6 Z-0.4
G1 X11.18 Y4.62 Z-0.4
G1 X11.2 Y4.62 Z-0.4
G1 X11.22 Y4.62 Z-0.4
G1 X11.22 Y4.64 Z-0.4
G1 X11.24 Y4.64 Z-0.4
G1 X11.26 Y4.64 Z-0.4
G1 X11.26 Y4.66 Z-0.4
G1 X11.28 Y4.66 Z-0.4
G1 X11.3 Y4.66 Z-0.4
G1 X11.3 Y4.68 Z-0.4
G1 X11.32 Y4.68 Z-0.4
G1 X11.32 Y4.7 Z-0.4
G1 X11.34 Y4.7 Z-0.4
G1 X11.36 Y4.7 Z-0.4
G1 X11.36 Y4.72 Z-0.4
G1 X11.38 Y4.72 Z-0.4
G1 X11.4 Y4.72 Z-0.4
G1 X11.4 Y4.74 Z-0.4
G1 X11.42 Y4.74 Z-0.4
G1 X11.44 Y4.74 Z-0.4
G1 X11.46 Y4.74 Z-0.4
G1 X11.48 Y4.74 Z-0.4
G1 X11.5 Y4.74 Z-0.4
G1 X11.52 Y4.74 Z-0.4
G1 X11.52 Y4.76 Z-0.4
G1 X11.54 Y4.76 Z-0.4
G1 X11.56 Y4.76 Z-0.4
G1 X11.58 Y4.76 Z-0.4
G1 X11.6 Y4.76 Z-0.4
G1 X11.62 Y4.76 Z-0.4
G1 X11.62 Y4.78 Z-0.4
G1 X11.64 Y4.78 Z-0.4
G1 X11.66 Y4.78 Z-0.4
G1 X11.68 Y4.78 Z-0.4
G1 X11.7 Y4.78 Z-0.4
G1 X11.72 Y4.78 Z-0.4
G1 X11.74 Y4.78 Z-0.4
G1 X11.76 Y4.78 Z-0.4
G1 X11.78 Y4.78 Z-0.4
G1 X11.8 Y4.78 Z-0.4
G1 X11.82 Y4.78 Z-0.4
G1 X11.84 Y4.78 Z-0.4
G1 X11.86 Y4.78 Z-0.4
G1 X11.88 Y4.78 Z-0.4
G1 X11.9 Y4.78 Z-0.4
G1 X11.92 Y4.78 Z-0.4
G1 X11.94 Y4.78 Z-0.4
G1 X11.96 Y4.78 Z-0.4
G1 X11.96 Y4.76 Z-0.4
G1 X11.98 Y4.76 Z-0.4
G1 X12.0 Y4.76 Z-0.4
G1 X12.02 Y4.76 Z-0.4
G1 X12.04 Y4.76 Z-0.4
G1 X12.06 Y4.76 Z-0.4
G1 X12.06 Y4.74 Z-0.4
G1 X12.08 Y4.74 Z-0.4
G1 X12.1 Y4.74 Z-0.4
G1 X12.12 Y4.74 Z-0.4
G1 X12.14 Y4.74 Z-0.4
G1 X12.16 Y4.74 Z-0.4
G1 X12.18 Y4.74 Z-0.4
G1 X12.18 Y4.72 Z-0.4
G1 X12.2 Y4.72 Z-0.4
G1 X12.22 Y4.72 Z-0.4
G1 X12.22 Y4.7 Z-0.4
G1 X12.24 Y4.7 Z-0.4
G1 X12.26 Y4.7 Z-0.4
G1 X12.28 Y4.7 Z-0.4
G1 X12.28 Y4.68 Z-0.4
G1 X12.3 Y4.68 Z-0.4
G1 X12.3 Y4.66 Z-0.4
G1 X12.32 Y4.66 Z-0.4
G1 X12.32 Y4.64 Z-0.4
G1 X12.34 Y4.64 Z-0.4
G1 X12.36 Y4.64 Z-0.4
G1 X12.36 Y4.62 Z-0.4
G1 X12.38 Y4.62 Z-0.4
G1 X12.4 Y4.62 Z-0.4
G1 X12.4 Y4.6 Z-0.4
G1 X12.42 Y4.6 Z-0.4
G1 X12.44 Y4.6 Z-0.4
G1 X12.44 Y4.58 Z-0.4
G1 X12.46 Y4.58 Z-0.4
G1 X12.48 Y4.58 Z-0.4
G1 X12.48 Y4.56 Z-0.4
G1 X12.5 Y4.56 Z-0.4
G1 X12.5 Y4.54 Z-0.4
G1 X12.52 Y4.54 Z-0.4
G1 X12.52 Y4.52 Z-0.4
G1 X12.54 Y4.52 Z-0.4
G1 X12.54 Y4.5 Z-0.4
G1 X12.56 Y4.5 Z-0.4
G1 X12.56 Y4.48 Z-0.4
G1 X12.56 Y4.46 Z-0.4
G1 X12.58 Y4.46 Z-0.4
G1 X12.58 Y4.44 Z-0.4
G1 X12.58 Y4.42 Z-0.4
G1 X12.6 Y4.42 Z-0.4
G1 X12.6 Y4.4 Z-0.4
G1 X12.62 Y4.4 Z-0.4
G1 X12.62 Y4.38 Z-0.4
G1 X12.64 Y4.38 Z-0.4
G1 X12.64 Y4.36 Z-0.4
G1 X12.64 Y4.34 Z-0.4
G1 X12.66 Y4.34 Z-0.4
G1 X12.66 Y4.32 Z-0.4
G1 X12.68 Y4.32 Z-0.4
G1 X12.68 Y4.3 Z-0.4
G1 X12.7 Y4.3 Z-0.4
G1 X12.7 Y4.28 Z-0.4
G1 X12.7 Y4.26 Z-0.4
G1 X12.72 Y4.26 Z-0.4
G1 X12.72 Y4.24 Z-0.4
G1 X12.72 Y4.22 Z-0.4
G1 X12.74 Y4.22 Z-0.4
G1 X12.74 Y4.2 Z-0.4
G1 X12.74 Y4.18 Z-0.4
G1 X12.74 Y4.16 Z-0.4
G1 X12.74 Y4.14 Z-0.4
G1 X12.76 Y4.14 Z-0.4
G1 X12.76 Y4.12 Z-0.4
G1 X12.76 Y4.1 Z-0.4
G1 X12.76 Y4.08 Z-0.4
G1 X12.76 Y4.06 Z-0.4
G1 X12.78 Y4.06 Z-0.4
G1 X12.78 Y4.04 Z-0.4
G1 X12.78 Y4.02 Z-0.4
G1 X12.78 Y4.0 Z-0.4
G1 X12.78 Y3.98 Z-0.4
G1 X12.78 Y3.96 Z-0.4
G1 X12.8 Y3.96 Z-0.4
G1 X12.8 Y3.94 Z-0.4
G1 X12.8 Y3.92 Z-0.4
G1 X12.8 Y3.9 Z-0.4
G1 X12.8 Y3.88 Z-0.4
G1 X12.8 Y3.86 Z-0.4
G1 X12.8 Y3.84 Z-0.4
G1 X12.8 Y3.82 Z-0.4
G1 X12.8 Y3.8 Z-0.4
G1 X12.8 Y3.78 Z-0.4
G1 X12.8 Y3.76 Z-0.4
G1 X12.8 Y3.74 Z-0.4
G1 X12.8 Y3.72 Z-0.4
G1 X12.78 Y3.72 Z-0.4
G1 X12.78 Y3.7 Z-0.4
G1 X12.78 Y3.68 Z-0.4
G1 X12.78 Y3.66 Z-0.4
G1 X12.78 Y3.64 Z-0.4
G1 X12.78 Y3.62 Z-0.4
G1 X12.78 Y3.6 Z-0.4
G1 X12.78 Y3.58 Z-0.4
G1 X12.78 Y3.56 Z-0.4
G1 X12.78 Y3.54 Z-0.4
G1 X12.76 Y3.54 Z-0.4
G1 X12.76 Y3.52 Z-0.4
G1 X12.76 Y3.5 Z-0.4
G1 X12.76 Y3.48 Z-0.4
G1 X12.76 Y3.46 Z-0.4
G1 X12.76 Y3.44 Z-0.4
G1 X12.74 Y3.44 Z-0.4
G1 X12.74 Y3.42 Z-0.4
G1 X12.74 Y3.4 Z-0.4
G1 X12.74 Y3.38 Z-0.4
G1 X12.74 Y3.36 Z-0.4
G1 X12.72 Y3.36 Z-0.4
G1 X12.72 Y3.34 Z-0.4
G1 X12.72 Y3.32 Z-0.4
G1 X12.7 Y3.32 Z-0.4
G1 X12.7 Y3.3 Z-0.4
G1 X12.7 Y3.28 Z-0.4
G1 X12.68 Y3.28 Z-0.4
G1 X12.68 Y3.26 Z-0.4
G1 X12.66 Y3.26 Z-0.4
G1 X12.66 Y3.24 Z-0.4
G1 X12.64 Y3.24 Z-0.4
G1 X12.64 Y3.22 Z-0.4
G1 X12.64 Y3.2 Z-0.4
G1 X12.62 Y3.2 Z-0.4
G1 X12.62 Y3.18 Z-0.4
G1 X12.6 Y3.18 Z-0.4
G1 X12.6 Y3.16 Z-0.4
G1 X12.58 Y3.16 Z-0.4
G1 X12.58 Y3.14 Z-0.4
G1 X12.58 Y3.12 Z-0.4
G1 X12.56 Y3.12 Z-0.4
G1 X12.56 Y3.1 Z-0.4
G1 X12.54 Y3.1 Z-0.4
G1 X12.54 Y3.08 Z-0.4
G1 X12.52 Y3.08 Z-0.4
G1 X12.52 Y3.06 Z-0.4
G1 X12.5 Y3.06 Z-0.4
G1 X12.48 Y3.06 Z-0.4
G1 X12.48 Y3.04 Z-0.4
G1 X12.46 Y3.04 Z-0.4
G1 X12.46 Y3.02 Z-0.4
G1 X12.44 Y3.02 Z-0.4
G1 X12.44 Y3.0 Z-0.4
G1 X12.42 Y3.0 Z-0.4
G1 X12.4 Y3.0 Z-0.4
G1 X12.4 Y2.98 Z-0.4
G1 X12.38 Y2.98 Z-0.4
G1 X12.38 Y2.96 Z-0.4
G1 X12.36 Y2.96 Z-0.4
G1 X12.36 Y2.94 Z-0.4
G1 X12.34 Y2.94 Z-0.4
G1 X12.32 Y2.94 Z-0.4
G1 X12.32 Y2.92 Z-0.4
G1 X12.3 Y2.92 Z-0.4
G1 X12.28 Y2.92 Z-0.4
G1 X12.28 Y2.9 Z-0.4
G1 X12.26 Y2.9 Z-0.4
G1 X12.24 Y2.9 Z-0.4
G1 X12.22 Y2.9 Z-0.4
G1 X12.22 Y2.88 Z-0.4
G1 X12.2 Y2.88 Z-0.4
G1 X12.18 Y2.88 Z-0.4
G1 X12.18 Y2.86 Z-0.4
G1 X12.16 Y2.86 Z-0.4
G1 X12.14 Y2.86 Z-0.4
G1 X12.12 Y2.86 Z-0.4
G1 X12.12 Y2.84 Z-0.4
G1 X12.1 Y2.84 Z-0.4
G1 X12.08 Y2.84 Z-0.4
G1 X12.08 Y2.82 Z-0.4
G1 X12.06 Y2.82 Z-0.4
G1 X12.04 Y2.82 Z-0.4
G1 X12.02 Y2.82 Z-0.4
G1 X12.0 Y2.82 Z-0.4
G1 X11.98 Y2.82 Z-0.4
G1 X11.96 Y2.82 Z-0.4
G1 X11.94 Y2.82 Z-0.4
G1 X11.92 Y2.82 Z-0.4
G1 X11.9 Y2.82 Z-0.4
G1 X11.88 Y2.82 Z-0.4
G1 X11.86 Y2.82 Z-0.4
G1 X11.84 Y2.82 Z-0.4
G1 X11.82 Y2.82 Z-0.4
G1 X11.8 Y2.82 Z-0.4
G1 X11.78 Y2.82 Z-0.4
G1 X11.76 Y2.82 Z-0.4
G1 X11.74 Y2.82 Z-0.4
G1 X11.72 Y2.82 Z-0.4
G1 X11.7 Y2.82 Z-0.4
G1 X11.68 Y2.82 Z-0.4
G1 X11.66 Y2.82 Z-0.4
G1 X11.64 Y2.82 Z-0.4
G1 X11.62 Y2.82 Z-0.4
G1 X11.6 Y2.82 Z-0.4
G1 X11.58 Y2.82 Z-0.4
G1 X11.56 Y2.82 Z-0.4
G1 X11.54 Y2.82 Z-0.4
G1 X11.52 Y2.82 Z-0.4
G1 X11.5 Y2.82 Z-0.4
G1 X11.5 Y2.84 Z-0.4
G1 X11.48 Y2.84 Z-0.4
G1 X11.46 Y2.84 Z-0.4
G1 X11.46 Y2.86 Z-0.4
G1 X11.44 Y2.86 Z-0.4
G1 X11.42 Y2.86 Z-0.4
G1 X11.4 Y2.86 Z-0.4
G1 X11.4 Y2.88 Z-0.4
G1 X11.38 Y2.88 Z-0.4
G1 X11.36 Y2.88 Z-0.4
G1 X11.36 Y2.9 Z-0.4
G1 X11.34 Y2.9 Z-0.4
G1 X11.32 Y2.9 Z-0.4
G1 X11.32 Y2.92 Z-0.4
G1 X11.3 Y2.92 Z-0.4
G1 X11.28 Y2.92 Z-0.4
G1 X11.28 Y2.94 Z-0.4
G1 X11.26 Y2.94 Z-0.4
G1 X11.24 Y2.94 Z-0.4
G1 X11.22 Y2.94 Z-0.4
G1 X11.22 Y2.96 Z-0.4
G1 X11.2 Y2.96 Z-0.4
G1 X11.2 Y2.98 Z-0.4
G1 X11.18 Y2.98 Z-0.4
G1 X11.18 Y3.0 Z-0.4
G1 X11.16 Y3.0 Z-0.4
G1 X11.14 Y3.0 Z-0.4
G1 X11.14 Y3.02 Z-0.4
G1 X11.12 Y3.02 Z-0.4
G1 X11.12 Y3.04 Z-0.4
G1 X11.1 Y3.04 Z-0.4
G1 X11.1 Y3.06 Z-0.4
G1 X11.08 Y3.06 Z-0.4
G1 X11.06 Y3.06 Z-0.4
G1 X11.06 Y3.08 Z-0.4
G1 X11.04 Y3.08 Z-0.4
G1 X11.04 Y3.1 Z-0.4
G1 X11.02 Y3.1 Z-0.4
G1 X11.02 Y3.12 Z-0.4
G1 X11.0 Y3.12 Z-0.4
G1 X11.0 Y3.14 Z-0.4
G1 X11.0 Y3.16 Z-0.4
G1 X10.98 Y3.16 Z-0.4
G1 X10.98 Y3.18 Z-0.4
G1 X10.96 Y3.18 Z-0.4
G1 X10.96 Y3.2 Z-0.4
G1 X10.96 Y3.22 Z-0.4
G1 X10.94 Y3.22 Z-0.4
G1 X10.94 Y3.24 Z-0.4
G1 X10.94 Y3.26 Z-0.4
G1 X10.92 Y3.26 Z-0.4
G1 X10.92 Y3.28 Z-0.4
G1 X10.9 Y3.28 Z-0.4
G1 X10.9 Y3.3 Z-0.4
G1 X10.9 Y3.32 Z-0.4
G1 X10.88 Y3.32 Z-0.4
G1 X10.88 Y3.34 Z-0.4
G1 X10.88 Y3.36 Z-0.4
G1 X10.86 Y3.36 Z-0.4
G1 X10.86 Y3.38 Z-0.4
G1 X10.84 Y3.38 Z-0.4
G1 X10.84 Y3.4 Z-0.4
G1 X10.84 Y3.42 Z-0.4
G1 X10.84 Y3.44 Z-0.4
G1 X10.82 Y3.44 Z-0.4
G1 X10.82 Y3.46 Z-0.4
G1 X10.82 Y3.48 Z-0.4
G1 X10.82 Y3.5 Z-0.4
G1 X10.82 Y3.52 Z-0.4
G1 X10.82 Y3.52 Z5
M5
G0 X10.82 Y9.88 Z5
M3 P100
G1 X10.82 Y9.88 Z-0.4
G1 X10.8 Y9.88 Z-0.4
G1 X10.8 Y9.9 Z-0.4
G1 X10.8 Y9.92 Z-0.4
G1 X10.8 Y9.94 Z-0.4
G1 X10.8 Y9.96 Z-0.4
G1 X10.8 Y9.98 Z-0.4
G1 X10.8 Y10.0 Z-0.4
G1 X10.8 Y10.02 Z-0.4
G1 X10.8 Y10.04 Z-0.4
G1 X10.8 Y10.06 Z-0.4
G1 X10.8 Y10.08 Z-0.4
G1 X10.8 Y10.1 Z-0.4
G1 X10.8 Y10.12 Z-0.4
G1 X10.8 Y10.14 Z-0.4
G1 X10.8 Y10.16 Z-0.4
G1 X10.8 Y10.18 Z-0.4
G1 X10.8 Y10.2 Z-0.4
G1 X10.8 Y10.22 Z-0.4
G1 X10.8 Y10.24 Z-0.4
G1 X10.8 Y10.26 Z-0.4
G1 X10.8 Y10.28 Z-0.4
G1 X10.8 Y10.3 Z-0.4
G1 X10.8 Y10.32 Z-0.4
G1 X10.8 Y10.34 Z-0.4
G1 X10.8 Y10.36 Z-0.4
G1 X10.8 Y10.38 Z-0.4
G1 X10.8 Y10.4 Z-0.4
G1 X10.82 Y10.4 Z-0.4
G1 X10.82 Y10.42 Z-0.4
G1 X10.82 Y10.44 Z-0.4
G1 X10.82 Y10.46 Z-0.4
G1 X10.82 Y10.48 Z-0.4
G1 X10.82 Y10.5 Z-0.4
G1 X10.84 Y10.5 Z-0.4
G1 X10.84 Y10.52 Z-0.4
G1 X10.84 Y10.54 Z-0.4
G1 X10.84 Y10.56 Z-0.4
G1 X10.86 Y10.56 Z-0.4
G1 X10.86 Y10.58 Z-0.4
G1 X10.88 Y10.58 Z-0.4
G1 X10.88 Y10.6 Z-0.4
G1 X10.9 Y10.6 Z-0.4
G1 X10.9 Y10.62 Z-0.4
G1 X10.9 Y10.64 Z-0.4
G1 X10.9 Y10.66 Z-0.4
G1 X10.92 Y10.66 Z-0.4
G1 X10.92 Y10.68 Z-0.4
G1 X10.92 Y10.7 Z-0.4
G1 X10.94 Y10.7 Z-0.4
G1 X10.94 Y10.72 Z-0.4
G1 X10.94 Y10.74 Z-0.4
G1 X10.96 Y10.74 Z-0.4
G1 X10.96 Y10.76 Z-0.4
G1 X10.98 Y10.76 Z-0.4
G1 X10.98 Y10.78 Z-0.4
G1 X11.0 Y10.78 Z-0.4
G1 X11.0 Y10.8 Z-0.4
G1 X11.0 Y10.82 Z-0.4
G1 X11.02 Y10.82 Z-0.4
G1 X11.02 Y10.84 Z-0.4
G1 X11.04 Y10.84 Z-0.4
G1 X11.04 Y10.86 Z-0.4
G1 X11.06 Y10.86 Z-0.4
G1 X11.06 Y10.88 Z-0.4
G1 X11.08 Y10.88 Z-0.4
G1 X11.1 Y10.88 Z-0.4
G1 X11.1 Y10.9 Z-0.4
G1 X11.12 Y10.9 Z-0.4
G1 X11.12 Y10.92 Z-0.4
G1 X11.14 Y10.92 Z-0.4
G1 X11.14 Y10.94 Z-0.4
G1 X11.16 Y10.94 Z-0.4
G1 X11.18 Y10.94 Z-0.4
G1 X11.18 Y10.96 Z-0.4
G1 X11.2 Y10.96 Z-0.4
G1 X11.2 Y10.98 Z-0.4
G1 X11.22 Y10.98 Z-0.4
G1 X11.22 Y11.0 Z-0.4
G1 X11.24 Y11.0 Z-0.4
G1 X11.26 Y11.0 Z-0.4
G1 X11.28 Y11.0 Z-0.4
G1 X11.28 Y11.02 Z-0.4
G1 X11.3 Y11.02 Z-0.4
G1 X11.32 Y11.02 Z-0.4
G1 X11.32 Y11.04 Z-0.4
G1 X11.34 Y11.04 Z-0.4
G1 X11.36 Y11.04 Z-0.4
G1 X11.36 Y11.06 Z-0.4
G1 X11.38 Y11.06 Z-0.4
G1 X11.4 Y11.06 Z-0.4
G1 X11.4 Y11.08 Z-0.4
G1 X11.42 Y11.08 Z-0.4
G1 X11.44 Y11.08 Z-0.4
G1 X11.46 Y11.08 Z-0.4
G1 X11.48 Y11.08 Z-0.4
G1 X11.5 Y11.08 Z-0.4
G1 X11.52 Y11.08 Z-0.4
G1 X11.52 Y11.1 Z-0.4
G1 X11.54 Y11.1 Z-0.4
G1 X11.56 Y11.1 Z-0.4
G1 X11.58 Y11.1 Z-0.4
G1 X11.6 Y11.1 Z-0.4
G1 X11.62 Y11.1 Z-0.4
G1 X11.62 Y11.12 Z-0.4
G1 X11.64 Y11.12 Z-0.4
G1 X11.66 Y11.12 Z-0.4
G1 X11.68 Y11.12 Z-0.4
G1 X11.7 Y11.12 Z-0.4
G1 X11.72 Y11.12 Z-0.4
G1 X11.74 Y11.12 Z-0.4
G1 X11.76 Y11.12 Z-0.4
G1 X11.78 Y11.12 Z-0.4
G1 X11.8 Y11.12 Z-0.4
G1 X11.82 Y11.12 Z-0.4
G1 X11.84 Y11.12 Z-0.4
G1 X11.86 Y11.12 Z-0.4
G1 X11.88 Y11.12 Z-0.4
G1 X11.9 Y11.12 Z-0.4
G1 X11.92 Y11.12 Z-0.4
G1 X11.94 Y11.12 Z-0.4
G1 X11.96 Y11.12 Z-0.4
G1 X11.96 Y11.1 Z-0.4
G1 X11.98 Y11.1 Z-0.4
G1 X12.0 Y11.1 Z-0.4
G1 X12.02 Y11.1 Z-0.4
G1 X12.04 Y11.1 Z-0.4
G1 X12.06 Y11.1 Z-0.4
G1 X12.06 Y11.08 Z-0.4
G1 X12.08 Y11.08 Z-0.4
G1 X12.1 Y11.08 Z-0.4
G1 X12.12 Y11.08 Z-0.4
G1 X12.14 Y11.08 Z-0.4
G1 X12.16 Y11.08 Z-0.4
G1 X12.18 Y11.08 Z-0.4
G1 X12.18 Y11.06 Z-0.4
G1 X12.2 Y11.06 Z-0.4
G1 X12.22 Y11.06 Z-0.4
G1 X12.22 Y11.04 Z-0.4
G1 X12.24 Y11.04 Z-0.4
G1 X12.26 Y11.04 Z-0.4
G1 X12.28 Y11.04 Z-0.4
G1 X12.28 Y11.02 Z-0.4
G1 X12.3 Y11.02 Z-0.4
G1 X12.32 Y11.02 Z-0.4
G1 X12.32 Y11.0 Z-0.4
G1 X12.34 Y11.0 Z-0.4
G1 X12.36 Y11.0 Z-0.4
G1 X12.36 Y10.98 Z-0.4
G1 X12.38 Y10.98 Z-0.4
G1 X12.38 Y10.96 Z-0.4
G1 X12.4 Y10.96 Z-0.4
G1 X12.4 Y10.94 Z-0.4
G1 X12.42 Y10.94 Z-0.4
G1 X12.44 Y10.94 Z-0.4
G1 X12.44 Y10.92 Z-0.4
G1 X12.46 Y10.92 Z-0.4
G1 X12.46 Y10.9 Z-0.4
G1 X12.48 Y10.9 Z-0.4
G1 X12.48 Y10.88 Z-0.4
G1 X12.5 Y10.88 Z-0.4
G1 X12.52 Y10.88 Z-0.4
G1 X12.52 Y10.86 Z-0.4
G1 X12.54 Y10.86 Z-0.4
G1 X12.54 Y10.84 Z-0.4
G1 X12.56 Y10.84 Z-0.4
G1 X12.56 Y10.82 Z-0.4
G1 X12.58 Y10.82 Z-0.4
G1 X12.58 Y10.8 Z-0.4
G1 X12.58 Y10.78 Z-0.4
G1 X12.6 Y10.78 Z-0.4
G1 X12.6 Y10.76 Z-0.4
G1 X12.62 Y10.76 Z-0.4
G1 X12.62 Y10.74 Z-0.4
G1 X12.64 Y10.74 Z-0.4
G1 X12.64 Y10.72 Z-0.4
G1 X12.64 Y10.7 Z-0.4
G1 X12.66 Y10.7 Z-0.4
G1 X12.66 Y10.68 Z-0.4
G1 X12.66 Y10.66 Z-0.4
G1 X12.68 Y10.66 Z-0.4
G1 X12.68 Y10.64 Z-0.4
G1 X12.68 Y10.62 Z-0.4
G1 X12.7 Y10.62 Z-0.4
G1 X12.7 Y10.6 Z-0.4
G1 X12.7 Y10.58 Z-0.4
G1 X12.72 Y10.58 Z-0.4
G1 X12.72 Y10.56 Z-0.4
G1 X12.74 Y10.56 Z-0.4
G1 X12.74 Y10.54 Z-0.4
G1 X12.74 Y10.52 Z-0.4
G1 X12.74 Y10.5 Z-0.4
G1 X12.76 Y10.5 Z-0.4
G1 X12.76 Y10.48 Z-0.4
G1 X12.76 Y10.46 Z-0.4
G1 X12.76 Y10.44 Z-0.4
G1 X12.76 Y10.42 Z-0.4
G1 X12.76 Y10.4 Z-0.4
G1 X12.78 Y10.4 Z-0.4
G1 X12.78 Y10.38 Z-0.4
G1 X12.78 Y10.36 Z-0.4
G1 X12.78 Y10.34 Z-0.4
G1 X12.78 Y10.32 Z-0.4
G1 X12.78 Y10.3 Z-0.4
G1 X12.8 Y10.3 Z-0.4
G1 X12.8 Y10.28 Z-0.4
G1 X12.8 Y10.26 Z-0.4
G1 X12.8 Y10.24 Z-0.4
G1 X12.8 Y10.22 Z-0.4
G1 X12.8 Y10.2 Z-0.4
G1 X12.8 Y10.18 Z-0.4
G1 X12.8 Y10.16 Z-0.4
G1 X12.8 Y10.14 Z-0.4
G1 X12.8 Y10.12 Z-0.4
G1 X12.8 Y10.1 Z-0.4
G1 X12.8 Y10.08 Z-0.4
G1 X12.8 Y10.06 Z-0.4
G1 X12.78 Y10.06 Z-0.4
G1 X12.78 Y10.04 Z-0.4
G1 X12.78 Y10.02 Z-0.4
G1 X12.78 Y10.0 Z-0.4
G1 X12.78 Y9.98 Z-0.4
G1 X12.78 Y9.96 Z-0.4
G1 X12.78 Y9.94 Z-0.4
G1 X12.78 Y9.92 Z-0.4
G1 X12.78 Y9.9 Z-0.4
G1 X12.78 Y9.88 Z-0.4
G1 X12.76 Y9.88 Z-0.4
G1 X12.76 Y9.86 Z-0.4
G1 X12.76 Y9.84 Z-0.4
G1 X12.76 Y9.82 Z-0.4
G1 X12.76 Y9.8 Z-0.4
G1 X12.76 Y9.78 Z-0.4
G1 X12.74 Y9.78 Z-0.4
G1 X12.74 Y9.76 Z-0.4
G1 X12.74 Y9.74 Z-0.4
G1 X12.74 Y9.72 Z-0.4
G1 X12.72 Y9.72 Z-0.4
G1 X12.72 Y9.7 Z-0.4
G1 X12.7 Y9.7 Z-0.4
G1 X12.7 Y9.68 Z-0.4
G1 X12.7 Y9.66 Z-0.4
G1 X12.68 Y9.66 Z-0.4
G1 X12.68 Y9.64 Z-0.4
G1 X12.68 Y9.62 Z-0.4
G1 X12.66 Y9.62 Z-0.4
G1 X12.66 Y9.6 Z-0.4
G1 X12.64 Y9.6 Z-0.4
G1 X12.64 Y9.58 Z-0.4
G1 X12.64 Y9.56 Z-0.4
G1 X12.62 Y9.56 Z-0.4
G1 X12.62 Y9.54 Z-0.4
G1 X12.6 Y9.54 Z-0.4
G1 X12.6 Y9.52 Z-0.4
G1 X12.58 Y9.52 Z-0.4
G1 X12.58 Y9.5 Z-0.4
G1 X12.58 Y9.48 Z-0.4
G1 X12.56 Y9.48 Z-0.4
G1 X12.56 Y9.46 Z-0.4
G1 X12.56 Y9.44 Z-0.4
G1 X12.54 Y9.44 Z-0.4
G1 X12.54 Y9.42 Z-0.4
G1 X12.52 Y9.42 Z-0.4
G1 X12.52 Y9.4 Z-0.4
G1 X12.5 Y9.4 Z-0.4
G1 X12.5 Y9.38 Z-0.4
G1 X12.48 Y9.38 Z-0.4
G1 X12.48 Y9.36 Z-0.4
G1 X12.46 Y9.36 Z-0.4
G1 X12.44 Y9.36 Z-0.4
G1 X12.44 Y9.34 Z-0.4
G1 X12.42 Y9.34 Z-0.4
G1 X12.4 Y9.34 Z-0.4
G1 X12.4 Y9.32 Z-0.4
G1 X12.38 Y9.32 Z-0.4
G1 X12.38 Y9.3 Z-0.4
G1 X12.36 Y9.3 Z-0.4
G1 X12.36 Y9.28 Z-0.4
G1 X12.34 Y9.28 Z-0.4
G1 X12.32 Y9.28 Z-0.4
G1 X12.32 Y9.26 Z-0.4
G1 X12.3 Y9.26 Z-0.4
G1 X12.28 Y9.26 Z-0.4
G1 X12.28 Y9.24 Z-0.4
G1 X12.26 Y9.24 Z-0.4
G1 X12.24 Y9.24 Z-0.4
G1 X12.22 Y9.24 Z-0.4
G1 X12.22 Y9.22 Z-0.4
G1 X12.2 Y9.22 Z-0.4
G1 X12.18 Y9.22 Z-0.4
G1 X12.18 Y9.2 Z-0.4
G1 X12.16 Y9.2 Z-0.4
G1 X12.14 Y9.2 Z-0.4
G1 X12.12 Y9.2 Z-0.4
G1 X12.1 Y9.2 Z-0.4
G1 X12.08 Y9.2 Z-0.4
G1 X12.06 Y9.2 Z-0.4
G1 X12.06 Y9.18 Z-0.4
G1 X12.04 Y9.18 Z-0.4
G1 X12.02 Y9.18 Z-0.4
G1 X12.0 Y9.18 Z-0.4
G1 X11.98 Y9.18 Z-0.4
G1 X11.96 Y9.18 Z-0.4
G1 X11.96 Y9.16 Z-0.4
G1 X11.94 Y9.16 Z-0.4
G1 X11.92 Y9.16 Z-0.4
G1 X11.9 Y9.16 Z-0.4
G1 X11.88 Y9.16 Z-0.4
G1 X11.86 Y9.16 Z-0.4
G1 X11.84 Y9.16 Z-0.4
G1 X11.82 Y9.16 Z-0.4
G1 X11.8 Y9.16 Z-0.4
G1 X11.78 Y9.16 Z-0.4
G1 X11.76 Y9.16 Z-0.4
G1 X11.74 Y9.16 Z-0.4
G1 X11.72 Y9.16 Z-0.4
G1 X11.7 Y9.16 Z-0.4
G1 X11.68 Y9.16 Z-0.4
G1 X11.66 Y9.16 Z-0.4
G1 X11.64 Y9.16 Z-0.4
G1 X11.62 Y9.16 Z-0.4
G1 X11.62 Y9.18 Z-0.4
G1 X11.6 Y9.18 Z-0.4
G1 X11.58 Y9.18 Z-0.4
G1 X11.56 Y9.18 Z-0.4
G1 X11.54 Y9.18 Z-0.4
G1 X11.52 Y9.18 Z-0.4
G1 X11.52 Y9.2 Z-0.4
G1 X11.5 Y9.2 Z-0.4
G1 X11.48 Y9.2 Z-0.4
G1 X11.46 Y9.2 Z-0.4
G1 X11.44 Y9.2 Z-0.4
G1 X11.42 Y9.2 Z-0.4
G1 X11.4 Y9.2 Z-0.4
G1 X11.4 Y9.22 Z-0.4
G1 X11.38 Y9.22 Z-0.4
G1 X11.36 Y9.22 Z-0.4
G1 X11.36 Y9.24 Z-0.4
G1 X11.34 Y9.24 Z-0.4
G1 X11.32 Y9.24 Z-0.4
G1 X11.32 Y9.26 Z-0.4
G1 X11.3 Y9.26 Z-0.4
G1 X11.28 Y9.26 Z-0.4
G1 X11.28 Y9.28 Z-0.4
G1 X11.26 Y9.28 Z-0.4
G1 X11.24 Y9.28 Z-0.4
G1 X11.22 Y9.28 Z-0.4
G1 X11.22 Y9.3 Z-0.4
G1 X11.2 Y9.3 Z-0.4
G1 X11.2 Y9.32 Z-0.4
G1 X11.18 Y9.32 Z-0.4
G1 X11.18 Y9.34 Z-0.4
G1 X11.16 Y9.34 Z-0.4
G1 X11.14 Y9.34 Z-0.4
G1 X11.14 Y9.36 Z-0.4
G1 X11.12 Y9.36 Z-0.4
G1 X11.1 Y9.36 Z-0.4
G1 X11.1 Y9.38 Z-0.4
G1 X11.08 Y9.38 Z-0.4
G1 X11.08 Y9.4 Z-0.4
G1 X11.06 Y9.4 Z-0.4
G1 X11.06 Y9.42 Z-0.4
G1 X11.04 Y9.42 Z-0.4
G1 X11.04 Y9.44 Z-0.4
G1 X11.02 Y9.44 Z-0.4
G1 X11.02 Y9.46 Z-0.4
G1 X11.02 Y9.48 Z-0.4
G1 X11.0 Y9.48 Z-0.4
G1 X11.0 Y9.5 Z-0.4
G1 X11.0 Y9.52 Z-0.4
G1 X10.98 Y9.52 Z-0.4
G1 X10.98 Y9.54 Z-0.4
G1 X10.96 Y9.54 Z-0.4
G1 X10.96 Y9.56 Z-0.4
G1 X10.96 Y9.58 Z-0.4
G1 X10.94 Y9.58 Z-0.4
G1 X10.94 Y9.6 Z-0.4
G1 X10.94 Y9.62 Z-0.4
G1 X10.92 Y9.62 Z-0.4
G1 X10.92 Y9.64 Z-0.4
G1 X10.9 Y9.64 Z-0.4
G1 X10.9 Y9.66 Z-0.4
G1 X10.9 Y9.68 Z-0.4
G1 X10.88 Y9.68 Z-0.4
G1 X10.88 Y9.7 Z-0.4
G1 X10.86 Y9.7 Z-0.4
G1 X10.86 Y9.72 Z-0.4
G1 X10.84 Y9.72 Z-0.4
G1 X10.84 Y9.74 Z-0.4
G1 X10.84 Y9.76 Z-0.4
G1 X10.84 Y9.78 Z-0.4
G1 X10.82 Y9.78 Z-0.4
G1 X10.82 Y9.8 Z-0.4
G1 X10.82 Y9.82 Z-0.4
G1 X10.82 Y9.84 Z-0.4
G1 X10.82 Y9.86 Z-0.4
G1 X10.82 Y9.86 Z5
M5
G0 X10.82 Y16.24 Z5
M3 P100
G1 X10.82 Y16.24 Z-0.4
G1 X10.8 Y16.24 Z-0.4
G1 X10.8 Y16.26 Z-0.4
G1 X10.8 Y16.28 Z-0.4
G1 X10.8 Y16.3 Z-0.4
G1 X10.8 Y16.32 Z-0.4
G1 X10.8 Y16.34 Z-0.4
G1 X10.8 Y16.36 Z-0.4
G1 X10.8 Y16.38 Z-0.4
G1 X10.8 Y16.4 Z-0.4
G1 X10.8 Y16.42 Z-0.4
G1 X10.8 Y16.44 Z-0.4
G1 X10.8 Y16.46 Z-0.4
G1 X10.8 Y16.48 Z-0.4
G1 X10.8 Y16.5 Z-0.4
G1 X10.8 Y16.52 Z-0.4
G1 X10.8 Y16.54 Z-0.4
G1 X10.8 Y16.56 Z-0.4
G1 X10.8 Y16.58 Z-0.4
G1 X10.8 Y16.6 Z-0.4
G1 X10.8 Y16.62 Z-0.4
G1 X10.8 Y16.64 Z-0.4
G1 X10.8 Y16.66 Z-0.4
G1 X10.8 Y16.68 Z-0.4
G1 X10.8 Y16.7 Z-0.4
G1 X10.8 Y16.72 Z-0.4
G1 X10.8 Y16.74 Z-0.4
G1 X10.8 Y16.76 Z-0.4
G1 X10.82 Y16.76 Z-0.4
G1 X10.82 Y16.78 Z-0.4
G1 X10.82 Y16.8 Z-0.4
G1 X10.82 Y16.82 Z-0.4
G1 X10.82 Y16.84 Z-0.4
G1 X10.84 Y16.84 Z-0.4
G1 X10.84 Y16.86 Z-0.4
G1 X10.84 Y16.88 Z-0.4
G1 X10.84 Y16.9 Z-0.4
G1 X10.86 Y16.9 Z-0.4
G1 X10.86 Y16.92 Z-0.4
G1 X10.88 Y16.92 Z-0.4
G1 X10.88 Y16.94 Z-0.4
G1 X10.88 Y16.96 Z-0.4
G1 X10.9 Y16.96 Z-0.4
G1 X10.9 Y16.98 Z-0.4
G1 X10.9 Y17.0 Z-0.4
G1 X10.92 Y17.0 Z-0.4
G1 X10.92 Y17.02 Z-0.4
G1 X10.94 Y17.02 Z-0.4
G1 X10.94 Y17.04 Z-0.4
G1 X10.94 Y17.06 Z-0.4
G1 X10.96 Y17.06 Z-0.4
G1 X10.96 Y17.08 Z-0.4
G1 X10.96 Y17.1 Z-0.4
G1 X10.98 Y17.1 Z-0.4
G1 X10.98 Y17.12 Z-0.4
G1 X11.0 Y17.12 Z-0.4
G1 X11.0 Y17.14 Z-0.4
G1 X11.0 Y17.16 Z-0.4
G1 X11.02 Y17.16 Z-0.4
G1 X11.02 Y17.18 Z-0.4
G1 X11.02 Y17.2 Z-0.4
G1 X11.04 Y17.2 Z-0.4
G1 X11.04 Y17.22 Z-0.4
G1 X11.06 Y17.22 Z-0.4
G1 X11.06 Y17.24 Z-0.4
G1 X11.08 Y17.24 Z-0.4
G1 X11.08 Y17.26 Z-0.4
G1 X11.1 Y17.26 Z-0.4
G1 X11.1 Y17.28 Z-0.4
G1 X11.12 Y17.28 Z-0.4
G1 X11.14 Y17.28 Z-0.4
G1 X11.14 Y17.3 Z-0.4
G1 X11.16 Y17.3 Z-0.4
G1 X11.18 Y17.3 Z-0.4
G1 X11.18 Y17.32 Z-0.4
G1 X11.2 Y17.32 Z-0.4
G1 X11.22 Y17.32 Z-0.4
G1 X11.22 Y17.34 Z-0.4
G1 X11.24 Y17.34 Z-0.4
G1 X11.26 Y17.34 Z-0.4
G1 X11.26 Y17.36 Z-0.4
G1 X11.28 Y17.36 Z-0.4
G1 X11.3 Y17.36 Z-0.4
G1 X11.3 Y17.38 Z-0.4
G1 X11.32 Y17.38 Z-0.4
G1 X11.32 Y17.4 Z-0.4
G1 X11.34 Y17.4 Z-0.4
G1 X11.36 Y17.4 Z-0.4
G1 X11.36 Y17.42 Z-0.4
G1 X11.38 Y17.42 Z-0.4
G1 X11.4 Y17.42 Z-0.4
G1 X11.4 Y17.44 Z-0.4
G1 X11.42 Y17.44 Z-0.4
G1 X11.44 Y17.44 Z-0.4
G1 X11.46 Y17.44 Z-0.4
G1 X11.48 Y17.44 Z-0.4
G1 X11.5 Y17.44 Z-0.4
G1 X11.52 Y17.44 Z-0.4
G1 X11.52 Y17.46 Z-0.4
G1 X11.54 Y17.46 Z-0.4
G1 X11.56 Y17.46 Z-0.4
G1 X11.58 Y17.46 Z-0.4
G1 X11.6 Y17.46 Z-0.4
G1 X11.62 Y17.46 Z-0.4
G1 X11.62 Y17.48 Z-0.4
G1 X11.64 Y17.48 Z-0.4
G1 X11.66 Y17.48 Z-0.4
G1 X11.68 Y17.48 Z-0.4
G1 X11.7 Y17.48 Z-0.4
G1 X11.72 Y17.48 Z-0.4
G1 X11.74 Y17.48 Z-0.4
G1 X11.76 Y17.48 Z-0.4
G1 X11.78 Y17.48 Z-0.4
G1 X11.8 Y17.48 Z-0.4
G1 X11.82 Y17.48 Z-0.4
G1 X11.84 Y17.48 Z-0.4
G1 X11.86 Y17.48 Z-0.4
G1 X11.88 Y17.48 Z-0.4
G1 X11.9 Y17.48 Z-0.4
G1 X11.92 Y17.48 Z-0.4
G1 X11.94 Y17.48 Z-0.4
G1 X11.96 Y17.48 Z-0.4
G1 X11.96 Y17.46 Z-0.4
G1 X11.98 Y17.46 Z-0.4
G1 X12.0 Y17.46 Z-0.4
G1 X12.02 Y17.46 Z-0.4
G1 X12.04 Y17.46 Z-0.4
G1 X12.06 Y17.46 Z-0.4
G1 X12.06 Y17.44 Z-0.4
G1 X12.08 Y17.44 Z-0.4
G1 X12.1 Y17.44 Z-0.4
G1 X12.12 Y17.44 Z-0.4
G1 X12.14 Y17.44 Z-0.4
G1 X12.16 Y17.44 Z-0.4
G1 X12.18 Y17.44 Z-0.4
G1 X12.18 Y17.42 Z-0.4
G1 X12.2 Y17.42 Z-0.4
G1 X12.22 Y17.42 Z-0.4
G1 X12.22 Y17.4 Z-0.4
G1 X12.24 Y17.4 Z-0.4
G1 X12.26 Y17.4 Z-0.4
G1 X12.28 Y17.4 Z-0.4
G1 X12.28 Y17.38 Z-0.4
G1 X12.3 Y17.38 Z-0.4
G1 X12.3 Y17.36 Z-0.4
G1 X12.32 Y17.36 Z-0.4
G1 X12.32 Y17.34 Z-0.4
G1 X12.34 Y17.34 Z-0.4
G1 X12.36 Y17.34 Z-0.4
G1 X12.36 Y17.32 Z-0.4
G1 X12.38 Y17.32 Z-0.4
G1 X12.4 Y17.32 Z-0.4
G1 X12.4 Y17.3 Z-0.4
G1 X12.42 Y17.3 Z-0.4
G1 X12.44 Y17.3 Z-0.4
G1 X12.44 Y17.28 Z-0.4
G1 X12.46 Y17.28 Z-0.4
G1 X12.48 Y17.28 Z-0.4
G1 X12.48 Y17.26 Z-0.4
G1 X12.5 Y17.26 Z-0.4
G1 X12.5 Y17.24 Z-0.4
G1 X12.52 Y17.24 Z-0.4
G1 X12.52 Y17.22 Z-0.4
G1 X12.54 Y17.22 Z-0.4
G1 X12.54 Y17.2 Z-0.4
G1 X12.56 Y17.2 Z-0.4
G1 X12.56 Y17.18 Z-0.4
G1 X12.56 Y17.16 Z-0.4
G1 X12.58 Y17.16 Z-0.4
G1 X12.58 Y17.14 Z-0.4
G1 X12.58 Y17.12 Z-0.4
G1 X12.6 Y17.12 Z-0.4
G1 X12.6 Y17.1 Z-0.4
G1 X12.62 Y17.1 Z-0.4
G1 X12.62 Y17.08 Z-0.4
G1 X12.64 Y17.08 Z-0.4
G1 X12.64 Y17.06 Z-0.4
G1 X12.64 Y17.04 Z-0.4
G1 X12.66 Y17.04 Z-0.4
G1 X12.66 Y17.02 Z-0.4
G1 X12.68 Y17.02 Z-0.4
G1 X12.68 Y17.0 Z-0.4
G1 X12.7 Y17.0 Z-0.4
G1 X12.7 Y16.98 Z-0.4
G1 X12.7 Y16.96 Z-0.4
G1 X12.72 Y16.96 Z-0.4
G1 X12.72 Y16.94 Z-0.4
G1 X12.72 Y16.92 Z-0.4
G1 X12.74 Y16.92 Z-0.4
G1 X12.74 Y16.9 Z-0.4
G1 X12.74 Y16.88 Z-0.4
G1 X12.74 Y16.86 Z-0.4
G1 X12.74 Y16.84 Z-0.4
G1 X12.76 Y16.84 Z-0.4
G1 X12.76 Y16.82 Z-0.4
G1 X12.76 Y16.8 Z-0.4
G1 X12.76 Y16.78 Z-0.4
G1 X12.76 Y16.76 Z-0.4
G1 X12.78 Y16.76 Z-0.4
G1 X12.78 Y16.74 Z-0.4
G1 X12.78 Y16.72 Z-0.4
G1 X12.78 Y16.7 Z-0.4
G1 X12.78 Y16.68 Z-0.4
G1 X12.78 Y16.66 Z-0.4
G1 X12.8 Y16.66 Z-0.4
G1 X12.8 Y16.64 Z-0.4
G1 X12.8 Y16.62 Z-0.4
G1 X12.8 Y16.6 Z-0.4
G1 X12.8 Y16.58 Z-0.4
G1 X12.8 Y16.56 Z-0.4
G1 X12.8 Y16.54 Z-0.4
G1 X12.8 Y16.52 Z-0.4
G1 X12.8 Y16.5 Z-0.4
G1 X12.8 Y16.48 Z-0.4
G1 X12.8 Y16.46 Z-0.4
G1 X12.8 Y16.44 Z-0.4
G1 X12.8 Y16.42 Z-0.4
G1 X12.78 Y16.42 Z-0.4
G1 X12.78 Y16.4 Z-0.4
G1 X12.78 Y16.38 Z-0.4
G1 X12.78 Y16.36 Z-0.4
G1 X12.78 Y16.34 Z-0.4
G1 X12.78 Y16.32 Z-0.4
G1 X12.78 Y16.3 Z-0.4
G1 X12.78 Y16.28 Z-0.4
G1 X12.78 Y16.26 Z-0.4
G1 X12.78 Y16.24 Z-0.4
G1 X12.76 Y16.24 Z-0.4
G1 X12.76 Y16.22 Z-0.4
G1 X12.76 Y16.2 Z-0.4
G1 X12.76 Y16.18 Z-0.4
G1 X12.76 Y16.16 Z-0.4
G1 X12.76 Y16.14 Z-0.4
G1 X12.74 Y16.14 Z-0.4
G1 X12.74 Y16.12 Z-0.4
G1 X12.74 Y16.1 Z-0.4
G1 X12.74 Y16.08 Z-0.4
G1 X12.74 Y16.06 Z-0.4
G1 X12.72 Y16.06 Z-0.4
G1 X12.72 Y16.04 Z-0.4
G1 X12.72 Y16.02 Z-0.4
G1 X12.7 Y16.02 Z-0.4
G1 X12.7 Y16.0 Z-0.4
G1 X12.7 Y15.98 Z-0.4
G1 X12.68 Y15.98 Z-0.4
G1 X12.68 Y15.96 Z-0.4
G1 X12.66 Y15.96 Z-0.4
G1 X12.66 Y15.94 Z-0.4
G1 X12.64 Y15.94 Z-0.4
G1 X12.64 Y15.92 Z-0.4
G1 X12.64 Y15.9 Z-0.4
G1 X12.62 Y15.9 Z-0.4
G1 X12.62 Y15.88 Z-0.4
G1 X12.6 Y15.88 Z-0.4
G1 X12.6 Y15.86 Z-0.4
G1 X12.58 Y15.86 Z-0.4
G1 X12.58 Y15.84 Z-0.4
G1 X12.58 Y15.82 Z-0.4
G1 X12.56 Y15.82 Z-0.4
G1 X12.56 Y15.8 Z-0.4
G1 X12.54 Y15.8 Z-0.4
G1 X12.54 Y15.78 Z-0.4
G1 X12.52 Y15.78 Z-0.4
G1 X12.52 Y15.76 Z-0.4
G1 X12.5 Y15.76 Z-0.4
G1 X12.48 Y15.76 Z-0.4
G1 X12.48 Y15.74 Z-0.4
G1 X12.46 Y15.74 Z-0.4
G1 X12.46 Y15.72 Z-0.4
G1 X12.44 Y15.72 Z-0.4
G1 X12.44 Y15.7 Z-0.4
G1 X12.42 Y15.7 Z-0.4
G1 X12.4 Y15.7 Z-0.4
G1 X12.4 Y15.68 Z-0.4
G1 X12.38 Y15.68 Z-0.4
G1 X12.38 Y15.66 Z-0.4
G1 X12.36 Y15.66 Z-0.4
G1 X12.36 Y15.64 Z-0.4
G1 X12.34 Y15.64 Z-0.4
G1 X12.32 Y15.64 Z-0.4
G1 X12.32 Y15.62 Z-0.4
G1 X12.3 Y15.62 Z-0.4
G1 X12.28 Y15.62 Z-0.4
G1 X12.28 Y15.6 Z-0.4
G1 X12.26 Y15.6 Z-0.4
G1 X12.24 Y15.6 Z-0.4
G1 X12.22 Y15.6 Z-0.4
G1 X12.22 Y15.58 Z-0.4
G1 X12.2 Y15.58 Z-0.4
G1 X12.18 Y15.58 Z-0.4
G1 X12.18 Y15.56 Z-0.4
G1 X12.16 Y15.56 Z-0.4
G1 X12.14 Y15.56 Z-0.4
G1 X12.12 Y15.56 Z-0.4
G1 X12.12 Y15.54 Z-0.4
G1 X12.1 Y15.54 Z-0.4
G1 X12.08 Y15.54 Z-0.4
G1 X12.08 Y15.52 Z-0.4
G1 X12.06 Y15.52 Z-0.4
G1 X12.04 Y15.52 Z-0.4
G1 X12.02 Y15.52 Z-0.4
G1 X12.0 Y15.52 Z-0.4
G1 X11.98 Y15.52 Z-0.4
G1 X11.96 Y15.52 Z-0.4
G1 X11.94 Y15.52 Z-0.4
G1 X11.92 Y15.52 Z-0.4
G1 X11.9 Y15.52 Z-0.4
G1 X11.88 Y15.52 Z-0.4
G1 X11.86 Y15.52 Z-0.4
G1 X11.84 Y15.52 Z-0.4
G1 X11.82 Y15.52 Z-0.4
G1 X11.8 Y15.52 Z-0.4
G1 X11.78 Y15.52 Z-0.4
G1 X11.76 Y15.52 Z-0.4
G1 X11.74 Y15.52 Z-0.4
G1 X11.72 Y15.52 Z-0.4
G1 X11.7 Y15.52 Z-0.4
G1 X11.68 Y15.52 Z-0.4
G1 X11.66 Y15.52 Z-0.4
G1 X11.64 Y15.52 Z-0.4
G1 X11.62 Y15.52 Z-0.4
G1 X11.6 Y15.52 Z-0.4
G1 X11.58 Y15.52 Z-0.4
G1 X11.56 Y15.52 Z-0.4
G1 X11.54 Y15.52 Z-0.4
G1 X11.52 Y15.52 Z-0.4
G1 X11.5 Y15.52 Z-0.4
G1 X11.5 Y15.54 Z-0.4
G1 X11.48 Y15.54 Z-0.4
G1 X11.46 Y15.54 Z-0.4
G1 X11.46 Y15.56 Z-0.4
G1 X11.44 Y15.56 Z-0.4
G1 X11.42 Y15.56 Z-0.4
G1 X11.4 Y15.56 Z-0.4
G1 X11.4 Y15.58 Z-0.4
G1 X11.38 Y15.58 Z-0.4
G1 X11.36 Y15.58 Z-0.4
G1 X11.36 Y15.6 Z-0.4
G1 X11.34 Y15.6 Z-0.4
G1 X11.32 Y15.6 Z-0.4
G1 X11.32 Y15.62 Z-0.4
G1 X11.3 Y15.62 Z-0.4
G1 X11.28 Y15.62 Z-0.4
G1 X11.28 Y15.64 Z-0.4
G1 X11.26 Y15.64 Z-0.4
G1 X11.24 Y15.64 Z-0.4
G1 X11.22 Y15.64 Z-0.4
G1 X11.22 Y15.66 Z-0.4
G1 X11.2 Y15.66 Z-0.4
G1 X11.2 Y15.68 Z-0.4
G1 X11.18 Y15.68 Z-0.4
G1 X11.18 Y15.7 Z-0.4
G1 X11.16 Y15.7 Z-0.4
G1 X11.14 Y15.7 Z-0.4
G1 X11.14 Y15.72 Z-0.4
G1 X11.12 Y15.72 Z-0.4
G1 X11.12 Y15.74 Z-0.4
G1 X11.1 Y15.74 Z-0.4
G1 X11.1 Y15.76 Z-0.4
G1 X11.08 Y15.76 Z-0.4
G1 X11.06 Y15.76 Z-0.4
G1 X11.06 Y15.78 Z-0.4
G1 X11.04 Y15.78 Z-0.4
G1 X11.04 Y15.8 Z-0.4
G1 X11.02 Y15.8 Z-0.4
G1 X11.02 Y15.82 Z-0.4
G1 X11.0 Y15.82 Z-0.4
G1 X11.0 Y15.84 Z-0.4
G1 X11.0 Y15.86 Z-0.4
G1 X10.98 Y15.86 Z-0.4
G1 X10.98 Y15.88 Z-0.4
G1 X10.96 Y15.88 Z-0.4
G1 X10.96 Y15.9 Z-0.4
G1 X10.96 Y15.92 Z-0.4
G1 X10.94 Y15.92 Z-0.4
G1 X10.94 Y15.94 Z-0.4
G1 X10.94 Y15.96 Z-0.4
G1 X10.92 Y15.96 Z-0.4
G1 X10.92 Y15.98 Z-0.4
G1 X10.9 Y15.98 Z-0.4
G1 X10.9 Y16.0 Z-0.4
G1 X10.9 Y16.02 Z-0.4
G1 X10.88 Y16.02 Z-0.4
G1 X10.88 Y16.04 Z-0.4
G1 X10.88 Y16.06 Z-0.4
G1 X10.86 Y16.06 Z-0.4
G1 X10.86 Y16.08 Z-0.4
G1 X10.84 Y16.08 Z-0.4
G1 X10.84 Y16.1 Z-0.4
G1 X10.84 Y16.12 Z-0.4
G1 X10.84 Y16.14 Z-0.4
G1 X10.82 Y16.14 Z-0.4
G1 X10.82 Y16.16 Z-0.4
G1 X10.82 Y16.18 Z-0.4
G1 X10.82 Y16.2 Z-0.4
G1 X10.82 Y16.22 Z-0.4
G1 X10.82 Y16.22 Z5
M5
G0 X10.82 Y22.84 Z5
M3 P100
G1 X10.82 Y22.84 Z-0.4
G1 X10.8 Y22.84 Z-0.4
G1 X10.8 Y22.86 Z-0.4
G1 X10.8 Y22.88 Z-0.4
G1 X10.8 Y22.9 Z-0.4
G1 X10.8 Y22.92 Z-0.4
G1 X10.8 Y22.94 Z-0.4
G1 X10.8 Y22.96 Z-0.4
G1 X10.8 Y22.98 Z-0.4
G1 X10.8 Y23.0 Z-0.4
G1 X10.8 Y23.02 Z-0.4
G1 X10.8 Y23.04 Z-0.4
G1 X10.8 Y23.06 Z-0.4
G1 X10.8 Y23.08 Z-0.4
G1 X10.8 Y23.1 Z-0.4
G1 X10.8 Y23.12 Z-0.4
G1 X10.8 Y23.14 Z-0.4
G1 X10.8 Y23.16 Z-0.4
G1 X10.8 Y23.18 Z-0.4
G1 X10.8 Y23.2 Z-0.4
G1 X10.8 Y23.22 Z-0.4
G1 X10.8 Y23.24 Z-0.4
G1 X10.8 Y23.26 Z-0.4
G1 X10.8 Y23.28 Z-0.4
G1 X10.8 Y23.3 Z-0.4
G1 X10.8 Y23.32 Z-0.4
G1 X10.8 Y23.34 Z-0.4
G1 X10.8 Y23.36 Z-0.4
G1 X10.82 Y23.36 Z-0.4
G1 X10.82 Y23.38 Z-0.4
G1 X10.82 Y23.4 Z-0.4
G1 X10.82 Y23.42 Z-0.4
G1 X10.82 Y23.44 Z-0.4
G1 X10.82 Y23.46 Z-0.4
G1 X10.84 Y23.46 Z-0.4
G1 X10.84 Y23.48 Z-0.4
G1 X10.84 Y23.5 Z-0.4
G1 X10.84 Y23.52 Z-0.4
G1 X10.86 Y23.52 Z-0.4
G1 X10.86 Y23.54 Z-0.4
G1 X10.88 Y23.54 Z-0.4
G1 X10.88 Y23.56 Z-0.4
G1 X10.9 Y23.56 Z-0.4
G1 X10.9 Y23.58 Z-0.4
G1 X10.9 Y23.6 Z-0.4
G1 X10.92 Y23.6 Z-0.4
G1 X10.92 Y23.62 Z-0.4
G1 X10.94 Y23.62 Z-0.4
G1 X10.94 Y23.64 Z-0.4
G1 X10.94 Y23.66 Z-0.4
G1 X10.96 Y23.66 Z-0.4
G1 X10.96 Y23.68 Z-0.4
G1 X10.96 Y23.7 Z-0.4
G1 X10.98 Y23.7 Z-0.4
G1 X10.98 Y23.72 Z-0.4
G1 X11.0 Y23.72 Z-0.4
G1 X11.0 Y23.74 Z-0.4
G1 X11.0 Y23.76 Z-0.4
G1 X11.02 Y23.76 Z-0.4
G1 X11.02 Y23.78 Z-0.4
G1 X11.02 Y23.8 Z-0.4
G1 X11.04 Y23.8 Z-0.4
G1 X11.04 Y23.82 Z-0.4
G1 X11.06 Y23.82 Z-0.4
G1 X11.06 Y23.84 Z-0.4
G1 X11.08 Y23.84 Z-0.4
G1 X11.08 Y23.86 Z-0.4
G1 X11.1 Y23.86 Z-0.4
G1 X11.1 Y23.88 Z-0.4
G1 X11.12 Y23.88 Z-0.4
G1 X11.14 Y23.88 Z-0.4
G1 X11.14 Y23.9 Z-0.4
G1 X11.16 Y23.9 Z-0.4
G1 X11.18 Y23.9 Z-0.4
G1 X11.18 Y23.92 Z-0.4
G1 X11.2 Y23.92 Z-0.4
G1 X11.2 Y23.94 Z-0.4
G1 X11.22 Y23.94 Z-0.4
G1 X11.22 Y23.96 Z-0.4
G1 X11.24 Y23.96 Z-0.4
G1 X11.26 Y23.96 Z-0.4
G1 X11.28 Y23.96 Z-0.4
G1 X11.28 Y23.98 Z-0.4
G1 X11.3 Y23.98 Z-0.4
G1 X11.32 Y23.98 Z-0.4
G1 X11.32 Y24.0 Z-0.4
G1 X11.34 Y24.0 Z-0.4
G1 X11.36 Y24.0 Z-0.4
G1 X11.36 Y24.02 Z-0.4
G1 X11.38 Y24.02 Z-0.4
G1 X11.4 Y24.02 Z-0.4
G1 X11.4 Y24.04 Z-0.4
G1 X11.42 Y24.04 Z-0.4
G1 X11.44 Y24.04 Z-0.4
G1 X11.46 Y24.04 Z-0.4
G1 X11.48 Y24.04 Z-0.4
G1 X11.5 Y24.04 Z-0.4
G1 X11.52 Y24.04 Z-0.4
G1 X11.52 Y24.06 Z-0.4
G1 X11.54 Y24.06 Z-0.4
G1 X11.56 Y24.06 Z-0.4
G1 X11.58 Y24.06 Z-0.4
G1 X11.6 Y24.06 Z-0.4
G1 X11.62 Y24.06 Z-0.4
G1 X11.62 Y24.08 Z-0.4
G1 X11.64 Y24.08 Z-0.4
G1 X11.66 Y24.08 Z-0.4
G1 X11.68 Y24.08 Z-0.4
G1 X11.7 Y24.08 Z-0.4
G1 X11.72 Y24.08 Z-0.4
G1 X11.74 Y24.08 Z-0.4
G1 X11.76 Y24.08 Z-0.4
G1 X11.78 Y24.08 Z-0.4
G1 X11.8 Y24.08 Z-0.4
G1 X11.82 Y24.08 Z-0.4
G1 X11.84 Y24.08 Z-0.4
G1 X11.86 Y24.08 Z-0.4
G1 X11.88 Y24.08 Z-0.4
G1 X11.9 Y24.08 Z-0.4
G1 X11.92 Y24.08 Z-0.4
G1 X11.94 Y24.08 Z-0.4
G1 X11.96 Y24.08 Z-0.4
G1 X11.96 Y24.06 Z-0.4
G1 X11.98 Y24.06 Z-0.4
G1 X12.0 Y24.06 Z-0.4
G1 X12.02 Y24.06 Z-0.4
G1 X12.04 Y24.06 Z-0.4
G1 X12.06 Y24.06 Z-0.4
G1 X12.06 Y24.04 Z-0.4
G1 X12.08 Y24.04 Z-0.4
G1 X12.1 Y24.04 Z-0.4
G1 X12.12 Y24.04 Z-0.4
G1 X12.14 Y24.04 Z-0.4
G1 X12.16 Y24.04 Z-0.4
G1 X12.18 Y24.04 Z-0.4
G1 X12.18 Y24.02 Z-0.4
G1 X12.2 Y24.02 Z-0.4
G1 X12.22 Y24.02 Z-0.4
G1 X12.22 Y24.0 Z-0.4
G1 X12.24 Y24.0 Z-0.4
G1 X12.26 Y24.0 Z-0.4
G1 X12.28 Y24.0 Z-0.4
G1 X12.28 Y23.98 Z-0.4
G1 X12.3 Y23.98 Z-0.4
G1 X12.32 Y23.98 Z-0.4
G1 X12.32 Y23.96 Z-0.4
G1 X12.34 Y23.96 Z-0.4
G1 X12.36 Y23.96 Z-0.4
G1 X12.36 Y23.94 Z-0.4
G1 X12.38 Y23.94 Z-0.4
G1 X12.38 Y23.92 Z-0.4
G1 X12.4 Y23.92 Z-0.4
G1 X12.4 Y23.9 Z-0.4
G1 X12.42 Y23.9 Z-0.4
G1 X12.44 Y23.9 Z-0.4
G1 X12.44 Y23.88 Z-0.4
G1 X12.46 Y23.88 Z-0.4
G1 X12.48 Y23.88 Z-0.4
G1 X12.48 Y23.86 Z-0.4
G1 X12.5 Y23.86 Z-0.4
G1 X12.5 Y23.84 Z-0.4
G1 X12.52 Y23.84 Z-0.4
G1 X12.52 Y23.82 Z-0.4
G1 X12.54 Y23.82 Z-0.4
G1 X12.54 Y23.8 Z-0.4
G1 X12.56 Y23.8 Z-0.4
G1 X12.56 Y23.78 Z-0.4
G1 X12.56 Y23.76 Z-0.4
G1 X12.58 Y23.76 Z-0.4
G1 X12.58 Y23.74 Z-0.4
G1 X12.58 Y23.72 Z-0.4
G1 X12.6 Y23.72 Z-0.4
G1 X12.6 Y23.7 Z-0.4
G1 X12.62 Y23.7 Z-0.4
G1 X12.62 Y23.68 Z-0.4
G1 X12.64 Y23.68 Z-0.4
G1 X12.64 Y23.66 Z-0.4
G1 X12.64 Y23.64 Z-0.4
G1 X12.66 Y23.64 Z-0.4
G1 X12.66 Y23.62 Z-0.4
G1 X12.68 Y23.62 Z-0.4
G1 X12.68 Y23.6 Z-0.4
G1 X12.68 Y23.58 Z-0.4
G1 X12.7 Y23.58 Z-0.4
G1 X12.7 Y23.56 Z-0.4
G1 X12.7 Y23.54 Z-0.4
G1 X12.72 Y23.54 Z-0.4
G1 X12.72 Y23.52 Z-0.4
G1 X12.74 Y23.52 Z-0.4
G1 X12.74 Y23.5 Z-0.4
G1 X12.74 Y23.48 Z-0.4
G1 X12.74 Y23.46 Z-0.4
G1 X12.76 Y23.46 Z-0.4
G1 X12.76 Y23.44 Z-0.4
G1 X12.76 Y23.42 Z-0.4
G1 X12.76 Y23.4 Z-0.4
G1 X12.76 Y23.38 Z-0.4
G1 X12.76 Y23.36 Z-0.4
G1 X12.78 Y23.36 Z-0.4
G1 X12.78 Y23.34 Z-0.4
G1 X12.78 Y23.32 Z-0.4
G1 X12.78 Y23.3 Z-0.4
G1 X12.78 Y23.28 Z-0.4
G1 X12.78 Y23.26 Z-0.4
G1 X12.8 Y23.26 Z-0.4
G1 X12.8 Y23.24 Z-0.4
G1 X12.8 Y23.22 Z-0.4
G1 X12.8 Y23.2 Z-0.4
G1 X12.8 Y23.18 Z-0.4
G1 X12.8 Y23.16 Z-0.4
G1 X12.8 Y23.14 Z-0.4
G1 X12.8 Y23.12 Z-0.4
G1 X12.8 Y23.1 Z-0.4
G1 X12.8 Y23.08 Z-0.4
G1 X12.8 Y23.06 Z-0.4
G1 X12.8 Y23.04 Z-0.4
G1 X12.8 Y23.02 Z-0.4
G1 X12.78 Y23.02 Z-0.4
G1 X12.78 Y23.0 Z-0.4
G1 X12.78 Y22.98 Z-0.4
G1 X12.78 Y22.96 Z-0.4
G1 X12.78 Y22.94 Z-0.4
G1 X12.78 Y22.92 Z-0.4
G1 X12.78 Y22.9 Z-0.4
G1 X12.78 Y22.88 Z-0.4
G1 X12.78 Y22.86 Z-0.4
G1 X12.78 Y22.84 Z-0.4
G1 X12.76 Y22.84 Z-0.4
G1 X12.76 Y22.82 Z-0.4
G1 X12.76 Y22.8 Z-0.4
G1 X12.76 Y22.78 Z-0.4
G1 X12.76 Y22.76 Z-0.4
G1 X12.76 Y22.74 Z-0.4
G1 X12.74 Y22.74 Z-0.4
G1 X12.74 Y22.72 Z-0.4
G1 X12.74 Y22.7 Z-0.4
G1 X12.74 Y22.68 Z-0.4
G1 X12.72 Y22.68 Z-0.4
G1 X12.72 Y22.66 Z-0.4
G1 X12.7 Y22.66 Z-0.4
G1 X12.7 Y22.64 Z-0.4
G1 X12.7 Y22.62 Z-0.4
G1 X12.68 Y22.62 Z-0.4
G1 X12.68 Y22.6 Z-0.4
G1 X12.68 Y22.58 Z-0.4
G1 X12.66 Y22.58 Z-0.4
G1 X12.66 Y22.56 Z-0.4
G1 X12.66 Y22.54 Z-0.4
G1 X12.64 Y22.54 Z-0.4
G1 X12.64 Y22.52 Z-0.4
G1 X12.64 Y22.5 Z-0.4
G1 X12.62 Y22.5 Z-0.4
G1 X12.62 Y22.48 Z-0.4
G1 X12.62 Y22.46 Z-0.4
G1 X12.6 Y22.46 Z-0.4
G1 X12.6 Y22.44 Z-0.4
G1 X12.58 Y22.44 Z-0.4
G1 X12.58 Y22.42 Z-0.4
G1 X12.56 Y22.42 Z-0.4
G1 X12.56 Y22.4 Z-0.4
G1 X12.54 Y22.4 Z-0.4
G1 X12.54 Y22.38 Z-0.4
G1 X12.52 Y22.38 Z-0.4
G1 X12.52 Y22.36 Z-0.4
G1 X12.5 Y22.36 Z-0.4
G1 X12.5 Y22.34 Z-0.4
G1 X12.48 Y22.34 Z-0.4
G1 X12.48 Y22.32 Z-0.4
G1 X12.46 Y22.32 Z-0.4
G1 X12.44 Y22.32 Z-0.4
G1 X12.44 Y22.3 Z-0.4
G1 X12.42 Y22.3 Z-0.4
G1 X12.4 Y22.3 Z-0.4
G1 X12.4 Y22.28 Z-0.4
G1 X12.38 Y22.28 Z-0.4
G1 X12.38 Y22.26 Z-0.4
G1 X12.36 Y22.26 Z-0.4
G1 X12.36 Y22.24 Z-0.4
G1 X12.34 Y22.24 Z-0.4
G1 X12.32 Y22.24 Z-0.4
G1 X12.32 Y22.22 Z-0.4
G1 X12.3 Y22.22 Z-0.4
G1 X12.28 Y22.22 Z-0.4
G1 X12.28 Y22.2 Z-0.4
G1 X12.26 Y22.2 Z-0.4
G1 X12.24 Y22.2 Z-0.4
G1 X12.22 Y22.2 Z-0.4
G1 X12.22 Y22.18 Z-0.4
G1 X12.2 Y22.18 Z-0.4
G1 X12.18 Y22.18 Z-0.4
G1 X12.18 Y22.16 Z-0.4
G1 X12.16 Y22.16 Z-0.4
G1 X12.14 Y22.16 Z-0.4
G1 X12.12 Y22.16 Z-0.4
G1 X12.1 Y22.16 Z-0.4
G1 X12.08 Y22.16 Z-0.4
G1 X12.06 Y22.16 Z-0.4
G1 X12.06 Y22.14 Z-0.4
G1 X12.04 Y22.14 Z-0.4
G1 X12.02 Y22.14 Z-0.4
G1 X12.0 Y22.14 Z-0.4
G1 X11.98 Y22.14 Z-0.4
G1 X11.96 Y22.14 Z-0.4
G1 X11.96 Y22.12 Z-0.4
G1 X11.94 Y22.12 Z-0.4
G1 X11.92 Y22.12 Z-0.4
G1 X11.9 Y22.12 Z-0.4
G1 X11.88 Y22.12 Z-0.4
G1 X11.86 Y22.12 Z-0.4
G1 X11.84 Y22.12 Z-0.4
G1 X11.82 Y22.12 Z-0.4
G1 X11.8 Y22.12 Z-0.4
G1 X11.78 Y22.12 Z-0.4
G1 X11.76 Y22.12 Z-0.4
G1 X11.74 Y22.12 Z-0.4
G1 X11.72 Y22.12 Z-0.4
G1 X11.7 Y22.12 Z-0.4
G1 X11.68 Y22.12 Z-0.4
G1 X11.66 Y22.12 Z-0.4
G1 X11.64 Y22.12 Z-0.4
G1 X11.62 Y22.12 Z-0.4
G1 X11.62 Y22.14 Z-0.4
G1 X11.6 Y22.14 Z-0.4
G1 X11.58 Y22.14 Z-0.4
G1 X11.56 Y22.14 Z-0.4
G1 X11.54 Y22.14 Z-0.4
G1 X11.52 Y22.14 Z-0.4
G1 X11.52 Y22.16 Z-0.4
G1 X11.5 Y22.16 Z-0.4
G1 X11.48 Y22.16 Z-0.4
G1 X11.46 Y22.16 Z-0.4
G1 X11.44 Y22.16 Z-0.4
G1 X11.42 Y22.16 Z-0.4
G1 X11.4 Y22.16 Z-0.4
G1 X11.4 Y22.18 Z-0.4
G1 X11.38 Y22.18 Z-0.4
G1 X11.36 Y22.18 Z-0.4
G1 X11.36 Y22.2 Z-0.4
G1 X11.34 Y22.2 Z-0.4
G1 X11.32 Y22.2 Z-0.4
G1 X11.32 Y22.22 Z-0.4
G1 X11.3 Y22.22 Z-0.4
G1 X11.28 Y22.22 Z-0.4
G1 X11.28 Y22.24 Z-0.4
G1 X11.26 Y22.24 Z-0.4
G1 X11.24 Y22.24 Z-0.4
G1 X11.22 Y22.24 Z-0.4
G1 X11.22 Y22.26 Z-0.4
G1 X11.2 Y22.26 Z-0.4
G1 X11.2 Y22.28 Z-0.4
G1 X11.18 Y22.28 Z-0.4
G1 X11.18 Y22.3 Z-0.4
G1 X11.16 Y22.3 Z-0.4
G1 X11.14 Y22.3 Z-0.4
G1 X11.14 Y22.32 Z-0.4
G1 X11.12 Y22.32 Z-0.4
G1 X11.1 Y22.32 Z-0.4
G1 X11.1 Y22.34 Z-0.4
G1 X11.08 Y22.34 Z-0.4
G1 X11.08 Y22.36 Z-0.4
G1 X11.06 Y22.36 Z-0.4
G1 X11.06 Y22.38 Z-0.4
G1 X11.04 Y22.38 Z-0.4
G1 X11.04 Y22.4 Z-0.4
G1 X11.02 Y22.4 Z-0.4
G1 X11.02 Y22.42 Z-0.4
G1 X11.0 Y22.42 Z-0.4
G1 X11.0 Y22.44 Z-0.4
G1 X10.98 Y22.44 Z-0.4
G1 X10.98 Y22.46 Z-0.4
G1 X10.96 Y22.46 Z-0.4
G1 X10.96 Y22.48 Z-0.4
G1 X10.96 Y22.5 Z-0.4
G1 X10.94 Y22.5 Z-0.4
G1 X10.94 Y22.52 Z-0.4
G1 X10.94 Y22.54 Z-0.4
G1 X10.92 Y22.54 Z-0.4
G1 X10.92 Y22.56 Z-0.4
G1 X10.92 Y22.58 Z-0.4
G1 X10.9 Y22.58 Z-0.4
G1 X10.9 Y22.6 Z-0.4
G1 X10.9 Y22.62 Z-0.4
G1 X10.9 Y22.64 Z-0.4
G1 X10.88 Y22.64 Z-0.4
G1 X10.88 Y22.66 Z-0.4
G1 X10.86 Y22.66 Z-0.4
G1 X10.86 Y22.68 Z-0.4
G1 X10.84 Y22.68 Z-0.4
G1 X10.84 Y22.7 Z-0.4
G1 X10.84 Y22.72 Z-0.4
G1 X10.84 Y22.74 Z-0.4
G1 X10.82 Y22.74 Z-0.4
G1 X10.82 Y22.76 Z-0.4
G1 X10.82 Y22.78 Z-0.4
G1 X10.82 Y22.8 Z-0.4
G1 X10.82 Y22.82 Z-0.4
G1 X10.82 Y22.82 Z5
M5
G0 X26.32 Y3.54 Z5
M3 P100
G1 X26.32 Y3.54 Z-0.4
G1 X26.3 Y3.54 Z-0.4
G1 X26.3 Y3.56 Z-0.4
G1 X26.3 Y3.58 Z-0.4
G1 X26.3 Y3.6 Z-0.4
G1 X26.3 Y3.62 Z-0.4
G1 X26.3 Y3.64 Z-0.4
G1 X26.3 Y3.66 Z-0.4
G1 X26.3 Y3.68 Z-0.4
G1 X26.3 Y3.7 Z-0.4
G1 X26.3 Y3.72 Z-0.4
G1 X26.3 Y3.74 Z-0.4
G1 X26.3 Y3.76 Z-0.4
G1 X26.3 Y3.78 Z-0.4
G1 X26.3 Y3.8 Z-0.4
G1 X26.3 Y3.82 Z-0.4
G1 X26.3 Y3.84 Z-0.4
G1 X26.3 Y3.86 Z-0.4
G1 X26.3 Y3.88 Z-0.4
G1 X26.3 Y3.9 Z-0.4
G1 X26.3 Y3.92 Z-0.4
G1 X26.3 Y3.94 Z-0.4
G1 X26.3 Y3.96 Z-0.4
G1 X26.3 Y3.98 Z-0.4
G1 X26.3 Y4.0 Z-0.4
G1 X26.3 Y4.02 Z-0.4
G1 X26.3 Y4.04 Z-0.4
G1 X26.3 Y4.06 Z-0.4
G1 X26.32 Y4.06 Z-0.4
G1 X26.32 Y4.08 Z-0.4
G1 X26.32 Y4.1 Z-0.4
G1 X26.32 Y4.12 Z-0.4
G1 X26.32 Y4.14 Z-0.4
G1 X26.34 Y4.14 Z-0.4
G1 X26.34 Y4.16 Z-0.4
G1 X26.34 Y4.18 Z-0.4
G1 X26.34 Y4.2 Z-0.4
G1 X26.36 Y4.2 Z-0.4
G1 X26.36 Y4.22 Z-0.4
G1 X26.38 Y4.22 Z-0.4
G1 X26.38 Y4.24 Z-0.4
G1 X26.38 Y4.26 Z-0.4
G1 X26.4 Y4.26 Z-0.4
G1 X26.4 Y4.28 Z-0.4
G1 X26.4 Y4.3 Z-0.4
G1 X26.42 Y4.3 Z-0.4
G1 X26.42 Y4.32 Z-0.4
G1 X26.44 Y4.32 Z-0.4
G1 X26.44 Y4.34 Z-0.4
G1 X26.44 Y4.36 Z-0.4
G1 X26.46 Y4.36 Z-0.4
G1 X26.46 Y4.38 Z-0.4
G1 X26.46 Y4.4 Z-0.4
G1 X26.48 Y4.4 Z-0.4
G1 X26.48 Y4.42 Z-0.4
G1 X26.5 Y4.42 Z-0.4
G1 X26.5 Y4.44 Z-0.4
G1 X26.5 Y4.46 Z-0.4
G1 X26.52 Y4.46 Z-0.4
G1 X26.52 Y4.48 Z-0.4
G1 X26.52 Y4.5 Z-0.4
G1 X26.54 Y4.5 Z-0.4
G1 X26.54 Y4.52 Z-0.4
G1 X26.56 Y4.52 Z-0.4
G1 X26.56 Y4.54 Z-0.4
G1 X26.58 Y4.54 Z-0.4
G1 X26.58 Y4.56 Z-0.4
G1 X26.6 Y4.56 Z-0.4
G1 X26.6 Y4.58 Z-0.4
G1 X26.62 Y4.58 Z-0.4
G1 X26.64 Y4.58 Z-0.4
G1 X26.64 Y4.6 Z-0.4
G1 X26.66 Y4.6 Z-0.4
G1 X26.68 Y4.6 Z-0.4
G1 X26.68 Y4.62 Z-0.4
G1 X26.7 Y4.62 Z-0.4
G1 X26.72 Y4.62 Z-0.4
G1 X26.72 Y4.64 Z-0.4
G1 X26.74 Y4.64 Z-0.4
G1 X26.76 Y4.64 Z-0.4
G1 X26.76 Y4.66 Z-0.4
G1 X26.78 Y4.66 Z-0.4
G1 X26.8 Y4.66 Z-0.4
G1 X26.8 Y4.68 Z-0.4
G1 X26.82 Y4.68 Z-0.4
G1 X26.82 Y4.7 Z-0.4
G1 X26.84 Y4.7 Z-0.4
G1 X26.86 Y4.7 Z-0.4
G1 X26.86 Y4.72 Z-0.4
G1 X26.88 Y4.72 Z-0.4
G1 X26.9 Y4.72 Z-0.4
G1 X26.9 Y4.74 Z-0.4
G1 X26.92 Y4.74 Z-0.4
G1 X26.94 Y4.74 Z-0.4
G1 X26.96 Y4.74 Z-0.4
G1 X26.98 Y4.74 Z-0.4
G1 X27.0 Y4.74 Z-0.4
G1 X27.02 Y4.74 Z-0.4
G1 X27.02 Y4.76 Z-0.4
G1 X27.04 Y4.76 Z-0.4
G1 X27.06 Y4.76 Z-0.4
G1 X27.08 Y4.76 Z-0.4
G1 X27.1 Y4.76 Z-0.4
G1 X27.12 Y4.76 Z-0.4
G1 X27.12 Y4.78 Z-0.4
G1 X27.14 Y4.78 Z-0.4
G1 X27.16 Y4.78 Z-0.4
G1 X27.18 Y4.78 Z-0.4
G1 X27.2 Y4.78 Z-0.4
G1 X27.22 Y4.78 Z-0.4
G1 X27.24 Y4.78 Z-0.4
G1 X27.26 Y4.78 Z-0.4
G1 X27.28 Y4.78 Z-0.4
G1 X27.3 Y4.78 Z-0.4
G1 X27.32 Y4.78 Z-0.4
G1 X27.34 Y4.78 Z-0.4
G1 X27.36 Y4.78 Z-0.4
G1 X27.38 Y4.78 Z-0.4
G1 X27.4 Y4.78 Z-0.4
G1 X27.42 Y4.78 Z-0.4
G1 X27.44 Y4.78 Z-0.4
G1 X27.46 Y4.78 Z-0.4
G1 X27.46 Y4.76 Z-0.4
G1 X27.48 Y4.76 Z-0.4
G1 X27.5 Y4.76 Z-0.4
G1 X27.52 Y4.76 Z-0.4
G1 X27.54 Y4.76 Z-0.4
G1 X27.56 Y4.76 Z-0.4
G1 X27.56 Y4.74 Z-0.4
G1 X27.58 Y4.74 Z-0.4
G1 X27.6 Y4.74 Z-0.4
G1 X27.62 Y4.74 Z-0.4
G1 X27.64 Y4.74 Z-0.4
G1 X27.66 Y4.74 Z-0.4
G1 X27.68 Y4.74 Z-0.4
G1 X27.68 Y4.72 Z-0.4
G1 X27.7 Y4.72 Z-0.4
G1 X27.72 Y4.72 Z-0.4
G1 X27.72 Y4.7 Z-0.4
G1 X27.74 Y4.7 Z-0.4
G1 X27.76 Y4.7 Z-0.4
G1 X27.78 Y4.7 Z-0.4
G1 X27.78 Y4.68 Z-0.4
G1 X27.8 Y4.68 Z-0.4
G1 X27.8 Y4.66 Z-0.4
G1 X27.82 Y4.66 Z-0.4
G1 X27.82 Y4.64 Z-0.4
G1 X27.84 Y4.64 Z-0.4
G1 X27.86 Y4.64 Z-0.4
G1 X27.86 Y4.62 Z-0.4
G1 X27.88 Y4.62 Z-0.4
G1 X27.9 Y4.62 Z-0.4
G1 X27.9 Y4.6 Z-0.4
G1 X27.92 Y4.6 Z-0.4
G1 X27.94 Y4.6 Z-0.4
G1 X27.94 Y4.58 Z-0.4
G1 X27.96 Y4.58 Z-0.4
G1 X27.98 Y4.58 Z-0.4
G1 X27.98 Y4.56 Z-0.4
G1 X28.0 Y4.56 Z-0.4
G1 X28.0 Y4.54 Z-0.4
G1 X28.02 Y4.54 Z-0.4
G1 X28.02 Y4.52 Z-0.4
G1 X28.04 Y4.52 Z-0.4
G1 X28.04 Y4.5 Z-0.4
G1 X28.06 Y4.5 Z-0.4
G1 X28.06 Y4.48 Z-0.4
G1 X28.06 Y4.46 Z-0.4
G1 X28.08 Y4.46 Z-0.4
G1 X28.08 Y4.44 Z-0.4
G1 X28.08 Y4.42 Z-0.4
G1 X28.1 Y4.42 Z-0.4
G1 X28.1 Y4.4 Z-0.4
G1 X28.12 Y4.4 Z-0.4
G1 X28.12 Y4.38 Z-0.4
G1 X28.14 Y4.38 Z-0.4
G1 X28.14 Y4.36 Z-0.4
G1 X28.14 Y4.34 Z-0.4
G1 X28.16 Y4.34 Z-0.4
G1 X28.16 Y4.32 Z-0.4
G1 X28.18 Y4.32 Z-0.4
G1 X28.18 Y4.3 Z-0.4
G1 X28.2 Y4.3 Z-0.4
G1 X28.2 Y4.28 Z-0.4
G1 X28.2 Y4.26 Z-0.4
G1 X28.22 Y4.26 Z-0.4
G1 X28.22 Y4.24 Z-0.4
G1 X28.22 Y4.22 Z-0.4
G1 X28.24 Y4.22 Z-0.4
G1 X28.24 Y4.2 Z-0.4
G1 X28.24 Y4.18 Z-0.4
G1 X28.24 Y4.16 Z-0.4
G1 X28.24 Y4.14 Z-0.4
G1 X28.26 Y4.14 Z-0.4
G1 X28.26 Y4.12 Z-0.4
G1 X28.26 Y4.1 Z-0.4
G1 X28.26 Y4.08 Z-0.4
G1 X28.26 Y4.06 Z-0.4
G1 X28.28 Y4.06 Z-0.4
G1 X28.28 Y4.04 Z-0.4
G1 X28.28 Y4.02 Z-0.4
G1 X28.28 Y4.0 Z-0.4
G1 X28.28 Y3.98 Z-0.4
G1 X28.28 Y3.96 Z-0.4
G1 X28.3 Y3.96 Z-0.4
G1 X28.3 Y3.94 Z-0.4
G1 X28.3 Y3.92 Z-0.4
G1 X28.3 Y3.9 Z-0.4
G1 X28.3 Y3.88 Z-0.4
G1 X28.3 Y3.86 Z-0.4
G1 X28.3 Y3.84 Z-0.4
G1 X28.3 Y3.82 Z-0.4
G1 X28.3 Y3.8 Z-0.4
G1 X28.3 Y3.78 Z-0.4
G1 X28.3 Y3.76 Z-0.4
G1 X28.3 Y3.74 Z-0.4
G1 X28.3 Y3.72 Z-0.4
G1 X28.28 Y3.72 Z-0.4
G1 X28.28 Y3.7 Z-0.4
G1 X28.28 Y3.68 Z-0.4
G1 X28.28 Y3.66 Z-0.4
G1 X28.28 Y3.64 Z-0.4
G1 X28.28 Y3.62 Z-0.4
G1 X28.28 Y3.6 Z-0.4
G1 X28.28 Y3.58 Z-0.4
G1 X28.28 Y3.56 Z-0.4
G1 X28.28 Y3.54 Z-0.4
G1 X28.26 Y3.54 Z-0.4
G1 X28.26 Y3.52 Z-0.4
G1 X28.26 Y3.5 Z-0.4
G1 X28.26 Y3.48 Z-0.4
G1 X28.26 Y3.46 Z-0.4
G1 X28.26 Y3.44 Z-0.4
G1 X28.24 Y3.44 Z-0.4
G1 X28.24 Y3.42 Z-0.4
G1 X28.24 Y3.4 Z-0.4
G1 X28.24 Y3.38 Z-0.4
G1 X28.24 Y3.36 Z-0.4
G1 X28.22 Y3.36 Z-0.4
G1 X28.22 Y3.34 Z-0.4
G1 X28.22 Y3.32 Z-0.4
G1 X28.2 Y3.32 Z-0.4
G1 X28.2 Y3.3 Z-0.4
G1 X28.2 Y3.28 Z-0.4
G1 X28.18 Y3.28 Z-0.4
G1 X28.18 Y3.26 Z-0.4
G1 X28.16 Y3.26 Z-0.4
G1 X28.16 Y3.24 Z-0.4
G1 X28.14 Y3.24 Z-0.4
G1 X28.14 Y3.22 Z-0.4
G1 X28.14 Y3.2 Z-0.4
G1 X28.12 Y3.2 Z-0.4
G1 X28.12 Y3.18 Z-0.4
G1 X28.1 Y3.18 Z-0.4
G1 X28.1 Y3.16 Z-0.4
G1 X28.08 Y3.16 Z-0.4
G1 X28.08 Y3.14 Z-0.4
G1 X28.08 Y3.12 Z-0.4
G1 X28.06 Y3.12 Z-0.4
G1 X28.06 Y3.1 Z-0.4
G1 X28.04 Y3.1 Z-0.4
G1 X28.04 Y3.08 Z-0.4
G1 X28.02 Y3.08 Z-0.4
G1 X28.02 Y3.06 Z-0.4
G1 X28.0 Y3.06 Z-0.4
G1 X27.98 Y3.06 Z-0.4
G1 X27.98 Y3.04 Z-0.4
G1 X27.96 Y3.04 Z-0.4
G1 X27.96 Y3.02 Z-0.4
G1 X27.94 Y3.02 Z-0.4
G1 X27.94 Y3.0 Z-0.4
G1 X27.92 Y3.0 Z-0.4
G1 X27.9 Y3.0 Z-0.4
G1 X27.9 Y2.98 Z-0.4
G1 X27.88 Y2.98 Z-0.4
G1 X27.88 Y2.96 Z-0.4
G1 X27.86 Y2.96 Z-0.4
G1 X27.86 Y2.94 Z-0.4
G1 X27.84 Y2.94 Z-0.4
G1 X27.82 Y2.94 Z-0.4
G1 X27.82 Y2.92 Z-0.4
G1 X27.8 Y2.92 Z-0.4
G1 X27.78 Y2.92 Z-0.4
G1 X27.78 Y2.9 Z-0.4
G1 X27.76 Y2.9 Z-0.4
G1 X27.74 Y2.9 Z-0.4
G1 X27.72 Y2.9 Z-0.4
G1 X27.72 Y2.88 Z-0.4
G1 X27.7 Y2.88 Z-0.4
G1 X27.68 Y2.88 Z-0.4
G1 X27.68 Y2.86 Z-0.4
G1 X27.66 Y2.86 Z-0.4
G1 X27.64 Y2.86 Z-0.4
G1 X27.62 Y2.86 Z-0.4
G1 X27.62 Y2.84 Z-0.4
G1 X27.6 Y2.84 Z-0.4
G1 X27.58 Y2.84 Z-0.4
G1 X27.58 Y2.82 Z-0.4
G1 X27.56 Y2.82 Z-0.4
G1 X27.54 Y2.82 Z-0.4
G1 X27.52 Y2.82 Z-0.4
G1 X27.5 Y2.82 Z-0.4
G1 X27.48 Y2.82 Z-0.4
G1 X27.46 Y2.82 Z-0.4
G1 X27.44 Y2.82 Z-0.4
G1 X27.42 Y2.82 Z-0.4
G1 X27.4 Y2.82 Z-0.4
G1 X27.38 Y2.82 Z-0.4
G1 X27.36 Y2.82 Z-0.4
G1 X27.34 Y2.82 Z-0.4
G1 X27.32 Y2.82 Z-0.4
G1 X27.3 Y2.82 Z-0.4
G1 X27.28 Y2.82 Z-0.4
G1 X27.26 Y2.82 Z-0.4
G1 X27.24 Y2.82 Z-0.4
G1 X27.22 Y2.82 Z-0.4
G1 X27.2 Y2.82 Z-0.4
G1 X27.18 Y2.82 Z-0.4
G1 X27.16 Y2.82 Z-0.4
G1 X27.14 Y2.82 Z-0.4
G1 X27.12 Y2.82 Z-0.4
G1 X27.1 Y2.82 Z-0.4
G1 X27.08 Y2.82 Z-0.4
G1 X27.06 Y2.82 Z-0.4
G1 X27.04 Y2.82 Z-0.4
G1 X27.02 Y2.82 Z-0.4
G1 X27.0 Y2.82 Z-0.4
G1 X27.0 Y2.84 Z-0.4
G1 X26.98 Y2.84 Z-0.4
G1 X26.96 Y2.84 Z-0.4
G1 X26.96 Y2.86 Z-0.4
G1 X26.94 Y2.86 Z-0.4
G1 X26.92 Y2.86 Z-0.4
G1 X26.9 Y2.86 Z-0.4
G1 X26.9 Y2.88 Z-0.4
G1 X26.88 Y2.88 Z-0.4
G1 X26.86 Y2.88 Z-0.4
G1 X26.86 Y2.9 Z-0.4
G1 X26.84 Y2.9 Z-0.4
G1 X26.82 Y2.9 Z-0.4
G1 X26.82 Y2.92 Z-0.4
G1 X26.8 Y2.92 Z-0.4
G1 X26.78 Y2.92 Z-0.4
G1 X26.78 Y2.94 Z-0.4
G1 X26.76 Y2.94 Z-0.4
G1 X26.74 Y2.94 Z-0.4
G1 X26.72 Y2.94 Z-0.4
G1 X26.72 Y2.96 Z-0.4
G1 X26.7 Y2.96 Z-0.4
G1 X26.7 Y2.98 Z-0.4
G1 X26.68 Y2.98 Z-0.4
G1 X26.68 Y3.0 Z-0.4
G1 X26.66 Y3.0 Z-0.4
G1 X26.64 Y3.0 Z-0.4
G1 X26.64 Y3.02 Z-0.4
G1 X26.62 Y3.02 Z-0.4
G1 X26.62 Y3.04 Z-0.4
G1 X26.6 Y3.04 Z-0.4
G1 X26.6 Y3.06 Z-0.4
G1 X26.58 Y3.06 Z-0.4
G1 X26.56 Y3.06 Z-0.4
G1 X26.56 Y3.08 Z-0.4
G1 X26.54 Y3.08 Z-0.4
G1 X26.54 Y3.1 Z-0.4
G1 X26.52 Y3.1 Z-0.4
G1 X26.52 Y3.12 Z-0.4
G1 X26.5 Y3.12 Z-0.4
G1 X26.5 Y3.14 Z-0.4
G1 X26.5 Y3.16 Z-0.4
G1 X26.48 Y3.16 Z-0.4
G1 X26.48 Y3.18 Z-0.4
G1 X26.46 Y3.18 Z-0.4
G1 X26.46 Y3.2 Z-0.4
G1 X26.46 Y3.22 Z-0.4
G1 X26.44 Y3.22 Z-0.4
G1 X26.44 Y3.24 Z-0.4
G1 X26.44 Y3.26 Z-0.4
G1 X26.42 Y3.26 Z-0.4
G1 X26.42 Y3.28 Z-0.4
G1 X26.4 Y3.28 Z-0.4
G1 X26.4 Y3.3 Z-0.4
G1 X26.4 Y3.32 Z-0.4
G1 X26.38 Y3.32 Z-0.4
G1 X26.38 Y3.34 Z-0.4
G1 X26.38 Y3.36 Z-0.4
G1 X26.36 Y3.36 Z-0.4
G1 X26.36 Y3.38 Z-0.4
G1 X26.34 Y3.38 Z-0.4
G1 X26.34 Y3.4 Z-0.4
G1 X26.34 Y3.42 Z-0.4
G1 X26.34 Y3.44 Z-0.4
G1 X26.32 Y3.44 Z-0.4
G1 X26.32 Y3.46 Z-0.4
G1 X26.32 Y3.48 Z-0.4
G1 X26.32 Y3.5 Z-0.4
G1 X26.32 Y3.52 Z-0.4
G1 X26.32 Y3.52 Z5
M5
G0 X26.32 Y9.88 Z5
M3 P100
G1 X26.32 Y9.88 Z-0.4
G1 X26.3 Y9.88 Z-0.4
G1 X26.3 Y9.9 Z-0.4
G1 X26.3 Y9.92 Z-0.4
G1 X26.3 Y9.94 Z-0.4
G1 X26.3 Y9.96 Z-0.4
G1 X26.3 Y9.98 Z-0.4
G1 X26.3 Y10.0 Z-0.4
G1 X26.3 Y10.02 Z-0.4
G1 X26.3 Y10.04 Z-0.4
G1 X26.3 Y10.06 Z-0.4
G1 X26.3 Y10.08 Z-0.4
G1 X26.3 Y10.1 Z-0.4
G1 X26.3 Y10.12 Z-0.4
G1 X26.3 Y10.14 Z-0.4
G1 X26.3 Y10.16 Z-0.4
G1 X26.3 Y10.18 Z-0.4
G1 X26.3 Y10.2 Z-0.4
G1 X26.3 Y10.22 Z-0.4
G1 X26.3 Y10.24 Z-0.4
G1 X26.3 Y10.26 Z-0.4
G1 X26.3 Y10.28 Z-0.4
G1 X26.3 Y10.3 Z-0.4
G1 X26.3 Y10.32 Z-0.4
G1 X26.3 Y10.34 Z-0.4
G1 X26.3 Y10.36 Z-0.4
G1 X26.3 Y10.38 Z-0.4
G1 X26.3 Y10.4 Z-0.4
G1 X26.32 Y10.4 Z-0.4
G1 X26.32 Y10.42 Z-0.4
G1 X26.32 Y10.44 Z-0.4
G1 X26.32 Y10.46 Z-0.4
G1 X26.32 Y10.48 Z-0.4
G1 X26.32 Y10.5 Z-0.4
G1 X26.34 Y10.5 Z-0.4
G1 X26.34 Y10.52 Z-0.4
G1 X26.34 Y10.54 Z-0.4
G1 X26.34 Y10.56 Z-0.4
G1 X26.36 Y10.56 Z-0.4
G1 X26.36 Y10.58 Z-0.4
G1 X26.38 Y10.58 Z-0.4
G1 X26.38 Y10.6 Z-0.4
G1 X26.4 Y10.6 Z-0.4
G1 X26.4 Y10.62 Z-0.4
G1 X26.4 Y10.64 Z-0.4
G1 X26.4 Y10.66 Z-0.4
G1 X26.42 Y10.66 Z-0.4
G1 X26.42 Y10.68 Z-0.4
G1 X26.42 Y10.7 Z-0.4
G1 X26.44 Y10.7 Z-0.4
G1 X26.44 Y10.72 Z-0.4
G1 X26.44 Y10.74 Z-0.4
G1 X26.46 Y10.74 Z-0.4
G1 X26.46 Y10.76 Z-0.4
G1 X26.48 Y10.76 Z-0.4
G1 X26.48 Y10.78 Z-0.4
G1 X26.5 Y10.78 Z-0.4
G1 X26.5 Y10.8 Z-0.4
G1 X26.5 Y10.82 Z-0.4
G1 X26.52 Y10.82 Z-0.4
G1 X26.52 Y10.84 Z-0.4
G1 X26.54 Y10.84 Z-0.4
G1 X26.54 Y10.86 Z-0.4
G1 X26.56 Y10.86 Z-0.4
G1 X26.56 Y10.88 Z-0.4
G1 X26.58 Y10.88 Z-0.4
G1 X26.6 Y10.88 Z-0.4
G1 X26.6 Y10.9 Z-0.4
G1 X26.62 Y10.9 Z-0.4
G1 X26.62 Y10.92 Z-0.4
G1 X26.64 Y10.92 Z-0.4
G1 X26.64 Y10.94 Z-0.4
G1 X26.66 Y10.94 Z-0.4
G1 X26.68 Y10.94 Z-0.4
G1 X26.68 Y10.96 Z-0.4
G1 X26.7 Y10.96 Z-0.4
G1 X26.7 Y10.98 Z-0.4
G1 X26.72 Y10.98 Z-0.4
G1 X26.72 Y11.0 Z-0.4
G1 X26.74 Y11.0 Z-0.4
G1 X26.76 Y11.0 Z-0.4
G1 X26.78 Y11.0 Z-0.4
G1 X26.78 Y11.02 Z-0.4
G1 X26.8 Y11.02 Z-0.4
G1 X26.82 Y11.02 Z-0.4
G1 X26.82 Y11.04 Z-0.4
G1 X26.84 Y11.04 Z-0.4
G1 X26.86 Y11.04 Z-0.4
G1 X26.86 Y11.06 Z-0.4
G1 X26.88 Y11.06 Z-0.4
G1 X26.9 Y11.06 Z-0.4
G1 X26.9 Y11.08 Z-0.4
G1 X26.92 Y11.08 Z-0.4
G1 X26.94 Y11.08 Z-0.4
G1 X26.96 Y11.08 Z-0.4
G1 X26.98 Y11.08 Z-0.4
G1 X27.0 Y11.08 Z-0.4
G1 X27.02 Y11.08 Z-0.4
G1 X27.02 Y11.1 Z-0.4
G1 X27.04 Y11.1 Z-0.4
G1 X27.06 Y11.1 Z-0.4
G1 X27.08 Y11.1 Z-0.4
G1 X27.1 Y11.1 Z-0.4
G1 X27.12 Y11.1 Z-0.4
G1 X27.12 Y11.12 Z-0.4
G1 X27.14 Y11.12 Z-0.4
G1 X27.16 Y11.12 Z-0.4
G1 X27.18 Y11.12 Z-0.4
G1 X27.2 Y11.12 Z-0.4
G1 X27.22 Y11.12 Z-0.4
G1 X27.24 Y11.12 Z-0.4
G1 X27.26 Y11.12 Z-0.4
G1 X27.28 Y11.12 Z-0.4
G1 X27.3 Y11.12 Z-0.4
G1 X27.32 Y11.12 Z-0.4
G1 X27.34 Y11.12 Z-0.4
G1 X27.36 Y11.12 Z-0.4
G1 X27.38 Y11.12 Z-0.4
G1 X27.4 Y11.12 Z-0.4
G1 X27.42 Y11.12 Z-0.4
G1 X27.44 Y11.12 Z-0.4
G1 X27.46 Y11.12 Z-0.4
G1 X27.46 Y11.1 Z-0.4
G1 X27.48 Y11.1 Z-0.4
G1 X27.5 Y11.1 Z-0.4
G1 X27.52 Y11.1 Z-0.4
G1 X27.54 Y11.1 Z-0.4
G1 X27.56 Y11.1 Z-0.4
G1 X27.56 Y11.08 Z-0.4
G1 X27.58 Y11.08 Z-0.4
G1 X27.6 Y11.08 Z-0.4
G1 X27.62 Y11.08 Z-0.4
G1 X27.64 Y11.08 Z-0.4
G1 X27.66 Y11.08 Z-0.4
G1 X27.68 Y11.08 Z-0.4
G1 X27.68 Y11.06 Z-0.4
G1 X27.7 Y11.06 Z-0.4
G1 X27.72 Y11.06 Z-0.4
G1 X27.72 Y11.04 Z-0.4
G1 X27.74 Y11.04 Z-0.4
G1 X27.76 Y11.04 Z-0.4
G1 X27.78 Y11.04 Z-0.4
G1 X27.78 Y11.02 Z-0.4
G1 X27.8 Y11.02 Z-0.4
G1 X27.82 Y11.02 Z-0.4
G1 X27.82 Y11.0 Z-0.4
G1 X27.84 Y11.0 Z-0.4
G1 X27.86 Y11.0 Z-0.4
G1 X27.86 Y10.98 Z-0.4
G1 X27.88 Y10.98 Z-0.4
G1 X27.88 Y10.96 Z-0.4
G1 X27.9 Y10.96 Z-0.4
G1 X27.9 Y10.94 Z-0.4
G1 X27.92 Y10.94 Z-0.4
G1 X27.94 Y10.94 Z-0.4
G1 X27.94 Y10.92 Z-0.4
G1 X27.96 Y10.92 Z-0.4
G1 X27.96 Y10.9 Z-0.4
G1 X27.98 Y10.9 Z-0.4
G1 X27.98 Y10.88 Z-0.4
G1 X28.0 Y10.88 Z-0.4
G1 X28.02 Y10.88 Z-0.4
G1 X28.02 Y10.86 Z-0.4
G1 X28.04 Y10.86 Z-0.4
G1 X28.04 Y10.84 Z-0.4
G1 X28.06 Y10.84 Z-0.4
G1 X28.06 Y10.82 Z-0.4
G1 X28.08 Y10.82 Z-0.4
G1 X28.08 Y10.8 Z-0.4
G1 X28.08 Y10.78 Z-0.4
G1 X28.1 Y10.78 Z-0.4
G1 X28.1 Y10.76 Z-0.4
G1 X28.12 Y10.76 Z-0.4
G1 X28.12 Y10.74 Z-0.4
G1 X28.14 Y10.74 Z-0.4
G1 X28.14 Y10.72 Z-0.4
G1 X28.14 Y10.7 Z-0.4
G1 X28.16 Y10.7 Z-0.4
G1 X28.16 Y10.68 Z-0.4
G1 X28.16 Y10.66 Z-0.4
G1 X28.18 Y10.66 Z-0.4
G1 X28.18 Y10.64 Z-0.4
G1 X28.18 Y10.62 Z-0.4
G1 X28.2 Y10.62 Z-0.4
G1 X28.2 Y10.6 Z-0.4
G1 X28.2 Y10.58 Z-0.4
G1 X28.22 Y10.58 Z-0.4
G1 X28.22 Y10.56 Z-0.4
G1 X28.24 Y10.56 Z-0.4
G1 X28.24 Y10.54 Z-0.4
G1 X28.24 Y10.52 Z-0.4
G1 X28.24 Y10.5 Z-0.4
G1 X28.26 Y10.5 Z-0.4
G1 X28.26 Y10.48 Z-0.4
G1 X28.26 Y10.46 Z-0.4
G1 X28.26 Y10.44 Z-0.4
G1 X28.26 Y10.42 Z-0.4
G1 X28.26 Y10.4 Z-0.4
G1 X28.28 Y10.4 Z-0.4
G1 X28.28 Y10.38 Z-0.4
G1 X28.28 Y10.36 Z-0.4
G1 X28.28 Y10.34 Z-0.4
G1 X28.28 Y10.32 Z-0.4
G1 X28.28 Y10.3 Z-0.4
G1 X28.3 Y10.3 Z-0.4
G1 X28.3 Y10.28 Z-0.4
G1 X28.3 Y10.26 Z-0.4
G1 X28.3 Y10.24 Z-0.4
G1 X28.3 Y10.22 Z-0.4
G1 X28.3 Y10.2 Z-0.4
G1 X28.3 Y10.18 Z-0.4
G1 X28.3 Y10.16 Z-0.4
G1 X28.3 Y10.14 Z-0.4
G1 X28.3 Y10.12 Z-0.4
G1 X28.3 Y10.1 Z-0.4
G1 X28.3 Y10.08 Z-0.4
G1 X28.3 Y10.06 Z-0.4
G1 X28.28 Y10.06 Z-0.4
G1 X28.28 Y10.04 Z-0.4
G1 X28.28 Y10.02 Z-0.4
G1 X28.28 Y10.0 Z-0.4
G1 X28.28 Y9.98 Z-0.4
G1 X28.28 Y9.96 Z-0.4
G1 X28.28 Y9.94 Z-0.4
G1 X28.28 Y9.92 Z-0.4
G1 X28.28 Y9.9 Z-0.4
G1 X28.28 Y9.88 Z-0.4
G1 X28.26 Y9.88 Z-0.4
G1 X28.26 Y9.86 Z-0.4
G1 X28.26 Y9.84 Z-0.4
G1 X28.26 Y9.82 Z-0.4
G1 X28.26 Y9.8 Z-0.4
G1 X28.26 Y9.78 Z-0.4
G1 X28.24 Y9.78 Z-0.4
G1 X28.24 Y9.76 Z-0.4
G1 X28.24 Y9.74 Z-0.4
G1 X28.24 Y9.72 Z-0.4
G1 X28.22 Y9.72 Z-0.4
G1 X28.22 Y9.7 Z-0.4
G1 X28.2 Y9.7 Z-0.4
G1 X28.2 Y9.68 Z-0.4
G1 X28.2 Y9.66 Z-0.4
G1 X28.18 Y9.66 Z-0.4
G1 X28.18 Y9.64 Z-0.4
G1 X28.18 Y9.62 Z-0.4
G1 X28.16 Y9.62 Z-0.4
G1 X28.16 Y9.6 Z-0.4
G1 X28.14 Y9.6 Z-0.4
G1 X28.14 Y9.58 Z-0.4
G1 X28.14 Y9.56 Z-0.4
G1 X28.12 Y9.56 Z-0.4
G1 X28.12 Y9.54 Z-0.4
G1 X28.1 Y9.54 Z-0.4
G1 X28.1 Y9.52 Z-0.4
G1 X28.08 Y9.52 Z-0.4
G1 X28.08 Y9.5 Z-0.4
G1 X28.08 Y9.48 Z-0.4
G1 X28.06 Y9.48 Z-0.4
G1 X28.06 Y9.46 Z-0.4
G1 X28.06 Y9.44 Z-0.4
G1 X28.04 Y9.44 Z-0.4
G1 X28.04 Y9.42 Z-0.4
G1 X28.02 Y9.42 Z-0.4
G1 X28.02 Y9.4 Z-0.4
G1 X28.0 Y9.4 Z-0.4
G1 X28.0 Y9.38 Z-0.4
G1 X27.98 Y9.38 Z-0.4
G1 X27.98 Y9.36 Z-0.4
G1 X27.96 Y9.36 Z-0.4
G1 X27.94 Y9.36 Z-0.4
G1 X27.94 Y9.34 Z-0.4
G1 X27.92 Y9.34 Z-0.4
G1 X27.9 Y9.34 Z-0.4
G1 X27.9 Y9.32 Z-0.4
G1 X27.88 Y9.32 Z-0.4
G1 X27.88 Y9.3 Z-0.4
G1 X27.86 Y9.3 Z-0.4
G1 X27.86 Y9.28 Z-0.4
G1 X27.84 Y9.28 Z-0.4
G1 X27.82 Y9.28 Z-0.4
G1 X27.82 Y9.26 Z-0.4
G1 X27.8 Y9.26 Z-0.4
G1 X27.78 Y9.26 Z-0.4
G1 X27.78 Y9.24 Z-0.4
G1 X27.76 Y9.24 Z-0.4
G1 X27.74 Y9.24 Z-0.4
G1 X27.72 Y9.24 Z-0.4
G1 X27.72 Y9.22 Z-0.4
G1 X27.7 Y9.22 Z-0.4
G1 X27.68 Y9.22 Z-0.4
G1 X27.68 Y9.2 Z-0.4
G1 X27.66 Y9.2 Z-0.4
G1 X27.64 Y9.2 Z-0.4
G1 X27.62 Y9.2 Z-0.4
G1 X27.6 Y9.2 Z-0.4
G1 X27.58 Y9.2 Z-0.4
G1 X27.56 Y9.2 Z-0.4
G1 X27.56 Y9.18 Z-0.4
G1 X27.54 Y9.18 Z-0.4
G1 X27.52 Y9.18 Z-0.4
G1 X27.5 Y9.18 Z-0.4
G1 X27.48 Y9.18 Z-0.4
G1 X27.46 Y9.18 Z-0.4
G1 X27.46 Y9.16 Z-0.4
G1 X27.44 Y9.16 Z-0.4
G1 X27.42 Y9.16 Z-0.4
G1 X27.4 Y9.16 Z-0.4
G1 X27.38 Y9.16 Z-0.4
G1 X27.36 Y9.16 Z-0.4
G1 X27.34 Y9.16 Z-0.4
G1 X27.32 Y9.16 Z-0.4
G1 X27.3 Y9.16 Z-0.4
G1 X27.28 Y9.16 Z-0.4
G1 X27.26 Y9.16 Z-0.4
G1 X27.24 Y9.16 Z-0.4
G1 X27.22 Y9.16 Z-0.4
G1 X27.2 Y9.16 Z-0.4
G1 X27.18 Y9.16 Z-0.4
G1 X27.16 Y9.16 Z-0.4
G1 X27.14 Y9.16 Z-0.4
G1 X27.12 Y9.16 Z-0.4
G1 X27.12 Y9.18 Z-0.4
G1 X27.1 Y9.18 Z-0.4
G1 X27.08 Y9.18 Z-0.4
G1 X27.06 Y9.18 Z-0.4
G1 X27.04 Y9.18 Z-0.4
G1 X27.02 Y9.18 Z-0.4
G1 X27.02 Y9.2 Z-0.4
G1 X27.0 Y9.2 Z-0.4
G1 X26.98 Y9.2 Z-0.4
G1 X26.96 Y9.2 Z-0.4
G1 X26.94 Y9.2 Z-0.4
G1 X26.92 Y9.2 Z-0.4
G1 X26.9 Y9.2 Z-0.4
G1 X26.9 Y9.22 Z-0.4
G1 X26.88 Y9.22 Z-0.4
G1 X26.86 Y9.22 Z-0.4
G1 X26.86 Y9.24 Z-0.4
G1 X26.84 Y9.24 Z-0.4
G1 X26.82 Y9.24 Z-0.4
G1 X26.82 Y9.26 Z-0.4
G1 X26.8 Y9.26 Z-0.4
G1 X26.78 Y9.26 Z-0.4
G1 X26.78 Y9.28 Z-0.4
G1 X26.76 Y9.28 Z-0.4
G1 X26.74 Y9.28 Z-0.4
G1 X26.72 Y9.28 Z-0.4
G1 X26.72 Y9.3 Z-0.4
G1 X26.7 Y9.3 Z-0.4
G1 X26.7 Y9.32 Z-0.4
G1 X26.68 Y9.32 Z-0.4
G1 X26.68 Y9.34 Z-0.4
G1 X26.66 Y9.34 Z-0.4
G1 X26.64 Y9.34 Z-0.4
G1 X26.64 Y9.36 Z-0.4
G1 X26.62 Y9.36 Z-0.4
G1 X26.6 Y9.36 Z-0.4
G1 X26.6 Y9.38 Z-0.4
G1 X26.58 Y9.38 Z-0.4
G1 X26.58 Y9.4 Z-0.4
G1 X26.56 Y9.4 Z-0.4
G1 X26.56 Y9.42 Z-0.4
G1 X26.54 Y9.42 Z-0.4
G1 X26.54 Y9.44 Z-0.4
G1 X26.52 Y9.44 Z-0.4
G1 X26.52 Y9.46 Z-0.4
G1 X26.52 Y9.48 Z-0.4
G1 X26.5 Y9.48 Z-0.4
G1 X26.5 Y9.5 Z-0.4
G1 X26.5 Y9.52 Z-0.4
G1 X26.48 Y9.52 Z-0.4
G1 X26.48 Y9.54 Z-0.4
G1 X26.46 Y9.54 Z-0.4
G1 X26.46 Y9.56 Z-0.4
G1 X26.46 Y9.58 Z-0.4
G1 X26.44 Y9.58 Z-0.4
G1 X26.44 Y9.6 Z-0.4
G1 X26.44 Y9.62 Z-0.4
G1 X26.42 Y9.62 Z-0.4
G1 X26.42 Y9.64 Z-0.4
G1 X26.4 Y9.64 Z-0.4
G1 X26.4 Y9.66 Z-0.4
G1 X26.4 Y9.68 Z-0.4
G1 X26.38 Y9.68 Z-0.4
G1 X26.38 Y9.7 Z-0.4
G1 X26.36 Y9.7 Z-0.4
G1 X26.36 Y9.72 Z-0.4
G1 X26.34 Y9.72 Z-0.4
G1 X26.34 Y9.74 Z-0.4
G1 X26.34 Y9.76 Z-0.4
G1 X26.34 Y9.78 Z-0.4
G1 X26.32 Y9.78 Z-0.4
G1 X26.32 Y9.8 Z-0.4
G1 X26.32 Y9.82 Z-0.4
G1 X26.32 Y9.84 Z-0.4
G1 X26.32 Y9.86 Z-0.4
G1 X26.32 Y9.86 Z5
M5
G0 X26.32 Y16.24 Z5
M3 P100
G1 X26.32 Y16.24 Z-0.4
G1 X26.3 Y16.24 Z-0.4
G1 X26.3 Y16.26 Z-0.4
G1 X26.3 Y16.28 Z-0.4
G1 X26.3 Y16.3 Z-0.4
G1 X26.3 Y16.32 Z-0.4
G1 X26.3 Y16.34 Z-0.4
G1 X26.3 Y16.36 Z-0.4
G1 X26.3 Y16.38 Z-0.4
G1 X26.3 Y16.4 Z-0.4
G1 X26.3 Y16.42 Z-0.4
G1 X26.3 Y16.44 Z-0.4
G1 X26.3 Y16.46 Z-0.4
G1 X26.3 Y16.48 Z-0.4
G1 X26.3 Y16.5 Z-0.4
G1 X26.3 Y16.52 Z-0.4
G1 X26.3 Y16.54 Z-0.4
G1 X26.3 Y16.56 Z-0.4
G1 X26.3 Y16.58 Z-0.4
G1 X26.3 Y16.6 Z-0.4
G1 X26.3 Y16.62 Z-0.4
G1 X26.3 Y16.64 Z-0.4
G1 X26.3 Y16.66 Z-0.4
G1 X26.3 Y16.68 Z-0.4
G1 X26.3 Y16.7 Z-0.4
G1 X26.3 Y16.72 Z-0.4
G1 X26.3 Y16.74 Z-0.4
G1 X26.3 Y16.76 Z-0.4
G1 X26.32 Y16.76 Z-0.4
G1 X26.32 Y16.78 Z-0.4
G1 X26.32 Y16.8 Z-0.4
G1 X26.32 Y16.82 Z-0.4
G1 X26.32 Y16.84 Z-0.4
G1 X26.34 Y16.84 Z-0.4
G1 X26.34 Y16.86 Z-0.4
G1 X26.34 Y16.88 Z-0.4
G1 X26.34 Y16.9 Z-0.4
G1 X26.36 Y16.9 Z-0.4
G1 X26.36 Y16.92 Z-0.4
G1 X26.38 Y16.92 Z-0.4
G1 X26.38 Y16.94 Z-0.4
G1 X26.38 Y16.96 Z-0.4
G1 X26.4 Y16.96 Z-0.4
G1 X26.4 Y16.98 Z-0.4
G1 X26.4 Y17.0 Z-0.4
G1 X26.42 Y17.0 Z-0.4
G1 X26.42 Y17.02 Z-0.4
G1 X26.44 Y17.02 Z-0.4
G1 X26.44 Y17.04 Z-0.4
G1 X26.44 Y17.06 Z-0.4
G1 X26.46 Y17.06 Z-0.4
G1 X26.46 Y17.08 Z-0.4
G1 X26.46 Y17.1 Z-0.4
G1 X26.48 Y17.1 Z-0.4
G1 X26.48 Y17.12 Z-0.4
G1 X26.5 Y17.12 Z-0.4
G1 X26.5 Y17.14 Z-0.4
G1 X26.5 Y17.16 Z-0.4
G1 X26.52 Y17.16 Z-0.4
G1 X26.52 Y17.18 Z-0.4
G1 X26.52 Y17.2 Z-0.4
G1 X26.54 Y17.2 Z-0.4
G1 X26.54 Y17.22 Z-0.4
G1 X26.56 Y17.22 Z-0.4
G1 X26.56 Y17.24 Z-0.4
G1 X26.58 Y17.24 Z-0.4
G1 X26.58 Y17.26 Z-0.4
G1 X26.6 Y17.26 Z-0.4
G1 X26.6 Y17.28 Z-0.4
G1 X26.62 Y17.28 Z-0.4
G1 X26.64 Y17.28 Z-0.4
G1 X26.64 Y17.3 Z-0.4
G1 X26.66 Y17.3 Z-0.4
G1 X26.68 Y17.3 Z-0.4
G1 X26.68 Y17.32 Z-0.4
G1 X26.7 Y17.32 Z-0.4
G1 X26.72 Y17.32 Z-0.4
G1 X26.72 Y17.34 Z-0.4
G1 X26.74 Y17.34 Z-0.4
G1 X26.76 Y17.34 Z-0.4
G1 X26.76 Y17.36 Z-0.4
G1 X26.78 Y17.36 Z-0.4
G1 X26.8 Y17.36 Z-0.4
G1 X26.8 Y17.38 Z-0.4
G1 X26.82 Y17.38 Z-0.4
G1 X26.82 Y17.4 Z-0.4
G1 X26.84 Y17.4 Z-0.4
G1 X26.86 Y17.4 Z-0.4
G1 X26.86 Y17.42 Z-0.4
G1 X26.88 Y17.42 Z-0.4
G1 X26.9 Y17.42 Z-0.4
G1 X26.9 Y17.44 Z-0.4
G1 X26.92 Y17.44 Z-0.4
G1 X26.94 Y17.44 Z-0.4
G1 X26.96 Y17.44 Z-0.4
G1 X26.98 Y17.44 Z-0.4
G1 X27.0 Y17.44 Z-0.4
G1 X27.02 Y17.44 Z-0.4
G1 X27.02 Y17.46 Z-0.4
G1 X27.04 Y17.46 Z-0.4
G1 X27.06 Y17.46 Z-0.4
G1 X27.08 Y17.46 Z-0.4
G1 X27.1 Y17.46 Z-0.4
G1 X27.12 Y17.46 Z-0.4
G1 X27.12 Y17.48 Z-0.4
G1 X27.14 Y17.48 Z-0.4
G1 X27.16 Y17.48 Z-0.4
G1 X27.18 Y17.48 Z-0.4
G1 X27.2 Y17.48 Z-0.4
G1 X27.22 Y17.48 Z-0.4
G1 X27.24 Y17.48 Z-0.4
G1 X27.26 Y17.48 Z-0.4
G1 X27.28 Y17.48 Z-0.4
G1 X27.3 Y17.48 Z-0.4
G1 X27.32 Y17.48 Z-0.4
G1 X27.34 Y17.48 Z-0.4
G1 X27.36 Y17.48 Z-0.4
G1 X27.38 Y17.48 Z-0.4
G1 X27.4 Y17.48 Z-0.4
G1 X27.42 Y17.48 Z-0.4
G1 X27.44 Y17.48 Z-0.4
G1 X27.46 Y17.48 Z-0.4
G1 X27.46 Y17.46 Z-0.4
G1 X27.48 Y17.46 Z-0.4
G1 X27.5 Y17.46 Z-0.4
G1 X27.52 Y17.46 Z-0.4
G1 X27.54 Y17.46 Z-0.4
G1 X27.56 Y17.46 Z-0.4
G1 X27.56 Y17.44 Z-0.4
G1 X27.58 Y17.44 Z-0.4
G1 X27.6 Y17.44 Z-0.4
G1 X27.62 Y17.44 Z-0.4
G1 X27.64 Y17.44 Z-0.4
G1 X27.66 Y17.44 Z-0.4
G1 X27.68 Y17.44 Z-0.4
G1 X27.68 Y17.42 Z-0.4
G1 X27.7 Y17.42 Z-0.4
G1 X27.72 Y17.42 Z-0.4
G1 X27.72 Y17.4 Z-0.4
G1 X27.74 Y17.4 Z-0.4
G1 X27.76 Y17.4 Z-0.4
G1 X27.78 Y17.4 Z-0.4
G1 X27.78 Y17.38 Z-0.4
G1 X27.8 Y17.38 Z-0.4
G1 X27.8 Y17.36 Z-0.4
G1 X27.82 Y17.36 Z-0.4
G1 X27.82 Y17.34 Z-0.4
G1 X27.84 Y17.34 Z-0.4
G1 X27.86 Y17.34 Z-0.4
G1 X27.86 Y17.32 Z-0.4
G1 X27.88 Y17.32 Z-0.4
G1 X27.9 Y17.32 Z-0.4
G1 X27.9 Y17.3 Z-0.4
G1 X27.92 Y17.3 Z-0.4
G1 X27.94 Y17.3 Z-0.4
G1 X27.94 Y17.28 Z-0.4
G1 X27.96 Y17.28 Z-0.4
G1 X27.98 Y17.28 Z-0.4
G1 X27.98 Y17.26 Z-0.4
G1 X28.0 Y17.26 Z-0.4
G1 X28.0 Y17.24 Z-0.4
G1 X28.02 Y17.24 Z-0.4
G1 X28.02 Y17.22 Z-0.4
G1 X28.04 Y17.22 Z-0.4
G1 X28.04 Y17.2 Z-0.4
G1 X28.06 Y17.2 Z-0.4
G1 X28.06 Y17.18 Z-0.4
G1 X28.06 Y17.16 Z-0.4
G1 X28.08 Y17.16 Z-0.4
G1 X28.08 Y17.14 Z-0.4
G1 X28.08 Y17.12 Z-0.4
G1 X28.1 Y17.12 Z-0.4
G1 X28.1 Y17.1 Z-0.4
G1 X28.12 Y17.1 Z-0.4
G1 X28.12 Y17.08 Z-0.4
G1 X28.14 Y17.08 Z-0.4
G1 X28.14 Y17.06 Z-0.4
G1 X28.14 Y17.04 Z-0.4
G1 X28.16 Y17.04 Z-0.4
G1 X28.16 Y17.02 Z-0.4
G1 X28.18 Y17.02 Z-0.4
G1 X28.18 Y17.0 Z-0.4
G1 X28.2 Y17.0 Z-0.4
G1 X28.2 Y16.98 Z-0.4
G1 X28.2 Y16.96 Z-0.4
G1 X28.22 Y16.96 Z-0.4
G1 X28.22 Y16.94 Z-0.4
G1 X28.22 Y16.92 Z-0.4
G1 X28.24 Y16.92 Z-0.4
G1 X28.24 Y16.9 Z-0.4
G1 X28.24 Y16.88 Z-0.4
G1 X28.24 Y16.86 Z-0.4
G1 X28.24 Y16.84 Z-0.4
G1 X28.26 Y16.84 Z-0.4
G1 X28.26 Y16.82 Z-0.4
G1 X28.26 Y16.8 Z-0.4
G1 X28.26 Y16.78 Z-0.4
G1 X28.26 Y16.76 Z-0.4
G1 X28.28 Y16.76 Z-0.4
G1 X28.28 Y16.74 Z-0.4
G1 X28.28 Y16.72 Z-0.4
G1 X28.28 Y16.7 Z-0.4
G1 X28.28 Y16.68 Z-0.4
G1 X28.28 Y16.66 Z-0.4
G1 X28.3 Y16.66 Z-0.4
G1 X28.3 Y16.64 Z-0.4
G1 X28.3 Y16.62 Z-0.4
G1 X28.3 Y16.6 Z-0.4
G1 X28.3 Y16.58 Z-0.4
G1 X28.3 Y16.56 Z-0.4
G1 X28.3 Y16.54 Z-0.4
G1 X28.3 Y16.52 Z-0.4
G1 X28.3 Y16.5 Z-0.4
G1 X28.3 Y16.48 Z-0.4
G1 X28.3 Y16.46 Z-0.4
G1 X28.3 Y16.44 Z-0.4
G1 X28.3 Y16.42 Z-0.4
G1 X28.28 Y16.42 Z-0.4
G1 X28.28 Y16.4 Z-0.4
G1 X28.28 Y16.38 Z-0.4
G1 X28.28 Y16.36 Z-0.4
G1 X28.28 Y16.34 Z-0.4
G1 X28.28 Y16.32 Z-0.4
G1 X28.28 Y16.3 Z-0.4
G1 X28.28 Y16.28 Z-0.4
G1 X28.28 Y16.26 Z-0.4
G1 X28.28 Y16.24 Z-0.4
G1 X28.26 Y16.24 Z-0.4
G1 X28.26 Y16.22 Z-0.4
G1 X28.26 Y16.2 Z-0.4
G1 X28.26 Y16.18 Z-0.4
G1 X28.26 Y16.16 Z-0.4
G1 X28.26 Y16.14 Z-0.4
G1 X28.24 Y16.14 Z-0.4
G1 X28.24 Y16.12 Z-0.4
G1 X28.24 Y16.1 Z-0.4
G1 X28.24 Y16.08 Z-0.4
G1 X28.24 Y16.06 Z-0.4
G1 X28.22 Y16.06 Z-0.4
G1 X28.22 Y16.04 Z-0.4
G1 X28.22 Y16.02 Z-0.4
G1 X28.2 Y16.02 Z-0.4
G1 X28.2 Y16.0 Z-0.4
G1 X28.2 Y15.98 Z-0.4
G1 X28.18 Y15.98 Z-0.4
G1 X28.18 Y15.96 Z-0.4
G1 X28.16 Y15.96 Z-0.4
G1 X28.16 Y15.94 Z-0.4
G1 X28.14 Y15.94 Z-0.4
G1 X28.14 Y15.92 Z-0.4
G1 X28.14 Y15.9 Z-0.4
G1 X28.12 Y15.9 Z-0.4
G1 X28.12 Y15.88 Z-0.4
G1 X28.1 Y15.88 Z-0.4
G1 X28.1 Y15.86 Z-0.4
G1 X28.08 Y15.86 Z-0.4
G1 X28.08 Y15.84 Z-0.4
G1 X28.08 Y15.82 Z-0.4
G1 X28.06 Y15.82 Z-0.4
G1 X28.06 Y15.8 Z-0.4
G1 X28.04 Y15.8 Z-0.4
G1 X28.04 Y15.78 Z-0.4
G1 X28.02 Y15.78 Z-0.4
G1 X28.02 Y15.76 Z-0.4
G1 X28.0 Y15.76 Z-0.4
G1 X27.98 Y15.76 Z-0.4
G1 X27.98 Y15.74 Z-0.4
G1 X27.96 Y15.74 Z-0.4
G1 X27.96 Y15.72 Z-0.4
G1 X27.94 Y15.72 Z-0.4
G1 X27.94 Y15.7 Z-0.4
G1 X27.92 Y15.7 Z-0.4
G1 X27.9 Y15.7 Z-0.4
G1 X27.9 Y15.68 Z-0.4
G1 X27.88 Y15.68 Z-0.4
G1 X27.88 Y15.66 Z-0.4
G1 X27.86 Y15.66 Z-0.4
G1 X27.86 Y15.64 Z-0.4
G1 X27.84 Y15.64 Z-0.4
G1 X27.82 Y15.64 Z-0.4
G1 X27.82 Y15.62 Z-0.4
G1 X27.8 Y15.62 Z-0.4
G1 X27.78 Y15.62 Z-0.4
G1 X27.78 Y15.6 Z-0.4
G1 X27.76 Y15.6 Z-0.4
G1 X27.74 Y15.6 Z-0.4
G1 X27.72 Y15.6 Z-0.4
G1 X27.72 Y15.58 Z-0.4
G1 X27.7 Y15.58 Z-0.4
G1 X27.68 Y15.58 Z-0.4
G1 X27.68 Y15.56 Z-0.4
G1 X27.66 Y15.56 Z-0.4
G1 X27.64 Y15.56 Z-0.4
G1 X27.62 Y15.56 Z-0.4
G1 X27.62 Y15.54 Z-0.4
G1 X27.6 Y15.54 Z-0.4
G1 X27.58 Y15.54 Z-0.4
G1 X27.58 Y15.52 Z-0.4
G1 X27.56 Y15.52 Z-0.4
G1 X27.54 Y15.52 Z-0.4
G1 X27.52 Y15.52 Z-0.4
G1 X27.5 Y15.52 Z-0.4
G1 X27.48 Y15.52 Z-0.4
G1 X27.46 Y15.52 Z-0.4
G1 X27.44 Y15.52 Z-0.4
G1 X27.42 Y15.52 Z-0.4
G1 X27.4 Y15.52 Z-0.4
G1 X27.38 Y15.52 Z-0.4
G1 X27.36 Y15.52 Z-0.4
G1 X27.34 Y15.52 Z-0.4
G1 X27.32 Y15.52 Z-0.4
G1 X27.3 Y15.52 Z-0.4
G1 X27.28 Y15.52 Z-0.4
G1 X27.26 Y15.52 Z-0.4
G1 X27.24 Y15.52 Z-0.4
G1 X27.22 Y15.52 Z-0.4
G1 X27.2 Y15.52 Z-0.4
G1 X27.18 Y15.52 Z-0.4
G1 X27.16 Y15.52 Z-0.4
G1 X27.14 Y15.52 Z-0.4
G1 X27.12 Y15.52 Z-0.4
G1 X27.1 Y15.52 Z-0.4
G1 X27.08 Y15.52 Z-0.4
G1 X27.06 Y15.52 Z-0.4
G1 X27.04 Y15.52 Z-0.4
G1 X27.02 Y15.52 Z-0.4
G1 X27.0 Y15.52 Z-0.4
G1 X27.0 Y15.54 Z-0.4
G1 X26.98 Y15.54 Z-0.4
G1 X26.96 Y15.54 Z-0.4
G1 X26.96 Y15.56 Z-0.4
G1 X26.94 Y15.56 Z-0.4
G1 X26.92 Y15.56 Z-0.4
G1 X26.9 Y15.56 Z-0.4
G1 X26.9 Y15.58 Z-0.4
G1 X26.88 Y15.58 Z-0.4
G1 X26.86 Y15.58 Z-0.4
G1 X26.86 Y15.6 Z-0.4
G1 X26.84 Y15.6 Z-0.4
G1 X26.82 Y15.6 Z-0.4
G1 X26.82 Y15.62 Z-0.4
G1 X26.8 Y15.62 Z-0.4
G1 X26.78 Y15.62 Z-0.4
G1 X26.78 Y15.64 Z-0.4
G1 X26.76 Y15.64 Z-0.4
G1 X26.74 Y15.64 Z-0.4
G1 X26.72 Y15.64 Z-0.4
G1 X26.72 Y15.66 Z-0.4
G1 X26.7 Y15.66 Z-0.4
G1 X26.7 Y15.68 Z-0.4
G1 X26.68 Y15.68 Z-0.4
G1 X26.68 Y15.7 Z-0.4
G1 X26.66 Y15.7 Z-0.4
G1 X26.64 Y15.7 Z-0.4
G1 X26.64 Y15.72 Z-0.4
G1 X26.62 Y15.72 Z-0.4
G1 X26.62 Y15.74 Z-0.4
G1 X26.6 Y15.74 Z-0.4
G1 X26.6 Y15.76 Z-0.4
G1 X26.58 Y15.76 Z-0.4
G1 X26.56 Y15.76 Z-0.4
G1 X26.56 Y15.78 Z-0.4
G1 X26.54 Y15.78 Z-0.4
G1 X26.54 Y15.8 Z-0.4
G1 X26.52 Y15.8 Z-0.4
G1 X26.52 Y15.82 Z-0.4
G1 X26.5 Y15.82 Z-0.4
G1 X26.5 Y15.84 Z-0.4
G1 X26.5 Y15.86 Z-0.4
G1 X26.48 Y15.86 Z-0.4
G1 X26.48 Y15.88 Z-0.4
G1 X26.46 Y15.88 Z-0.4
G1 X26.46 Y15.9 Z-0.4
G1 X26.46 Y15.92 Z-0.4
G1 X26.44 Y15.92 Z-0.4
G1 X26.44 Y15.94 Z-0.4
G1 X26.44 Y15.96 Z-0.4
G1 X26.42 Y15.96 Z-0.4
G1 X26.42 Y15.98 Z-0.4
G1 X26.4 Y15.98 Z-0.4
G1 X26.4 Y16.0 Z-0.4
G1 X26.4 Y16.02 Z-0.4
G1 X26.38 Y16.02 Z-0.4
G1 X26.38 Y16.04 Z-0.4
G1 X26.38 Y16.06 Z-0.4
G1 X26.36 Y16.06 Z-0.4
G1 X26.36 Y16.08 Z-0.4
G1 X26.34 Y16.08 Z-0.4
G1 X26.34 Y16.1 Z-0.4
G1 X26.34 Y16.12 Z-0.4
G1 X26.34 Y16.14 Z-0.4
G1 X26.32 Y16.14 Z-0.4
G1 X26.32 Y16.16 Z-0.4
G1 X26.32 Y16.18 Z-0.4
G1 X26.32 Y16.2 Z-0.4
G1 X26.32 Y16.22 Z-0.4
G1 X26.32 Y16.22 Z5
M5
G0 X26.32 Y22.84 Z5
M3 P100
G1 X26.32 Y22.84 Z-0.4
G1 X26.3 Y22.84 Z-0.4
G1 X26.3 Y22.86 Z-0.4
G1 X26.3 Y22.88 Z-0.4
G1 X26.3 Y22.9 Z-0.4
G1 X26.3 Y22.92 Z-0.4
G1 X26.3 Y22.94 Z-0.4
G1 X26.3 Y22.96 Z-0.4
G1 X26.3 Y22.98 Z-0.4
G1 X26.3 Y23.0 Z-0.4
G1 X26.3 Y23.02 Z-0.4
G1 X26.3 Y23.04 Z-0.4
G1 X26.3 Y23.06 Z-0.4
G1 X26.3 Y23.08 Z-0.4
G1 X26.3 Y23.1 Z-0.4
G1 X26.3 Y23.12 Z-0.4
G1 X26.3 Y23.14 Z-0.4
G1 X26.3 Y23.16 Z-0.4
G1 X26.3 Y23.18 Z-0.4
G1 X26.3 Y23.2 Z-0.4
G1 X26.3 Y23.22 Z-0.4
G1 X26.3 Y23.24 Z-0.4
G1 X26.3 Y23.26 Z-0.4
G1 X26.3 Y23.28 Z-0.4
G1 X26.3 Y23.3 Z-0.4
G1 X26.3 Y23.32 Z-0.4
G1 X26.3 Y23.34 Z-0.4
G1 X26.3 Y23.36 Z-0.4
G1 X26.32 Y23.36 Z-0.4
G1 X26.32 Y23.38 Z-0.4
G1 X26.32 Y23.4 Z-0.4
G1 X26.32 Y23.42 Z-0.4
G1 X26.32 Y23.44 Z-0.4
G1 X26.32 Y23.46 Z-0.4
G1 X26.34 Y23.46 Z-0.4
G1 X26.34 Y23.48 Z-0.4
G1 X26.34 Y23.5 Z-0.4
G1 X26.34 Y23.52 Z-0.4
G1 X26.36 Y23.52 Z-0.4
G1 X26.36 Y23.54 Z-0.4
G1 X26.38 Y23.54 Z-0.4
G1 X26.38 Y23.56 Z-0.4
G1 X26.4 Y23.56 Z-0.4
G1 X26.4 Y23.58 Z-0.4
G1 X26.4 Y23.6 Z-0.4
G1 X26.42 Y23.6 Z-0.4
G1 X26.42 Y23.62 Z-0.4
G1 X26.44 Y23.62 Z-0.4
G1 X26.44 Y23.64 Z-0.4
G1 X26.44 Y23.66 Z-0.4
G1 X26.46 Y23.66 Z-0.4
G1 X26.46 Y23.68 Z-0.4
G1 X26.46 Y23.7 Z-0.4
G1 X26.48 Y23.7 Z-0.4
G1 X26.48 Y23.72 Z-0.4
G1 X26.5 Y23.72 Z-0.4
G1 X26.5 Y23.74 Z-0.4
G1 X26.5 Y23.76 Z-0.4
G1 X26.52 Y23.76 Z-0.4
G1 X26.52 Y23.78 Z-0.4
G1 X26.52 Y23.8 Z-0.4
G1 X26.54 Y23.8 Z-0.4
G1 X26.54 Y23.82 Z-0.4
G1 X26.56 Y23.82 Z-0.4
G1 X26.56 Y23.84 Z-0.4
G1 X26.58 Y23.84 Z-0.4
G1 X26.58 Y23.86 Z-0.4
G1 X26.6 Y23.86 Z-0.4
G1 X26.6 Y23.88 Z-0.4
G1 X26.62 Y23.88 Z-0.4
G1 X26.64 Y23.88 Z-0.4
G1 X26.64 Y23.9 Z-0.4
G1 X26.66 Y23.9 Z-0.4
G1 X26.68 Y23.9 Z-0.4
G1 X26.68 Y23.92 Z-0.4
G1 X26.7 Y23.92 Z-0.4
G1 X26.7 Y23.94 Z-0.4
G1 X26.72 Y23.94 Z-0.4
G1 X26.72 Y23.96 Z-0.4
G1 X26.74 Y23.96 Z-0.4
G1 X26.76 Y23.96 Z-0.4
G1 X26.78 Y23.96 Z-0.4
G1 X26.78 Y23.98 Z-0.4
G1 X26.8 Y23.98 Z-0.4
G1 X26.82 Y23.98 Z-0.4
G1 X26.82 Y24.0 Z-0.4
G1 X26.84 Y24.0 Z-0.4
G1 X26.86 Y24.0 Z-0.4
G1 X26.86 Y24.02 Z-0.4
G1 X26.88 Y24.02 Z-0.4
G1 X26.9 Y24.02 Z-0.4
G1 X26.9 Y24.04 Z-0.4
G1 X26.92 Y24.04 Z-0.4
G1 X26.94 Y24.04 Z-0.4
G1 X26.96 Y24.04 Z-0.4
G1 X26.98 Y24.04 Z-0.4
G1 X27.0 Y24.04 Z-0.4
G1 X27.02 Y24.04 Z-0.4
G1 X27.02 Y24.06 Z-0.4
G1 X27.04 Y24.06 Z-0.4
G1 X27.06 Y24.06 Z-0.4
G1 X27.08 Y24.06 Z-0.4
G1 X27.1 Y24.06 Z-0.4
G1 X27.12 Y24.06 Z-0.4
G1 X27.12 Y24.08 Z-0.4
G1 X27.14 Y24.08 Z-0.4
G1 X27.16 Y24.08 Z-0.4
G1 X27.18 Y24.08 Z-0.4
G1 X27.2 Y24.08 Z-0.4
G1 X27.22 Y24.08 Z-0.4
G1 X27.24 Y24.08 Z-0.4
G1 X27.26 Y24.08 Z-0.4
G1 X27.28 Y24.08 Z-0.4
G1 X27.3 Y24.08 Z-0.4
G1 X27.32 Y24.08 Z-0.4
G1 X27.34 Y24.08 Z-0.4
G1 X27.36 Y24.08 Z-0.4
G1 X27.38 Y24.08 Z-0.4
G1 X27.4 Y24.08 Z-0.4
G1 X27.42 Y24.08 Z-0.4
G1 X27.44 Y24.08 Z-0.4
G1 X27.46 Y24.08 Z-0.4
G1 X27.46 Y24.06 Z-0.4
G1 X27.48 Y24.06 Z-0.4
G1 X27.5 Y24.06 Z-0.4
G1 X27.52 Y24.06 Z-0.4
G1 X27.54 Y24.06 Z-0.4
G1 X27.56 Y24.06 Z-0.4
G1 X27.56 Y24.04 Z-0.4
G1 X27.58 Y24.04 Z-0.4
G1 X27.6 Y24.04 Z-0.4
G1 X27.62 Y24.04 Z-0.4
G1 X27.64 Y24.04 Z-0.4
G1 X27.66 Y24.04 Z-0.4
G1 X27.68 Y24.04 Z-0.4
G1 X27.68 Y24.02 Z-0.4
G1 X27.7 Y24.02 Z-0.4
G1 X27.72 Y24.02 Z-0.4
G1 X27.72 Y24.0 Z-0.4
G1 X27.74 Y24.0 Z-0.4
G1 X27.76 Y24.0 Z-0.4
G1 X27.78 Y24.0 Z-0.4
G1 X27.78 Y23.98 Z-0.4
G1 X27.8 Y23.98 Z-0.4
G1 X27.82 Y23.98 Z-0.4
G1 X27.82 Y23.96 Z-0.4
G1 X27.84 Y23.96 Z-0.4
G1 X27.86 Y23.96 Z-0.4
G1 X27.86 Y23.94 Z-0.4
G1 X27.88 Y23.94 Z-0.4
G1 X27.88 Y23.92 Z-0.4
G1 X27.9 Y23.92 Z-0.4
G1 X27.9 Y23.9 Z-0.4
G1 X27.92 Y23.9 Z-0.4
G1 X27.94 Y23.9 Z-0.4
G1 X27.94 Y23.88 Z-0.4
G1 X27.96 Y23.88 Z-0.4
G1 X27.98 Y23.88 Z-0.4
G1 X27.98 Y23.86 Z-0.4
G1 X28.0 Y23.86 Z-0.4
G1 X28.0 Y23.84 Z-0.4
G1 X28.02 Y23.84 Z-0.4
G1 X28.02 Y23.82 Z-0.4
G1 X28.04 Y23.82 Z-0.4
G1 X28.04 Y23.8 Z-0.4
G1 X28.06 Y23.8 Z-0.4
G1 X28.06 Y23.78 Z-0.4
G1 X28.06 Y23.76 Z-0.4
G1 X28.08 Y23.76 Z-0.4
G1 X28.08 Y23.74 Z-0.4
G1 X28.08 Y23.72 Z-0.4
G1 X28.1 Y23.72 Z-0.4
G1 X28.1 Y23.7 Z-0.4
G1 X28.12 Y23.7 Z-0.4
G1 X28.12 Y23.68 Z-0.4
G1 X28.14 Y23.68 Z-0.4
G1 X28.14 Y23.66 Z-0.4
G1 X28.14 Y23.64 Z-0.4
G1 X28.16 Y23.64 Z-0.4
G1 X28.16 Y23.62 Z-0.4
G1 X28.18 Y23.62 Z-0.4
G1 X28.18 Y23.6 Z-0.4
G1 X28.18 Y23.58 Z-0.4
G1 X28.2 Y23.58 Z-0.4
G1 X28.2 Y23.56 Z-0.4
G1 X28.2 Y23.54 Z-0.4
G1 X28.22 Y23.54 Z-0.4
G1 X28.22 Y23.52 Z-0.4
G1 X28.24 Y23.52 Z-0.4
G1 X28.24 Y23.5 Z-0.4
G1 X28.24 Y23.48 Z-0.4
G1 X28.24 Y23.46 Z-0.4
G1 X28.26 Y23.46 Z-0.4
G1 X28.26 Y23.44 Z-0.4
G1 X28.26 Y23.42 Z-0.4
G1 X28.26 Y23.4 Z-0.4
G1 X28.26 Y23.38 Z-0.4
G1 X28.26 Y23.36 Z-0.4
G1 X28.28 Y23.36 Z-0.4
G1 X28.28 Y23.34 Z-0.4
G1 X28.28 Y23.32 Z-0.4
G1 X28.28 Y23.3 Z-0.4
G1 X28.28 Y23.28 Z-0.4
G1 X28.28 Y23.26 Z-0.4
G1 X28.3 Y23.26 Z-0.4
G1 X28.3 Y23.24 Z-0.4
G1 X28.3 Y23.22 Z-0.4
G1 X28.3 Y23.2 Z-0.4
G1 X28.3 Y23.18 Z-0.4
G1 X28.3 Y23.16 Z-0.4
G1 X28.3 Y23.14 Z-0.4
G1 X28.3 Y23.12 Z-0.4
G1 X28.3 Y23.1 Z-0.4
G1 X28.3 Y23.08 Z-0.4
G1 X28.3 Y23.06 Z-0.4
G1 X28.3 Y23.04 Z-0.4
G1 X28.3 Y23.02 Z-0.4
G1 X28.28 Y23.02 Z-0.4
G1 X28.28 Y23.0 Z-0.4
G1 X28.28 Y22.98 Z-0.4
G1 X28.28 Y22.96 Z-0.4
G1 X28.28 Y22.94 Z-0.4
G1 X28.28 Y22.92 Z-0.4
G1 X28.28 Y22.9 Z-0.4
G1 X28.28 Y22.88 Z-0.4
G1 X28.28 Y22.86 Z-0.4
G1 X28.28 Y22.84 Z-0.4
G1 X28.26 Y22.84 Z-0.4
G1 X28.26 Y22.82 Z-0.4
G1 X28.26 Y22.8 Z-0.4
G1 X28.26 Y22.78 Z-0.4
G1 X28.26 Y22.76 Z-0.4
G1 X28.26 Y22.74 Z-0.4
G1 X28.24 Y22.74 Z-0.4
G1 X28.24 Y22.72 Z-0.4
G1 X28.24 Y22.7 Z-0.4
G1 X28.24 Y22.68 Z-0.4
G1 X28.22 Y22.68 Z-0.4
G1 X28.22 Y22.66 Z-0.4
G1 X28.2 Y22.66 Z-0.4
G1 X28.2 Y22.64 Z-0.4
G1 X28.2 Y22.62 Z-0.4
G1 X28.18 Y22.62 Z-0.4
G1 X28.18 Y22.6 Z-0.4
G1 X28.18 Y22.58 Z-0.4
G1 X28.16 Y22.58 Z-0.4
G1 X28.16 Y22.56 Z-0.4
G1 X28.16 Y22.54 Z-0.4
G1 X28.14 Y22.54 Z-0.4
G1 X28.14 Y22.52 Z-0.4
G1 X28.14 Y22.5 Z-0.4
G1 X28.12 Y22.5 Z-0.4
G1 X28.12 Y22.48 Z-0.4
G1 X28.12 Y22.46 Z-0.4
G1 X28.1 Y22.46 Z-0.4
G1 X28.1 Y22.44 Z-0.4
G1 X28.08 Y22.44 Z-0.4
G1 X28.08 Y22.42 Z-0.4
G1 X28.06 Y22.42 Z-0.4
G1 X28.06 Y22.4 Z-0.4
G1 X28.04 Y22.4 Z-0.4
G1 X28.04 Y22.38 Z-0.4
G1 X28.02 Y22.38 Z-0.4
G1 X28.02 Y22.36 Z-0.4
G1 X28.0 Y22.36 Z-0.4
G1 X28.0 Y22.34 Z-0.4
G1 X27.98 Y22.34 Z-0.4
G1 X27.98 Y22.32 Z-0.4
G1 X27.96 Y22.32 Z-0.4
G1 X27.94 Y22.32 Z-0.4
G1 X27.94 Y22.3 Z-0.4
G1 X27.92 Y22.3 Z-0.4
G1 X27.9 Y22.3 Z-0.4
G1 X27.9 Y22.28 Z-0.4
G1 X27.88 Y22.28 Z-0.4
G1 X27.88 Y22.26 Z-0.4
G1 X27.86 Y22.26 Z-0.4
G1 X27.86 Y22.24 Z-0.4
G1 X27.84 Y22.24 Z-0.4
G1 X27.82 Y22.24 Z-0.4
G1 X27.82 Y22.22 Z-0.4
G1 X27.8 Y22.22 Z-0.4
G1 X27.78 Y22.22 Z-0.4
G1 X27.78 Y22.2 Z-0.4
G1 X27.76 Y22.2 Z-0.4
G1 X27.74 Y22.2 Z-0.4
G1 X27.72 Y22.2 Z-0.4
G1 X27.72 Y22.18 Z-0.4
G1 X27.7 Y22.18 Z-0.4
G1 X27.68 Y22.18 Z-0.4
G1 X27.68 Y22.16 Z-0.4
G1 X27.66 Y22.16 Z-0.4
G1 X27.64 Y22.16 Z-0.4
G1 X27.62 Y22.16 Z-0.4
G1 X27.6 Y22.16 Z-0.4
G1 X27.58 Y22.16 Z-0.4
G1 X27.56 Y22.16 Z-0.4
G1 X27.56 Y22.14 Z-0.4
G1 X27.54 Y22.14 Z-0.4
G1 X27.52 Y22.14 Z-0.4
G1 X27.5 Y22.14 Z-0.4
G1 X27.48 Y22.14 Z-0.4
G1 X27.46 Y22.14 Z-0.4
G1 X27.46 Y22.12 Z-0.4
G1 X27.44 Y22.12 Z-0.4
G1 X27.42 Y22.12 Z-0.4
G1 X27.4 Y22.12 Z-0.4
G1 X27.38 Y22.12 Z-0.4
G1 X27.36 Y22.12 Z-0.4
G1 X27.34 Y22.12 Z-0.4
G1 X27.32 Y22.12 Z-0.4
G1 X27.3 Y22.12 Z-0.4
G1 X27.28 Y22.12 Z-0.4
G1 X27.26 Y22.12 Z-0.4
G1 X27.24 Y22.12 Z-0.4
G1 X27.22 Y22.12 Z-0.4
G1 X27.2 Y22.12 Z-0.4
G1 X27.18 Y22.12 Z-0.4
G1 X27.16 Y22.12 Z-0.4
G1 X27.14 Y22.12 Z-0.4
G1 X27.12 Y22.12 Z-0.4
G1 X27.12 Y22.14 Z-0.4
G1 X27.1 Y22.14 Z-0.4
G1 X27.08 Y22.14 Z-0.4
G1 X27.06 Y22.14 Z-0.4
G1 X27.04 Y22.14 Z-0.4
G1 X27.02 Y22.14 Z-0.4
G1 X27.02 Y22.16 Z-0.4
G1 X27.0 Y22.16 Z-0.4
G1 X26.98 Y22.16 Z-0.4
G1 X26.96 Y22.16 Z-0.4
G1 X26.94 Y22.16 Z-0.4
G1 X26.92 Y22.16 Z-0.4
G1 X26.9 Y22.16 Z-0.4
G1 X26.9 Y22.18 Z-0.4
G1 X26.88 Y22.18 Z-0.4
G1 X26.86 Y22.18 Z-0.4
G1 X26.86 Y22.2 Z-0.4
G1 X26.84 Y22.2 Z-0.4
G1 X26.82 Y22.2 Z-0.4
G1 X26.82 Y22.22 Z-0.4
G1 X26.8 Y22.22 Z-0.4
G1 X26.78 Y22.22 Z-0.4
G1 X26.78 Y22.24 Z-0.4
G1 X26.76 Y22.24 Z-0.4
G1 X26.74 Y22.24 Z-0.4
G1 X26.72 Y22.24 Z-0.4
G1 X26.72 Y22.26 Z-0.4
G1 X26.7 Y22.26 Z-0.4
G1 X26.7 Y22.28 Z-0.4
G1 X26.68 Y22.28 Z-0.4
G1 X26.68 Y22.3 Z-0.4
G1 X26.66 Y22.3 Z-0.4
G1 X26.64 Y22.3 Z-0.4
G1 X26.64 Y22.32 Z-0.4
G1 X26.62 Y22.32 Z-0.4
G1 X26.6 Y22.32 Z-0.4
G1 X26.6 Y22.34 Z-0.4
G1 X26.58 Y22.34 Z-0.4
G1 X26.58 Y22.36 Z-0.4
G1 X26.56 Y22.36 Z-0.4
G1 X26.56 Y22.38 Z-0.4
G1 X26.54 Y22.38 Z-0.4
G1 X26.54 Y22.4 Z-0.4
G1 X26.52 Y22.4 Z-0.4
G1 X26.52 Y22.42 Z-0.4
G1 X26.5 Y22.42 Z-0.4
G1 X26.5 Y22.44 Z-0.4
G1 X26.48 Y22.44 Z-0.4
G1 X26.48 Y22.46 Z-0.4
G1 X26.46 Y22.46 Z-0.4
G1 X26.46 Y22.48 Z-0.4
G1 X26.46 Y22.5 Z-0.4
G1 X26.44 Y22.5 Z-0.4
G1 X26.44 Y22.52 Z-0.4
G1 X26.44 Y22.54 Z-0.4
G1 X26.42 Y22.54 Z-0.4
G1 X26.42 Y22.56 Z-0.4
G1 X26.42 Y22.58 Z-0.4
G1 X26.4 Y22.58 Z-0.4
G1 X26.4 Y22.6 Z-0.4
G1 X26.4 Y22.62 Z-0.4
G1 X26.4 Y22.64 Z-0.4
G1 X26.38 Y22.64 Z-0.4
G1 X26.38 Y22.66 Z-0.4
G1 X26.36 Y22.66 Z-0.4
G1 X26.36 Y22.68 Z-0.4
G1 X26.34 Y22.68 Z-0.4
G1 X26.34 Y22.7 Z-0.4
G1 X26.34 Y22.72 Z-0.4
G1 X26.34 Y22.74 Z-0.4
G1 X26.32 Y22.74 Z-0.4
G1 X26.32 Y22.76 Z-0.4
G1 X26.32 Y22.78 Z-0.4
G1 X26.32 Y22.8 Z-0.4
G1 X26.32 Y22.82 Z-0.4
G1 X26.32 Y22.82 Z5
M5
G0 X34.56 Y3.76 Z5
M3 P100
G1 X34.56 Y3.76 Z-0.4
G1 X34.54 Y3.76 Z-0.4
G1 X34.54 Y3.78 Z-0.4
G1 X34.54 Y3.8 Z-0.4
G1 X34.54 Y3.82 Z-0.4
G1 X34.54 Y3.84 Z-0.4
G1 X34.54 Y3.86 Z-0.4
G1 X34.54 Y3.88 Z-0.4
G1 X34.54 Y3.9 Z-0.4
G1 X34.54 Y3.92 Z-0.4
G1 X34.54 Y3.94 Z-0.4
G1 X34.54 Y3.96 Z-0.4
G1 X34.54 Y3.98 Z-0.4
G1 X34.54 Y4.0 Z-0.4
G1 X34.54 Y4.02 Z-0.4
G1 X34.54 Y4.04 Z-0.4
G1 X34.54 Y4.06 Z-0.4
G1 X34.54 Y4.08 Z-0.4
G1 X34.56 Y4.08 Z-0.4
G1 X34.56 Y4.1 Z-0.4
G1 X34.56 Y4.12 Z-0.4
G1 X34.56 Y4.14 Z-0.4
G1 X34.56 Y4.16 Z-0.4
G1 X34.56 Y4.18 Z-0.4
G1 X34.56 Y4.2 Z-0.4
G1 X34.56 Y4.22 Z-0.4
G1 X34.56 Y4.24 Z-0.4
G1 X34.56 Y4.26 Z-0.4
G1 X34.58 Y4.26 Z-0.4
G1 X34.58 Y4.28 Z-0.4
G1 X34.58 Y4.3 Z-0.4
G1 X34.6 Y4.3 Z-0.4
G1 X34.6 Y4.32 Z-0.4
G1 X34.6 Y4.34 Z-0.4
G1 X34.62 Y4.34 Z-0.4
G1 X34.62 Y4.36 Z-0.4
G1 X34.64 Y4.36 Z-0.4
G1 X34.64 Y4.38 Z-0.4
G1 X34.64 Y4.4 Z-0.4
G1 X34.66 Y4.4 Z-0.4
G1 X34.66 Y4.42 Z-0.4
G1 X34.66 Y4.44 Z-0.4
G1 X34.68 Y4.44 Z-0.4
G1 X34.68 Y4.46 Z-0.4
G1 X34.68 Y4.48 Z-0.4
G1 X34.7 Y4.48 Z-0.4
G1 X34.7 Y4.5 Z-0.4
G1 X34.7 Y4.52 Z-0.4
G1 X34.72 Y4.52 Z-0.4
G1 X34.72 Y4.54 Z-0.4
G1 X34.72 Y4.56 Z-0.4
G1 X34.74 Y4.56 Z-0.4
G1 X34.74 Y4.58 Z-0.4
G1 X34.76 Y4.58 Z-0.4
G1 X34.76 Y4.6 Z-0.4
G1 X34.78 Y4.6 Z-0.4
G1 X34.78 Y4.62 Z-0.4
G1 X34.8 Y4.62 Z-0.4
G1 X34.8 Y4.64 Z-0.4
G1 X34.82 Y4.64 Z-0.4
G1 X34.82 Y4.66 Z-0.4
G1 X34.84 Y4.66 Z-0.4
G1 X34.84 Y4.68 Z-0.4
G1 X34.86 Y4.68 Z-0.4
G1 X34.86 Y4.7 Z-0.4
G1 X34.88 Y4.7 Z-0.4
G1 X34.9 Y4.7 Z-0.4
G1 X34.9 Y4.72 Z-0.4
G1 X34.92 Y4.72 Z-0.4
G1 X34.94 Y4.72 Z-0.4
G1 X34.94 Y4.74 Z-0.4
G1 X34.96 Y4.74 Z-0.4
G1 X34.96 Y4.76 Z-0.4
G1 X34.98 Y4.76 Z-0.4
G1 X34.98 Y4.78 Z-0.4
G1 X35.0 Y4.78 Z-0.4
G1 X35.02 Y4.78 Z-0.4
G1 X35.02 Y4.8 Z-0.4
G1 X35.04 Y4.8 Z-0.4
G1 X35.06 Y4.8 Z-0.4
G1 X35.06 Y4.82 Z-0.4
G1 X35.08 Y4.82 Z-0.4
G1 X35.1 Y4.82 Z-0.4
G1 X35.12 Y4.82 Z-0.4
G1 X35.12 Y4.84 Z-0.4
G1 X35.14 Y4.84 Z-0.4
G1 X35.16 Y4.84 Z-0.4
G1 X35.16 Y4.86 Z-0.4
G1 X35.18 Y4.86 Z-0.4
G1 X35.2 Y4.86 Z-0.4
G1 X35.22 Y4.86 Z-0.4
G1 X35.24 Y4.86 Z-0.4
G1 X35.26 Y4.86 Z-0.4
G1 X35.28 Y4.86 Z-0.4
G1 X35.28 Y4.88 Z-0.4
G1 X35.3 Y4.88 Z-0.4
G1 X35.32 Y4.88 Z-0.4
G1 X35.34 Y4.88 Z-0.4
G1 X35.36 Y4.88 Z-0.4
G1 X35.38 Y4.88 Z-0.4
G1 X35.38 Y4.9 Z-0.4
G1 X35.4 Y4.9 Z-0.4
G1 X35.42 Y4.9 Z-0.4
G1 X35.44 Y4.9 Z-0.4
G1 X35.46 Y4.9 Z-0.4
G1 X35.48 Y4.9 Z-0.4
G1 X35.5 Y4.9 Z-0.4
G1 X35.52 Y4.9 Z-0.4
G1 X35.54 Y4.9 Z-0.4
G1 X35.56 Y4.9 Z-0.4
G1 X35.58 Y4.9 Z-0.4
G1 X35.6 Y4.9 Z-0.4
G1 X35.62 Y4.9 Z-0.4
G1 X35.64 Y4.9 Z-0.4
G1 X35.66 Y4.9 Z-0.4
G1 X35.68 Y4.9 Z-0.4
G1 X35.7 Y4.9 Z-0.4
G1 X35.72 Y4.9 Z-0.4
G1 X35.72 Y4.88 Z-0.4
G1 X35.74 Y4.88 Z-0.4
G1 X35.76 Y4.88 Z-0.4
G1 X35.78 Y4.88 Z-0.4
G1 X35.8 Y4.88 Z-0.4
G1 X35.82 Y4.88 Z-0.4
G1 X35.82 Y4.86 Z-0.4
G1 X35.84 Y4.86 Z-0.4
G1 X35.86 Y4.86 Z-0.4
G1 X35.88 Y4.86 Z-0.4
G1 X35.9 Y4.86 Z-0.4
G1 X35.92 Y4.86 Z-0.4
G1 X35.94 Y4.86 Z-0.4
G1 X35.94 Y4.84 Z-0.4
G1 X35.96 Y4.84 Z-0.4
G1 X35.98 Y4.84 Z-0.4
G1 X35.98 Y4.82 Z-0.4
G1 X36.0 Y4.82 Z-0.4
G1 X36.02 Y4.82 Z-0.4
G1 X36.02 Y4.8 Z-0.4
G1 X36.04 Y4.8 Z-0.4
G1 X36.06 Y4.8 Z-0.4
G1 X36.06 Y4.78 Z-0.4
G1 X36.08 Y4.78 Z-0.4
G1 X36.1 Y4.78 Z-0.4
G1 X36.12 Y4.78 Z-0.4
G1 X36.12 Y4.76 Z-0.4
G1 X36.14 Y4.76 Z-0.4
G1 X36.14 Y4.74 Z-0.4
G1 X36.16 Y4.74 Z-0.4
G1 X36.16 Y4.72 Z-0.4
G1 X36.18 Y4.72 Z-0.4
G1 X36.2 Y4.72 Z-0.4
G1 X36.2 Y4.7 Z-0.4
G1 X36.22 Y4.7 Z-0.4
G1 X36.22 Y4.68 Z-0.4
G1 X36.24 Y4.68 Z-0.4
G1 X36.24 Y4.66 Z-0.4
G1 X36.26 Y4.66 Z-0.4
G1 X36.26 Y4.64 Z-0.4
G1 X36.26 Y4.62 Z-0.4
G1 X36.28 Y4.62 Z-0.4
G1 X36.28 Y4.6 Z-0.4
G1 X36.3 Y4.6 Z-0.4
G1 X36.3 Y4.58 Z-0.4
G1 X36.32 Y4.58 Z-0.4
G1 X36.34 Y4.58 Z-0.4
G1 X36.34 Y4.56 Z-0.4
G1 X36.36 Y4.56 Z-0.4
G1 X36.36 Y4.54 Z-0.4
G1 X36.36 Y4.52 Z-0.4
G1 X36.38 Y4.52 Z-0.4
G1 X36.4 Y4.52 Z-0.4
G1 X36.4 Y4.5 Z-0.4
G1 X36.4 Y4.48 Z-0.4
G1 X36.42 Y4.48 Z-0.4
G1 X36.42 Y4.46 Z-0.4
G1 X36.42 Y4.44 Z-0.4
G1 X36.44 Y4.44 Z-0.4
G1 X36.44 Y4.42 Z-0.4
G1 X36.44 Y4.4 Z-0.4
G1 X36.44 Y4.38 Z-0.4
G1 X36.44 Y4.36 Z-0.4
G1 X36.46 Y4.36 Z-0.4
G1 X36.46 Y4.34 Z-0.4
G1 X36.48 Y4.34 Z-0.4
G1 X36.48 Y4.32 Z-0.4
G1 X36.48 Y4.3 Z-0.4
G1 X36.5 Y4.3 Z-0.4
G1 X36.5 Y4.28 Z-0.4
G1 X36.5 Y4.26 Z-0.4
G1 X36.52 Y4.26 Z-0.4
G1 X36.52 Y4.24 Z-0.4
G1 X36.52 Y4.22 Z-0.4
G1 X36.52 Y4.2 Z-0.4
G1 X36.52 Y4.18 Z-0.4
G1 X36.54 Y4.18 Z-0.4
G1 X36.54 Y4.16 Z-0.4
G1 X36.54 Y4.14 Z-0.4
G1 X36.54 Y4.12 Z-0.4
G1 X36.54 Y4.1 Z-0.4
G1 X36.54 Y4.08 Z-0.4
G1 X36.54 Y4.06 Z-0.4
G1 X36.54 Y4.04 Z-0.4
G1 X36.54 Y4.02 Z-0.4
G1 X36.54 Y4.0 Z-0.4
G1 X36.54 Y3.98 Z-0.4
G1 X36.54 Y3.96 Z-0.4
G1 X36.54 Y3.94 Z-0.4
G1 X36.54 Y3.92 Z-0.4
G1 X36.54 Y3.9 Z-0.4
G1 X36.54 Y3.88 Z-0.4
G1 X36.54 Y3.86 Z-0.4
G1 X36.54 Y3.84 Z-0.4
G1 X36.54 Y3.82 Z-0.4
G1 X36.54 Y3.8 Z-0.4
G1 X36.54 Y3.78 Z-0.4
G1 X36.54 Y3.76 Z-0.4
G1 X36.54 Y3.74 Z-0.4
G1 X36.54 Y3.72 Z-0.4
G1 X36.54 Y3.7 Z-0.4
G1 X36.54 Y3.68 Z-0.4
G1 X36.54 Y3.66 Z-0.4
G1 X36.52 Y3.66 Z-0.4
G1 X36.52 Y3.64 Z-0.4
G1 X36.52 Y3.62 Z-0.4
G1 X36.52 Y3.6 Z-0.4
G1 X36.52 Y3.58 Z-0.4
G1 X36.5 Y3.58 Z-0.4
G1 X36.5 Y3.56 Z-0.4
G1 X36.5 Y3.54 Z-0.4
G1 X36.48 Y3.54 Z-0.4
G1 X36.48 Y3.52 Z-0.4
G1 X36.48 Y3.5 Z-0.4
G1 X36.46 Y3.5 Z-0.4
G1 X36.46 Y3.48 Z-0.4
G1 X36.44 Y3.48 Z-0.4
G1 X36.44 Y3.46 Z-0.4
G1 X36.44 Y3.44 Z-0.4
G1 X36.42 Y3.44 Z-0.4
G1 X36.42 Y3.42 Z-0.4
G1 X36.42 Y3.4 Z-0.4
G1 X36.4 Y3.4 Z-0.4
G1 X36.4 Y3.38 Z-0.4
G1 X36.4 Y3.36 Z-0.4
G1 X36.38 Y3.36 Z-0.4
G1 X36.38 Y3.34 Z-0.4
G1 X36.38 Y3.32 Z-0.4
G1 X36.38 Y3.3 Z-0.4
G1 X36.36 Y3.3 Z-0.4
G1 X36.36 Y3.28 Z-0.4
G1 X36.34 Y3.28 Z-0.4
G1 X36.34 Y3.26 Z-0.4
G1 X36.32 Y3.26 Z-0.4
G1 X36.32 Y3.24 Z-0.4
G1 X36.3 Y3.24 Z-0.4
G1 X36.3 Y3.22 Z-0.4
G1 X36.28 Y3.22 Z-0.4
G1 X36.26 Y3.22 Z-0.4
G1 X36.26 Y3.2 Z-0.4
G1 X36.26 Y3.18 Z-0.4
G1 X36.24 Y3.18 Z-0.4
G1 X36.24 Y3.16 Z-0.4
G1 X36.22 Y3.16 Z-0.4
G1 X36.22 Y3.14 Z-0.4
G1 X36.2 Y3.14 Z-0.4
G1 X36.2 Y3.12 Z-0.4
G1 X36.18 Y3.12 Z-0.4
G1 X36.16 Y3.12 Z-0.4
G1 X36.16 Y3.1 Z-0.4
G1 X36.14 Y3.1 Z-0.4
G1 X36.14 Y3.08 Z-0.4
G1 X36.12 Y3.08 Z-0.4
G1 X36.12 Y3.06 Z-0.4
G1 X36.1 Y3.06 Z-0.4
G1 X36.08 Y3.06 Z-0.4
G1 X36.06 Y3.06 Z-0.4
G1 X36.06 Y3.04 Z-0.4
G1 X36.04 Y3.04 Z-0.4
G1 X36.02 Y3.04 Z-0.4
G1 X36.02 Y3.02 Z-0.4
G1 X36.0 Y3.02 Z-0.4
G1 X35.98 Y3.02 Z-0.4
G1 X35.98 Y3.0 Z-0.4
G1 X35.96 Y3.0 Z-0.4
G1 X35.94 Y3.0 Z-0.4
G1 X35.94 Y2.98 Z-0.4
G1 X35.92 Y2.98 Z-0.4
G1 X35.9 Y2.98 Z-0.4
G1 X35.88 Y2.98 Z-0.4
G1 X35.86 Y2.98 Z-0.4
G1 X35.84 Y2.98 Z-0.4
G1 X35.82 Y2.98 Z-0.4
G1 X35.82 Y2.96 Z-0.4
G1 X35.8 Y2.96 Z-0.4
G1 X35.78 Y2.96 Z-0.4
G1 X35.76 Y2.96 Z-0.4
G1 X35.74 Y2.96 Z-0.4
G1 X35.72 Y2.96 Z-0.4
G1 X35.72 Y2.94 Z-0.4
G1 X35.7 Y2.94 Z-0.4
G1 X35.68 Y2.94 Z-0.4
G1 X35.66 Y2.94 Z-0.4
G1 X35.64 Y2.94 Z-0.4
G1 X35.62 Y2.94 Z-0.4
G1 X35.6 Y2.94 Z-0.4
G1 X35.58 Y2.94 Z-0.4
G1 X35.56 Y2.94 Z-0.4
G1 X35.54 Y2.94 Z-0.4
G1 X35.52 Y2.94 Z-0.4
G1 X35.5 Y2.94 Z-0.4
G1 X35.48 Y2.94 Z-0.4
G1 X35.46 Y2.94 Z-0.4
G1 X35.44 Y2.94 Z-0.4
G1 X35.42 Y2.94 Z-0.4
G1 X35.4 Y2.94 Z-0.4
G1 X35.38 Y2.94 Z-0.4
G1 X35.38 Y2.96 Z-0.4
G1 X35.36 Y2.96 Z-0.4
G1 X35.34 Y2.96 Z-0.4
G1 X35.32 Y2.96 Z-0.4
G1 X35.3 Y2.96 Z-0.4
G1 X35.28 Y2.96 Z-0.4
G1 X35.28 Y2.98 Z-0.4
G1 X35.26 Y2.98 Z-0.4
G1 X35.24 Y2.98 Z-0.4
G1 X35.22 Y2.98 Z-0.4
G1 X35.2 Y2.98 Z-0.4
G1 X35.18 Y2.98 Z-0.4
G1 X35.16 Y2.98 Z-0.4
G1 X35.16 Y3.0 Z-0.4
G1 X35.14 Y3.0 Z-0.4
G1 X35.12 Y3.0 Z-0.4
G1 X35.12 Y3.02 Z-0.4
G1 X35.1 Y3.02 Z-0.4
G1 X35.08 Y3.02 Z-0.4
G1 X35.06 Y3.02 Z-0.4
G1 X35.06 Y3.04 Z-0.4
G1 X35.04 Y3.04 Z-0.4
G1 X35.02 Y3.04 Z-0.4
G1 X35.02 Y3.06 Z-0.4
G1 X35.0 Y3.06 Z-0.4
G1 X34.98 Y3.06 Z-0.4
G1 X34.98 Y3.08 Z-0.4
G1 X34.96 Y3.08 Z-0.4
G1 X34.96 Y3.1 Z-0.4
G1 X34.94 Y3.1 Z-0.4
G1 X34.94 Y3.12 Z-0.4
G1 X34.92 Y3.12 Z-0.4
G1 X34.9 Y3.12 Z-0.4
G1 X34.9 Y3.14 Z-0.4
G1 X34.88 Y3.14 Z-0.4
G1 X34.86 Y3.14 Z-0.4
G1 X34.86 Y3.16 Z-0.4
G1 X34.84 Y3.16 Z-0.4
G1 X34.84 Y3.18 Z-0.4
G1 X34.82 Y3.18 Z-0.4
G1 X34.82 Y3.2 Z-0.4
G1 X34.8 Y3.2 Z-0.4
G1 X34.8 Y3.22 Z-0.4
G1 X34.78 Y3.22 Z-0.4
G1 X34.78 Y3.24 Z-0.4
G1 X34.78 Y3.26 Z-0.4
G1 X34.76 Y3.26 Z-0.4
G1 X34.76 Y3.28 Z-0.4
G1 X34.76 Y3.3 Z-0.4
G1 X34.74 Y3.3 Z-0.4
G1 X34.74 Y3.32 Z-0.4
G1 X34.72 Y3.32 Z-0.4
G1 X34.72 Y3.34 Z-0.4
G1 X34.7 Y3.34 Z-0.4
G1 X34.7 Y3.36 Z-0.4
G1 X34.7 Y3.38 Z-0.4
G1 X34.68 Y3.38 Z-0.4
G1 X34.68 Y3.4 Z-0.4
G1 X34.66 Y3.4 Z-0.4
G1 X34.66 Y3.42 Z-0.4
G1 X34.66 Y3.44 Z-0.4
G1 X34.64 Y3.44 Z-0.4
G1 X34.64 Y3.46 Z-0.4
G1 X34.64 Y3.48 Z-0.4
G1 X34.62 Y3.48 Z-0.4
G1 X34.62 Y3.5 Z-0.4
G1 X34.6 Y3.5 Z-0.4
G1 X34.6 Y3.52 Z-0.4
G1 X34.6 Y3.54 Z-0.4
G1 X34.58 Y3.54 Z-0.4
G1 X34.58 Y3.56 Z-0.4
G1 X34.58 Y3.58 Z-0.4
G1 X34.56 Y3.58 Z-0.4
G1 X34.56 Y3.6 Z-0.4
G1 X34.56 Y3.62 Z-0.4
G1 X34.56 Y3.64 Z-0.4
G1 X34.56 Y3.66 Z-0.4
G1 X34.56 Y3.68 Z-0.4
G1 X34.56 Y3.7 Z-0.4
G1 X34.56 Y3.72 Z-0.4
G1 X34.56 Y3.74 Z-0.4
G1 X34.56 Y3.74 Z5
M5
G0 X34.56 Y6.3 Z5
M3 P100
G1 X34.56 Y6.3 Z-0.4
G1 X34.54 Y6.3 Z-0.4
G1 X34.54 Y6.32 Z-0.4
G1 X34.54 Y6.34 Z-0.4
G1 X34.54 Y6.36 Z-0.4
G1 X34.54 Y6.38 Z-0.4
G1 X34.54 Y6.4 Z-0.4
G1 X34.54 Y6.42 Z-0.4
G1 X34.54 Y6.44 Z-0.4
G1 X34.54 Y6.46 Z-0.4
G1 X34.54 Y6.48 Z-0.4
G1 X34.54 Y6.5 Z-0.4
G1 X34.54 Y6.52 Z-0.4
G1 X34.54 Y6.54 Z-0.4
G1 X34.54 Y6.56 Z-0.4
G1 X34.54 Y6.58 Z-0.4
G1 X34.54 Y6.6 Z-0.4
G1 X34.54 Y6.62 Z-0.4
G1 X34.56 Y6.62 Z-0.4
G1 X34.56 Y6.64 Z-0.4
G1 X34.56 Y6.66 Z-0.4
G1 X34.56 Y6.68 Z-0.4
G1 X34.56 Y6.7 Z-0.4
G1 X34.56 Y6.72 Z-0.4
G1 X34.56 Y6.74 Z-0.4
G1 X34.56 Y6.76 Z-0.4
G1 X34.56 Y6.78 Z-0.4
G1 X34.56 Y6.8 Z-0.4
G1 X34.58 Y6.8 Z-0.4
G1 X34.58 Y6.82 Z-0.4
G1 X34.58 Y6.84 Z-0.4
G1 X34.6 Y6.84 Z-0.4
G1 X34.6 Y6.86 Z-0.4
G1 X34.6 Y6.88 Z-0.4
G1 X34.62 Y6.88 Z-0.4
G1 X34.62 Y6.9 Z-0.4
G1 X34.64 Y6.9 Z-0.4
G1 X34.64 Y6.92 Z-0.4
G1 X34.64 Y6.94 Z-0.4
G1 X34.66 Y6.94 Z-0.4
G1 X34.66 Y6.96 Z-0.4
G1 X34.66 Y6.98 Z-0.4
G1 X34.68 Y6.98 Z-0.4
G1 X34.68 Y7.0 Z-0.4
G1 X34.68 Y7.02 Z-0.4
G1 X34.7 Y7.02 Z-0.4
G1 X34.7 Y7.04 Z-0.4
G1 X34.7 Y7.06 Z-0.4
G1 X34.72 Y7.06 Z-0.4
G1 X34.72 Y7.08 Z-0.4
G1 X34.72 Y7.1 Z-0.4
G1 X34.74 Y7.1 Z-0.4
G1 X34.74 Y7.12 Z-0.4
G1 X34.76 Y7.12 Z-0.4
G1 X34.76 Y7.14 Z-0.4
G1 X34.78 Y7.14 Z-0.4
G1 X34.78 Y7.16 Z-0.4
G1 X34.8 Y7.16 Z-0.4
G1 X34.8 Y7.18 Z-0.4
G1 X34.82 Y7.18 Z-0.4
G1 X34.82 Y7.2 Z-0.4
G1 X34.84 Y7.2 Z-0.4
G1 X34.84 Y7.22 Z-0.4
G1 X34.86 Y7.22 Z-0.4
G1 X34.86 Y7.24 Z-0.4
G1 X34.88 Y7.24 Z-0.4
G1 X34.9 Y7.24 Z-0.4
G1 X34.9 Y7.26 Z-0.4
G1 X34.92 Y7.26 Z-0.4
G1 X34.94 Y7.26 Z-0.4
G1 X34.94 Y7.28 Z-0.4
G1 X34.96 Y7.28 Z-0.4
G1 X34.96 Y7.3 Z-0.4
G1 X34.98 Y7.3 Z-0.4
G1 X34.98 Y7.32 Z-0.4
G1 X35.0 Y7.32 Z-0.4
G1 X35.02 Y7.32 Z-0.4
G1 X35.02 Y7.34 Z-0.4
G1 X35.04 Y7.34 Z-0.4
G1 X35.06 Y7.34 Z-0.4
G1 X35.06 Y7.36 Z-0.4
G1 X35.08 Y7.36 Z-0.4
G1 X35.1 Y7.36 Z-0.4
G1 X35.12 Y7.36 Z-0.4
G1 X35.12 Y7.38 Z-0.4
G1 X35.14 Y7.38 Z-0.4
G1 X35.16 Y7.38 Z-0.4
G1 X35.16 Y7.4 Z-0.4
G1 X35.18 Y7.4 Z-0.4
G1 X35.2 Y7.4 Z-0.4
G1 X35.22 Y7.4 Z-0.4
G1 X35.24 Y7.4 Z-0.4
G1 X35.26 Y7.4 Z-0.4
G1 X35.28 Y7.4 Z-0.4
G1 X35.28 Y7.42 Z-0.4
G1 X35.3 Y7.42 Z-0.4
G1 X35.32 Y7.42 Z-0.4
G1 X35.34 Y7.42 Z-0.4
G1 X35.36 Y7.42 Z-0.4
G1 X35.38 Y7.42 Z-0.4
G1 X35.38 Y7.44 Z-0.4
G1 X35.4 Y7.44 Z-0.4
G1 X35.42 Y7.44 Z-0.4
G1 X35.44 Y7.44 Z-0.4
G1 X35.46 Y7.44 Z-0.4
G1 X35.48 Y7.44 Z-0.4
G1 X35.5 Y7.44 Z-0.4
G1 X35.52 Y7.44 Z-0.4
G1 X35.54 Y7.44 Z-0.4
G1 X35.56 Y7.44 Z-0.4
G1 X35.58 Y7.44 Z-0.4
G1 X35.6 Y7.44 Z-0.4
G1 X35.62 Y7.44 Z-0.4
G1 X35.64 Y7.44 Z-0.4
G1 X35.66 Y7.44 Z-0.4
G1 X35.68 Y7.44 Z-0.4
G1 X35.7 Y7.44 Z-0.4
G1 X35.72 Y7.44 Z-0.4
G1 X35.72 Y7.42 Z-0.4
G1 X35.74 Y7.42 Z-0.4
G1 X35.76 Y7.42 Z-0.4
G1 X35.78 Y7.42 Z-0.4
G1 X35.8 Y7.42 Z-0.4
G1 X35.82 Y7.42 Z-0.4
G1 X35.82 Y7.4 Z-0.4
G1 X35.84 Y7.4 Z-0.4
G1 X35.86 Y7.4 Z-0.4
G1 X35.88 Y7.4 Z-0.4
G1 X35.9 Y7.4 Z-0.4
G1 X35.92 Y7.4 Z-0.4
G1 X35.94 Y7.4 Z-0.4
G1 X35.94 Y7.38 Z-0.4
G1 X35.96 Y7.38 Z-0.4
G1 X35.98 Y7.38 Z-0.4
G1 X35.98 Y7.36 Z-0.4
G1 X36.0 Y7.36 Z-0.4
G1 X36.02 Y7.36 Z-0.4
G1 X36.02 Y7.34 Z-0.4
G1 X36.04 Y7.34 Z-0.4
G1 X36.06 Y7.34 Z-0.4
G1 X36.06 Y7.32 Z-0.4
G1 X36.08 Y7.32 Z-0.4
G1 X36.1 Y7.32 Z-0.4
G1 X36.12 Y7.32 Z-0.4
G1 X36.12 Y7.3 Z-0.4
G1 X36.14 Y7.3 Z-0.4
G1 X36.14 Y7.28 Z-0.4
G1 X36.16 Y7.28 Z-0.4
G1 X36.16 Y7.26 Z-0.4
G1 X36.18 Y7.26 Z-0.4
G1 X36.2 Y7.26 Z-0.4
G1 X36.2 Y7.24 Z-0.4
G1 X36.22 Y7.24 Z-0.4
G1 X36.22 Y7.22 Z-0.4
G1 X36.24 Y7.22 Z-0.4
G1 X36.24 Y7.2 Z-0.4
G1 X36.26 Y7.2 Z-0.4
G1 X36.26 Y7.18 Z-0.4
G1 X36.26 Y7.16 Z-0.4
G1 X36.28 Y7.16 Z-0.4
G1 X36.28 Y7.14 Z-0.4
G1 X36.3 Y7.14 Z-0.4
G1 X36.3 Y7.12 Z-0.4
G1 X36.32 Y7.12 Z-0.4
G1 X36.34 Y7.12 Z-0.4
G1 X36.34 Y7.1 Z-0.4
G1 X36.36 Y7.1 Z-0.4
G1 X36.36 Y7.08 Z-0.4
G1 X36.36 Y7.06 Z-0.4
G1 X36.38 Y7.06 Z-0.4
G1 X36.4 Y7.06 Z-0.4
G1 X36.4 Y7.04 Z-0.4
G1 X36.4 Y7.02 Z-0.4
G1 X36.42 Y7.02 Z-0.4
G1 X36.42 Y7.0 Z-0.4
G1 X36.42 Y6.98 Z-0.4
G1 X36.44 Y6.98 Z-0.4
G1 X36.44 Y6.96 Z-0.4
G1 X36.44 Y6.94 Z-0.4
G1 X36.44 Y6.92 Z-0.4
G1 X36.44 Y6.9 Z-0.4
G1 X36.46 Y6.9 Z-0.4
G1 X36.46 Y6.88 Z-0.4
G1 X36.48 Y6.88 Z-0.4
G1 X36.48 Y6.86 Z-0.4
G1 X36.48 Y6.84 Z-0.4
G1 X36.5 Y6.84 Z-0.4
G1 X36.5 Y6.82 Z-0.4
G1 X36.5 Y6.8 Z-0.4
G1 X36.52 Y6.8 Z-0.4
G1 X36.52 Y6.78 Z-0.4
G1 X36.52 Y6.76 Z-0.4
G1 X36.52 Y6.74 Z-0.4
G1 X36.52 Y6.72 Z-0.4
G1 X36.54 Y6.72 Z-0.4
G1 X36.54 Y6.7 Z-0.4
G1 X36.54 Y6.68 Z-0.4
G1 X36.54 Y6.66 Z-0.4
G1 X36.54 Y6.64 Z-0.4
G1 X36.54 Y6.62 Z-0.4
G1 X36.54 Y6.6 Z-0.4
G1 X36.54 Y6.58 Z-0.4
G1 X36.54 Y6.56 Z-0.4
G1 X36.54 Y6.54 Z-0.4
G1 X36.54 Y6.52 Z-0.4
G1 X36.54 Y6.5 Z-0.4
G1 X36.54 Y6.48 Z-0.4
G1 X36.54 Y6.46 Z-0.4
G1 X36.54 Y6.44 Z-0.4
G1 X36.54 Y6.42 Z-0.4
G1 X36.54 Y6.4 Z-0.4
G1 X36.54 Y6.38 Z-0.4
G1 X36.54 Y6.36 Z-0.4
G1 X36.54 Y6.34 Z-0.4
G1 X36.54 Y6.32 Z-0.4
G1 X36.54 Y6.3 Z-0.4
G1 X36.54 Y6.28 Z-0.4
G1 X36.54 Y6.26 Z-0.4
G1 X36.54 Y6.24 Z-0.4
G1 X36.54 Y6.22 Z-0.4
G1 X36.54 Y6.2 Z-0.4
G1 X36.52 Y6.2 Z-0.4
G1 X36.52 Y6.18 Z-0.4
G1 X36.52 Y6.16 Z-0.4
G1 X36.52 Y6.14 Z-0.4
G1 X36.52 Y6.12 Z-0.4
G1 X36.5 Y6.12 Z-0.4
G1 X36.5 Y6.1 Z-0.4
G1 X36.5 Y6.08 Z-0.4
G1 X36.48 Y6.08 Z-0.4
G1 X36.48 Y6.06 Z-0.4
G1 X36.48 Y6.04 Z-0.4
G1 X36.46 Y6.04 Z-0.4
G1 X36.46 Y6.02 Z-0.4
G1 X36.44 Y6.02 Z-0.4
G1 X36.44 Y6.0 Z-0.4
G1 X36.44 Y5.98 Z-0.4
G1 X36.42 Y5.98 Z-0.4
G1 X36.42 Y5.96 Z-0.4
G1 X36.42 Y5.94 Z-0.4
G1 X36.4 Y5.94 Z-0.4
G1 X36.4 Y5.92 Z-0.4
G1 X36.4 Y5.9 Z-0.4
G1 X36.38 Y5.9 Z-0.4
G1 X36.38 Y5.88 Z-0.4
G1 X36.38 Y5.86 Z-0.4
G1 X36.38 Y5.84 Z-0.4
G1 X36.36 Y5.84 Z-0.4
G1 X36.36 Y5.82 Z-0.4
G1 X36.34 Y5.82 Z-0.4
G1 X36.34 Y5.8 Z-0.4
G1 X36.32 Y5.8 Z-0.4
G1 X36.32 Y5.78 Z-0.4
G1 X36.3 Y5.78 Z-0.4
G1 X36.3 Y5.76 Z-0.4
G1 X36.28 Y5.76 Z-0.4
G1 X36.26 Y5.76 Z-0.4
G1 X36.26 Y5.74 Z-0.4
G1 X36.26 Y5.72 Z-0.4
G1 X36.24 Y5.72 Z-0.4
G1 X36.24 Y5.7 Z-0.4
G1 X36.22 Y5.7 Z-0.4
G1 X36.22 Y5.68 Z-0.4
G1 X36.2 Y5.68 Z-0.4
G1 X36.2 Y5.66 Z-0.4
G1 X36.18 Y5.66 Z-0.4
G1 X36.16 Y5.66 Z-0.4
G1 X36.16 Y5.64 Z-0.4
G1 X36.14 Y5.64 Z-0.4
G1 X36.14 Y5.62 Z-0.4
G1 X36.12 Y5.62 Z-0.4
G1 X36.12 Y5.6 Z-0.4
G1 X36.1 Y5.6 Z-0.4
G1 X36.08 Y5.6 Z-0.4
G1 X36.06 Y5.6 Z-0.4
G1 X36.06 Y5.58 Z-0.4
G1 X36.04 Y5.58 Z-0.4
G1 X36.02 Y5.58 Z-0.4
G1 X36.02 Y5.56 Z-0.4
G1 X36.0 Y5.56 Z-0.4
G1 X35.98 Y5.56 Z-0.4
G1 X35.98 Y5.54 Z-0.4
G1 X35.96 Y5.54 Z-0.4
G1 X35.94 Y5.54 Z-0.4
G1 X35.94 Y5.52 Z-0.4
G1 X35.92 Y5.52 Z-0.4
G1 X35.9 Y5.52 Z-0.4
G1 X35.88 Y5.52 Z-0.4
G1 X35.86 Y5.52 Z-0.4
G1 X35.84 Y5.52 Z-0.4
G1 X35.82 Y5.52 Z-0.4
G1 X35.82 Y5.5 Z-0.4
G1 X35.8 Y5.5 Z-0.4
G1 X35.78 Y5.5 Z-0.4
