
;Header Start
;header_type: cnc
;tool_head: levelTwoCNCToolheadForSM2
;machine: A400
;gcode_flavor: marlin
;renderMethod: line
;max_power: 255
;file_total_lines: FILE_TOTAL_LINE_COUNT
;estimated_time(s): ESTIMATED_TIME
;is_rotate: false
;diameter: 0
;max_x(mm): 40.116
;max_y(mm): 27.162
;max_z(mm): 80
;max_b(mm): 0
;min_x(mm): -1
;min_y(mm): -1
;min_b(mm): 0
;min_z(mm): -3.5
;work_speed(mm/minute): 240.0
;jog_speed(mm/minute): 1500.0
;power(%): 0
;work_size_x: 400
;work_size_y: 400
;origin: bottom-left
;Header End
;PCB_To_CNC v0.3
; Made by Daniel Dobromylskyj (https://www.github.com/DanielDobromylskyj)
; G-code START <<<
G0 X0 Y0 Z5
G0 Z5
G0 X18.288 Y-25.79115
G1 Z-0.1 F120
G1 X18.288 Y-24.7015 F120
G0 Z5
G0 X18.288 Y-25.79115
G1 Z-0.1 F120
G1 X18.75536 Y-25.79115 F120
G0 Z5
G0 X18.75536 Y-25.79115
G1 Z-0.1 F120
G1 X18.91029 Y-25.74036 F120
G0 Z5
G0 X18.91029 Y-25.74036
G1 Z-0.1 F120
G1 X18.96363 Y-25.68702 F120
G0 Z5
G0 X18.96363 Y-25.68702
G1 Z-0.1 F120
G1 X19.01443 Y-25.58287 F120
G0 Z5
G0 X19.01443 Y-25.58287
G1 Z-0.1 F120
G1 X19.01443 Y-25.47873 F120
G0 Z5
G0 X19.01443 Y-25.47873
G1 Z-0.1 F120
G1 X18.96363 Y-25.3746 F120
G0 Z5
G0 X18.96363 Y-25.3746
G1 Z-0.1 F120
G1 X18.91029 Y-25.32379 F120
G0 Z5
G0 X18.91029 Y-25.32379
G1 Z-0.1 F120
G1 X18.75536 Y-25.273 F120
G0 Z5
G0 X18.75536 Y-25.273
G1 Z-0.1 F120
G1 X18.288 Y-25.273 F120
G0 Z5
G0 X18.65122 Y-25.273
G1 Z-0.1 F120
G1 X19.01443 Y-24.7015 F120
G0 Z5
G0 X19.35734 Y-25.58287
G1 Z-0.1 F120
G1 X19.46147 Y-25.63621 F120
G0 Z5
G0 X19.46147 Y-25.63621
G1 Z-0.1 F120
G1 X19.61895 Y-25.79115 F120
G0 Z5
G0 X19.61895 Y-25.79115
G1 Z-0.1 F120
G1 X19.61895 Y-24.7015 F120
G0 Z5
G0 X18.288 Y-19.18715
G1 Z-0.1 F120
G1 X18.288 Y-18.0975 F120
G0 Z5
G0 X18.288 Y-19.18715
G1 Z-0.1 F120
G1 X18.75536 Y-19.18715 F120
G0 Z5
G0 X18.75536 Y-19.18715
G1 Z-0.1 F120
G1 X18.91029 Y-19.13636 F120
G0 Z5
G0 X18.91029 Y-19.13636
G1 Z-0.1 F120
G1 X18.96363 Y-19.08302 F120
G0 Z5
G0 X18.96363 Y-19.08302
G1 Z-0.1 F120
G1 X19.01443 Y-18.97887 F120
G0 Z5
G0 X19.01443 Y-18.97887
G1 Z-0.1 F120
G1 X19.01443 Y-18.87473 F120
G0 Z5
G0 X19.01443 Y-18.87473
G1 Z-0.1 F120
G1 X18.96363 Y-18.7706 F120
G0 Z5
G0 X18.96363 Y-18.7706
G1 Z-0.1 F120
G1 X18.91029 Y-18.71979 F120
G0 Z5
G0 X18.91029 Y-18.71979
G1 Z-0.1 F120
G1 X18.75536 Y-18.669 F120
G0 Z5
G0 X18.75536 Y-18.669
G1 Z-0.1 F120
G1 X18.288 Y-18.669 F120
G0 Z5
G0 X18.65122 Y-18.669
G1 Z-0.1 F120
G1 X19.01443 Y-18.0975 F120
G0 Z5
G0 X19.41068 Y-18.92807
G1 Z-0.1 F120
G1 X19.41068 Y-18.97887 F120
G0 Z5
G0 X19.41068 Y-18.97887
G1 Z-0.1 F120
G1 X19.46147 Y-19.08302 F120
G0 Z5
G0 X19.46147 Y-19.08302
G1 Z-0.1 F120
G1 X19.51481 Y-19.13636 F120
G0 Z5
G0 X19.51481 Y-19.13636
G1 Z-0.1 F120
G1 X19.61895 Y-19.18715 F120
G0 Z5
G0 X19.61895 Y-19.18715
G1 Z-0.1 F120
G1 X19.8247 Y-19.18715 F120
G0 Z5
G0 X19.8247 Y-19.18715
G1 Z-0.1 F120
G1 X19.92884 Y-19.13636 F120
G0 Z5
G0 X19.92884 Y-19.13636
G1 Z-0.1 F120
G1 X19.98218 Y-19.08302 F120
G0 Z5
G0 X19.98218 Y-19.08302
G1 Z-0.1 F120
G1 X20.03297 Y-18.97887 F120
G0 Z5
G0 X20.03297 Y-18.97887
G1 Z-0.1 F120
G1 X20.03297 Y-18.87473 F120
G0 Z5
G0 X20.03297 Y-18.87473
G1 Z-0.1 F120
G1 X19.98218 Y-18.7706 F120
G0 Z5
G0 X19.98218 Y-18.7706
G1 Z-0.1 F120
G1 X19.87804 Y-18.61565 F120
G0 Z5
G0 X19.87804 Y-18.61565
G1 Z-0.1 F120
G1 X19.35734 Y-18.0975 F120
G0 Z5
G0 X19.35734 Y-18.0975
G1 Z-0.1 F120
G1 X20.08631 Y-18.0975 F120
G0 Z5
G0 X18.288 Y-12.83715
G1 Z-0.1 F120
G1 X18.288 Y-11.7475 F120
G0 Z5
G0 X18.288 Y-12.83715
G1 Z-0.1 F120
G1 X18.75536 Y-12.83715 F120
G0 Z5
G0 X18.75536 Y-12.83715
G1 Z-0.1 F120
G1 X18.91029 Y-12.78636 F120
G0 Z5
G0 X18.91029 Y-12.78636
G1 Z-0.1 F120
G1 X18.96363 Y-12.73302 F120
G0 Z5
G0 X18.96363 Y-12.73302
G1 Z-0.1 F120
G1 X19.01443 Y-12.62887 F120
G0 Z5
G0 X19.01443 Y-12.62887
G1 Z-0.1 F120
G1 X19.01443 Y-12.52473 F120
G0 Z5
G0 X19.01443 Y-12.52473
G1 Z-0.1 F120
G1 X18.96363 Y-12.4206 F120
G0 Z5
G0 X18.96363 Y-12.4206
G1 Z-0.1 F120
G1 X18.91029 Y-12.36979 F120
G0 Z5
G0 X18.91029 Y-12.36979
G1 Z-0.1 F120
G1 X18.75536 Y-12.319 F120
G0 Z5
G0 X18.75536 Y-12.319
G1 Z-0.1 F120
G1 X18.288 Y-12.319 F120
G0 Z5
G0 X18.65122 Y-12.319
G1 Z-0.1 F120
G1 X19.01443 Y-11.7475 F120
G0 Z5
G0 X19.46147 Y-12.83715
G1 Z-0.1 F120
G1 X20.03297 Y-12.83715 F120
G0 Z5
G0 X20.03297 Y-12.83715
G1 Z-0.1 F120
G1 X19.72309 Y-12.4206 F120
G0 Z5
G0 X19.72309 Y-12.4206
G1 Z-0.1 F120
G1 X19.87804 Y-12.4206 F120
G0 Z5
G0 X19.87804 Y-12.4206
G1 Z-0.1 F120
G1 X19.98218 Y-12.36979 F120
G0 Z5
G0 X19.98218 Y-12.36979
G1 Z-0.1 F120
G1 X20.03297 Y-12.319 F120
G0 Z5
G0 X20.03297 Y-12.319
G1 Z-0.1 F120
G1 X20.08631 Y-12.16152 F120
G0 Z5
G0 X20.08631 Y-12.16152
G1 Z-0.1 F120
G1 X20.08631 Y-12.05737 F120
G0 Z5
G0 X20.08631 Y-12.05737
G1 Z-0.1 F120
G1 X20.03297 Y-11.90244 F120
G0 Z5
G0 X20.03297 Y-11.90244
G1 Z-0.1 F120
G1 X19.92884 Y-11.79829 F120
G0 Z5
G0 X19.92884 Y-11.79829
G1 Z-0.1 F120
G1 X19.7739 Y-11.7475 F120
G0 Z5
G0 X19.7739 Y-11.7475
G1 Z-0.1 F120
G1 X19.61895 Y-11.7475 F120
G0 Z5
G0 X19.61895 Y-11.7475
G1 Z-0.1 F120
G1 X19.46147 Y-11.79829 F120
G0 Z5
G0 X19.46147 Y-11.79829
G1 Z-0.1 F120
G1 X19.41068 Y-11.8491 F120
G0 Z5
G0 X19.41068 Y-11.8491
G1 Z-0.1 F120
G1 X19.35734 Y-11.95323 F120
G0 Z5
G0 X18.288 Y-6.48715
G1 Z-0.1 F120
G1 X18.288 Y-5.3975 F120
G0 Z5
G0 X18.288 Y-6.48715
G1 Z-0.1 F120
G1 X18.75536 Y-6.48715 F120
G0 Z5
G0 X18.75536 Y-6.48715
G1 Z-0.1 F120
G1 X18.91029 Y-6.43636 F120
G0 Z5
G0 X18.91029 Y-6.43636
G1 Z-0.1 F120
G1 X18.96363 Y-6.38302 F120
G0 Z5
G0 X18.96363 Y-6.38302
G1 Z-0.1 F120
G1 X19.01443 Y-6.27887 F120
G0 Z5
G0 X19.01443 Y-6.27887
G1 Z-0.1 F120
G1 X19.01443 Y-6.17473 F120
G0 Z5
G0 X19.01443 Y-6.17473
G1 Z-0.1 F120
G1 X18.96363 Y-6.0706 F120
G0 Z5
G0 X18.96363 Y-6.0706
G1 Z-0.1 F120
G1 X18.91029 Y-6.01979 F120
G0 Z5
G0 X18.91029 Y-6.01979
G1 Z-0.1 F120
G1 X18.75536 Y-5.969 F120
G0 Z5
G0 X18.75536 Y-5.969
G1 Z-0.1 F120
G1 X18.288 Y-5.969 F120
G0 Z5
G0 X18.65122 Y-5.969
G1 Z-0.1 F120
G1 X19.01443 Y-5.3975 F120
G0 Z5
G0 X19.87804 Y-6.48715
G1 Z-0.1 F120
G1 X19.35734 Y-5.76071 F120
G0 Z5
G0 X19.35734 Y-5.76071
G1 Z-0.1 F120
G1 X20.13711 Y-5.76071 F120
G0 Z5
G0 X19.87804 Y-6.48715
G1 Z-0.1 F120
G1 X19.87804 Y-5.3975 F120
G0 Z5
G0 X38.49115 Y-4.3942
G1 Z-0.1 F120
G1 X37.4015 Y-4.3942 F120
G0 Z5
G0 X37.4015 Y-4.3942
G1 Z-0.1 F120
G1 X37.4015 Y-3.77189 F120
G0 Z5
G0 X38.49115 Y-3.429
G1 Z-0.1 F120
G1 X37.4015 Y-3.429 F120
G0 Z5
G0 X38.49115 Y-3.429
G1 Z-0.1 F120
G1 X38.49115 Y-2.75336 F120
G0 Z5
G0 X37.973 Y-3.429
G1 Z-0.1 F120
G1 X37.973 Y-3.01244 F120
G0 Z5
G0 X37.4015 Y-3.429
G1 Z-0.1 F120
G1 X37.4015 Y-2.75336 F120
G0 Z5
G0 X38.49115 Y-2.41045
G1 Z-0.1 F120
G1 X37.4015 Y-2.41045 F120
G0 Z5
G0 X38.49115 Y-2.41045
G1 Z-0.1 F120
G1 X38.49115 Y-2.0447 F120
G0 Z5
G0 X38.49115 Y-2.0447
G1 Z-0.1 F120
G1 X38.44036 Y-1.88976 F120
G0 Z5
G0 X38.44036 Y-1.88976
G1 Z-0.1 F120
G1 X38.33622 Y-1.78562 F120
G0 Z5
G0 X38.33622 Y-1.78562
G1 Z-0.1 F120
G1 X38.23208 Y-1.73481 F120
G0 Z5
G0 X38.23208 Y-1.73481
G1 Z-0.1 F120
G1 X38.07459 Y-1.68147 F120
G0 Z5
G0 X38.07459 Y-1.68147
G1 Z-0.1 F120
G1 X37.81552 Y-1.68147 F120
G0 Z5
G0 X37.81552 Y-1.68147
G1 Z-0.1 F120
G1 X37.66058 Y-1.73481 F120
G0 Z5
G0 X37.66058 Y-1.73481
G1 Z-0.1 F120
G1 X37.55643 Y-1.78562 F120
G0 Z5
G0 X37.55643 Y-1.78562
G1 Z-0.1 F120
G1 X37.45229 Y-1.88976 F120
G0 Z5
G0 X37.45229 Y-1.88976
G1 Z-0.1 F120
G1 X37.4015 Y-2.0447 F120
G0 Z5
G0 X37.4015 Y-2.0447
G1 Z-0.1 F120
G1 X37.4015 Y-2.41045 F120
G0 Z5
G0 X12.79199 Y-19.84799
G1 Z-0.1 F120
G1 X12.79199 Y-24.348 F120
G0 Z5
G0 X12.79199 Y-24.348
G1 Z-0.1 F120
G1 X24.292 Y-24.348 F120
G0 Z5
G0 X24.292 Y-24.348
G1 Z-0.1 F120
G1 X24.292 Y-19.84799 F120
G0 Z5
G0 X24.2824 Y-19.83739
G1 Z-0.1 F120
G1 X12.80159 Y-19.83739 F120
G0 Z5
G0 X12.79199 Y-13.24399
G1 Z-0.1 F120
G1 X12.79199 Y-17.744 F120
G0 Z5
G0 X12.79199 Y-17.744
G1 Z-0.1 F120
G1 X24.292 Y-17.744 F120
G0 Z5
G0 X24.292 Y-17.744
G1 Z-0.1 F120
G1 X24.292 Y-13.24399 F120
G0 Z5
G0 X24.2824 Y-13.23339
G1 Z-0.1 F120
G1 X12.80159 Y-13.23339 F120
G0 Z5
G0 X12.79199 Y-6.89399
G1 Z-0.1 F120
G1 X12.79199 Y-11.394 F120
G0 Z5
G0 X12.79199 Y-11.394
G1 Z-0.1 F120
G1 X24.292 Y-11.394 F120
G0 Z5
G0 X24.292 Y-11.394
G1 Z-0.1 F120
G1 X24.292 Y-6.89399 F120
G0 Z5
G0 X24.2824 Y-6.88339
G1 Z-0.1 F120
G1 X12.80159 Y-6.88339 F120
G0 Z5
G0 X12.79199 Y-0.54399
G1 Z-0.1 F120
G1 X12.79199 Y-5.044 F120
G0 Z5
G0 X12.79199 Y-5.044
G1 Z-0.1 F120
G1 X24.292 Y-5.044 F120
G0 Z5
G0 X24.292 Y-5.044
G1 Z-0.1 F120
G1 X24.292 Y-0.54399 F120
G0 Z5
G0 X24.2824 Y-0.53339
G1 Z-0.1 F120
G1 X12.80159 Y-0.53339 F120
G0 Z5
G0 X31.877 Y-1.524
G1 Z-0.1 F120
G1 X35.687 Y-1.524 F120
G0 Z5
G0 X35.306 Y-5.2832
G1 Z-0.1 F120
G1 X35.306 Y-4.5212 F120
G0 Z5
G0 X34.925 Y-4.9022
G1 Z-0.1 F120
G1 X35.687 Y-4.9022 F120
G0 Z5
G0 X31.308195556821225 Y-2.073794840497854
G1 Z-0.1 F120
G1 X31.877 Y-1.5239999999999991 F120
G0 Z5
G0 X30.892966773552374 Y-2.747143129842265
G1 Z-0.1 F120
G1 X31.308195556821225 Y-2.073794840497854 F120
G0 Z5
G0 X30.657091368630297 Y-3.5022428944898403
G1 Z-0.1 F120
G1 X30.892966773552374 Y-2.747143129842265 F120
G0 Z5
G0 X30.615212666456536 Y-4.29221696717971
G1 Z-0.1 F120
G1 X30.657091368630297 Y-3.5022428944898403 F120
G0 Z5
G0 X30.769930528689613 Y-5.068023157103458
G1 Z-0.1 F120
G1 X30.615212666456536 Y-4.29221696717971 F120
G0 Z5
G0 X31.111639952857402 Y-5.781498826382304
G1 Z-0.1 F120
G1 X30.769930528689613 Y-5.068023157103458 F120
G0 Z5
G0 X31.61912735821033 Y-6.388350863229945
G1 Z-0.1 F120
G1 X31.111639952857402 Y-5.781498826382304 F120
G0 Z5
G0 X32.26088754093653 Y-6.850905431994761
G1 Z-0.1 F120
G1 X31.61912735821033 Y-6.388350863229945 F120
G0 Z5
G0 X32.997079541158264 Y-7.140446793508979
G1 Z-0.1 F120
G1 X32.26088754093653 Y-6.850905431994761 F120
G0 Z5
G0 X33.782 Y-7.239
G1 Z-0.1 F120
G1 X32.997079541158264 Y-7.140446793508979 F120
G0 Z5
G0 X34.56692045884173 Y-7.14044679350898
G1 Z-0.1 F120
G1 X33.782 Y-7.239 F120
G0 Z5
G0 X35.303112459063456 Y-6.850905431994764
G1 Z-0.1 F120
G1 X34.56692045884173 Y-7.14044679350898 F120
G0 Z5
G0 X35.94487264178966 Y-6.388350863229947
G1 Z-0.1 F120
G1 X35.303112459063456 Y-6.850905431994764 F120
G0 Z5
G0 X36.45236004714259 Y-5.7814988263823075
G1 Z-0.1 F120
G1 X35.94487264178966 Y-6.388350863229947 F120
G0 Z5
G0 X36.79406947131038 Y-5.068023157103461
G1 Z-0.1 F120
G1 X36.45236004714259 Y-5.7814988263823075 F120
G0 Z5
G0 X36.94878733354346 Y-4.292216967179714
G1 Z-0.1 F120
G1 X36.79406947131038 Y-5.068023157103461 F120
G0 Z5
G0 X36.906908631369696 Y-3.502242894489847
G1 Z-0.1 F120
G1 X36.94878733354346 Y-4.292216967179714 F120
G0 Z5
G0 X36.671033226447626 Y-2.7471431298422697
G1 Z-0.1 F120
G1 X36.906908631369696 Y-3.502242894489847 F120
G0 Z5
G0 X36.25580444317877 Y-2.073794840497857
G1 Z-0.1 F120
G1 X36.671033226447626 Y-2.7471431298422697 F120
G0 Z5
G0 X35.687 Y-1.5240000000000005
G1 Z-0.1 F120
G1 X36.25580444317877 Y-2.073794840497857 F120
G0 Z5
G0 X36.197683551389694 Y-4.8489031657123665
G1 Z-0.1 F120
G1 X36.322 Y-4.064 F120
G0 Z5
G0 X35.83690316571237 Y-5.556974540822882
G1 Z-0.1 F120
G1 X36.197683551389694 Y-4.8489031657123665 F120
G0 Z5
G0 X35.27497454082288 Y-6.118903165712366
G1 Z-0.1 F120
G1 X35.83690316571237 Y-5.556974540822882 F120
G0 Z5
G0 X34.56690316571237 Y-6.47968355138969
G1 Z-0.1 F120
G1 X35.27497454082288 Y-6.118903165712366 F120
G0 Z5
G0 X33.782000000000004 Y-6.604
G1 Z-0.1 F120
G1 X34.56690316571237 Y-6.47968355138969 F120
G0 Z5
G0 X32.99709683428764 Y-6.479683551389691
G1 Z-0.1 F120
G1 X33.782000000000004 Y-6.604 F120
G0 Z5
G0 X32.289025459177125 Y-6.118903165712366
G1 Z-0.1 F120
G1 X32.99709683428764 Y-6.479683551389691 F120
G0 Z5
G0 X31.727096834287636 Y-5.556974540822882
G1 Z-0.1 F120
G1 X32.289025459177125 Y-6.118903165712366 F120
G0 Z5
G0 X31.366316448610313 Y-4.8489031657123665
G1 Z-0.1 F120
G1 X31.727096834287636 Y-5.556974540822882 F120
G0 Z5
G0 X31.242000000000004 Y-4.064
G1 Z-0.1 F120
G1 X31.366316448610313 Y-4.8489031657123665 F120
G0 Z5
G0 X31.366316448610313 Y-3.279096834287634
G1 Z-0.1 F120
G1 X31.242000000000004 Y-4.064 F120
G0 Z5
G0 X31.727096834287636 Y-2.571025459177118
G1 Z-0.1 F120
G1 X31.366316448610313 Y-3.279096834287634 F120
G0 Z5
G0 X32.28902545917712 Y-2.0090968342876336
G1 Z-0.1 F120
G1 X31.727096834287636 Y-2.571025459177118 F120
G0 Z5
G0 X32.99709683428764 Y-1.6483164486103101
G1 Z-0.1 F120
G1 X32.28902545917712 Y-2.0090968342876336 F120
G0 Z5
G0 X33.782000000000004 Y-1.524
G1 Z-0.1 F120
G1 X32.99709683428764 Y-1.6483164486103101 F120
G0 Z5
G0 X34.56690316571237 Y-1.6483164486103097
G1 Z-0.1 F120
G1 X33.782000000000004 Y-1.524 F120
G0 Z5
G0 X35.27497454082288 Y-2.009096834287633
G1 Z-0.1 F120
G1 X34.56690316571237 Y-1.6483164486103097 F120
G0 Z5
G0 X35.83690316571237 Y-2.5710254591771178
G1 Z-0.1 F120
G1 X35.27497454082288 Y-2.009096834287633 F120
G0 Z5
G0 X36.197683551389694 Y-3.279096834287633
G1 Z-0.1 F120
G1 X35.83690316571237 Y-2.5710254591771178 F120
G0 Z5
G0 X36.322 Y-4.063999999999999
G1 Z-0.1 F120
G1 X36.197683551389694 Y-3.279096834287633 F120
M30