
;Header Start
;header_type: cnc
;tool_head: levelTwoCNCToolheadForSM2
;machine: A400
;gcode_flavor: marlin
;renderMethod: line
;max_power: 255
;file_total_lines: FILE_TOTAL_LINE_COUNT
;estimated_time(s): ESTIMATED_TIME
;is_rotate: false
;diameter: 0
;max_x(mm): 50.99992
;max_y(mm): 81.99983
;max_z(mm): 80
;max_b(mm): 0
;min_x(mm): -1
;min_y(mm): -1
;min_b(mm): 0
;min_z(mm): -3.5
;work_speed(mm/minute): 240.0
;jog_speed(mm/minute): 1500.0
;power(%): 0
;work_size_x: 400
;work_size_y: 400
;origin: bottom-left
;Header End
;PCB_To_CNC v0.3
; Made by Daniel Dobromylskyj (https://www.github.com/DanielDobromylskyj)
; G-code START <<<
G0 X0 Y0 Z5
G0 Z5
G0 X40.37584 Y-32.893
G1 Z-0.1 F120
G1 X41.15562 Y-32.893 F120
G0 Z5
G0 X41.15562 Y-32.893
G1 Z-0.1 F120
G1 X41.31056 Y-32.94379 F120
G0 Z5
G0 X41.31056 Y-32.94379
G1 Z-0.1 F120
G1 X41.4147 Y-33.04793 F120
G0 Z5
G0 X41.4147 Y-33.04793
G1 Z-0.1 F120
G1 X41.4655 Y-33.20542 F120
G0 Z5
G0 X41.4655 Y-33.20542
G1 Z-0.1 F120
G1 X41.4655 Y-33.30955 F120
G0 Z5
G0 X41.4655 Y-33.30955
G1 Z-0.1 F120
G1 X41.4147 Y-33.4645 F120
G0 Z5
G0 X41.4147 Y-33.4645
G1 Z-0.1 F120
G1 X41.31056 Y-33.56863 F120
G0 Z5
G0 X41.31056 Y-33.56863
G1 Z-0.1 F120
G1 X41.15562 Y-33.61943 F120
G0 Z5
G0 X41.15562 Y-33.61943
G1 Z-0.1 F120
G1 X40.37584 Y-33.61943 F120
G0 Z5
G0 X40.37584 Y-34.48303
G1 Z-0.1 F120
G1 X41.10228 Y-33.96234 F120
G0 Z5
G0 X41.10228 Y-33.96234
G1 Z-0.1 F120
G1 X41.10228 Y-34.74211 F120
G0 Z5
G0 X40.37584 Y-34.48303
G1 Z-0.1 F120
G1 X41.4655 Y-34.48303 F120
G0 Z5
G0 X22.34184 Y-34.798
G1 Z-0.1 F120
G1 X23.12162 Y-34.798 F120
G0 Z5
G0 X23.12162 Y-34.798
G1 Z-0.1 F120
G1 X23.27656 Y-34.84879 F120
G0 Z5
G0 X23.27656 Y-34.84879
G1 Z-0.1 F120
G1 X23.3807 Y-34.95293 F120
G0 Z5
G0 X23.3807 Y-34.95293
G1 Z-0.1 F120
G1 X23.4315 Y-35.11042 F120
G0 Z5
G0 X23.4315 Y-35.11042
G1 Z-0.1 F120
G1 X23.4315 Y-35.21455 F120
G0 Z5
G0 X23.4315 Y-35.21455
G1 Z-0.1 F120
G1 X23.3807 Y-35.3695 F120
G0 Z5
G0 X23.3807 Y-35.3695
G1 Z-0.1 F120
G1 X23.27656 Y-35.47363 F120
G0 Z5
G0 X23.27656 Y-35.47363
G1 Z-0.1 F120
G1 X23.12162 Y-35.52443 F120
G0 Z5
G0 X23.12162 Y-35.52443
G1 Z-0.1 F120
G1 X22.34184 Y-35.52443 F120
G0 Z5
G0 X22.55012 Y-35.86734
G1 Z-0.1 F120
G1 X22.49678 Y-35.97147 F120
G0 Z5
G0 X22.49678 Y-35.97147
G1 Z-0.1 F120
G1 X22.34184 Y-36.12895 F120
G0 Z5
G0 X22.34184 Y-36.12895
G1 Z-0.1 F120
G1 X23.4315 Y-36.12895 F120
G0 Z5
G0 X4.1148 Y-27.18815
G1 Z-0.1 F120
G1 X4.1148 Y-26.0985 F120
G0 Z5
G0 X4.1148 Y-26.0985
G1 Z-0.1 F120
G1 X4.7371 Y-26.0985 F120
G0 Z5
G0 X5.08 Y-27.18815
G1 Z-0.1 F120
G1 X5.08 Y-26.0985 F120
G0 Z5
G0 X5.08 Y-27.18815
G1 Z-0.1 F120
G1 X5.75564 Y-27.18815 F120
G0 Z5
G0 X5.08 Y-26.67
G1 Z-0.1 F120
G1 X5.49656 Y-26.67 F120
G0 Z5
G0 X5.08 Y-26.0985
G1 Z-0.1 F120
G1 X5.75564 Y-26.0985 F120
G0 Z5
G0 X6.09854 Y-27.18815
G1 Z-0.1 F120
G1 X6.09854 Y-26.0985 F120
G0 Z5
G0 X6.09854 Y-27.18815
G1 Z-0.1 F120
G1 X6.4643 Y-27.18815 F120
G0 Z5
G0 X6.4643 Y-27.18815
G1 Z-0.1 F120
G1 X6.61924 Y-27.13735 F120
G0 Z5
G0 X6.61924 Y-27.13735
G1 Z-0.1 F120
G1 X6.72338 Y-27.03321 F120
G0 Z5
G0 X6.72338 Y-27.03321
G1 Z-0.1 F120
G1 X6.77418 Y-26.92907 F120
G0 Z5
G0 X6.77418 Y-26.92907
G1 Z-0.1 F120
G1 X6.82752 Y-26.77159 F120
G0 Z5
G0 X6.82752 Y-26.77159
G1 Z-0.1 F120
G1 X6.82752 Y-26.51251 F120
G0 Z5
G0 X6.82752 Y-26.51251
G1 Z-0.1 F120
G1 X6.77418 Y-26.35757 F120
G0 Z5
G0 X6.77418 Y-26.35757
G1 Z-0.1 F120
G1 X6.72338 Y-26.25343 F120
G0 Z5
G0 X6.72338 Y-26.25343
G1 Z-0.1 F120
G1 X6.61924 Y-26.14929 F120
G0 Z5
G0 X6.61924 Y-26.14929
G1 Z-0.1 F120
G1 X6.4643 Y-26.0985 F120
G0 Z5
G0 X6.4643 Y-26.0985
G1 Z-0.1 F120
G1 X6.09854 Y-26.0985 F120
G0 Z5
G0 X7.22122 Y-26.92907
G1 Z-0.1 F120
G1 X7.22122 Y-26.97987 F120
G0 Z5
G0 X7.22122 Y-26.97987
G1 Z-0.1 F120
G1 X7.27456 Y-27.08401 F120
G0 Z5
G0 X7.27456 Y-27.08401
G1 Z-0.1 F120
G1 X7.32536 Y-27.13735 F120
G0 Z5
G0 X7.32536 Y-27.13735
G1 Z-0.1 F120
G1 X7.4295 Y-27.18815 F120
G0 Z5
G0 X7.4295 Y-27.18815
G1 Z-0.1 F120
G1 X7.63778 Y-27.18815 F120
G0 Z5
G0 X7.63778 Y-27.18815
G1 Z-0.1 F120
G1 X7.74192 Y-27.13735 F120
G0 Z5
G0 X7.74192 Y-27.13735
G1 Z-0.1 F120
G1 X7.79272 Y-27.08401 F120
G0 Z5
G0 X7.79272 Y-27.08401
G1 Z-0.1 F120
G1 X7.84606 Y-26.97987 F120
G0 Z5
G0 X7.84606 Y-26.97987
G1 Z-0.1 F120
G1 X7.84606 Y-26.87573 F120
G0 Z5
G0 X7.84606 Y-26.87573
G1 Z-0.1 F120
G1 X7.79272 Y-26.77159 F120
G0 Z5
G0 X7.79272 Y-26.77159
G1 Z-0.1 F120
G1 X7.68858 Y-26.61665 F120
G0 Z5
G0 X7.68858 Y-26.61665
G1 Z-0.1 F120
G1 X7.17042 Y-26.0985 F120
G0 Z5
G0 X7.17042 Y-26.0985
G1 Z-0.1 F120
G1 X7.89686 Y-26.0985 F120
G0 Z5
G0 X4.1148 Y-35.57015
G1 Z-0.1 F120
G1 X4.1148 Y-34.4805 F120
G0 Z5
G0 X4.1148 Y-34.4805
G1 Z-0.1 F120
G1 X4.7371 Y-34.4805 F120
G0 Z5
G0 X5.08 Y-35.57015
G1 Z-0.1 F120
G1 X5.08 Y-34.4805 F120
G0 Z5
G0 X5.08 Y-35.57015
G1 Z-0.1 F120
G1 X5.75564 Y-35.57015 F120
G0 Z5
G0 X5.08 Y-35.052
G1 Z-0.1 F120
G1 X5.49656 Y-35.052 F120
G0 Z5
G0 X5.08 Y-34.4805
G1 Z-0.1 F120
G1 X5.75564 Y-34.4805 F120
G0 Z5
G0 X6.09854 Y-35.57015
G1 Z-0.1 F120
G1 X6.09854 Y-34.4805 F120
G0 Z5
G0 X6.09854 Y-35.57015
G1 Z-0.1 F120
G1 X6.4643 Y-35.57015 F120
G0 Z5
G0 X6.4643 Y-35.57015
G1 Z-0.1 F120
G1 X6.61924 Y-35.51935 F120
G0 Z5
G0 X6.61924 Y-35.51935
G1 Z-0.1 F120
G1 X6.72338 Y-35.41521 F120
G0 Z5
G0 X6.72338 Y-35.41521
G1 Z-0.1 F120
G1 X6.77418 Y-35.31107 F120
G0 Z5
G0 X6.77418 Y-35.31107
G1 Z-0.1 F120
G1 X6.82752 Y-35.15359 F120
G0 Z5
G0 X6.82752 Y-35.15359
G1 Z-0.1 F120
G1 X6.82752 Y-34.89451 F120
G0 Z5
G0 X6.82752 Y-34.89451
G1 Z-0.1 F120
G1 X6.77418 Y-34.73957 F120
G0 Z5
G0 X6.77418 Y-34.73957
G1 Z-0.1 F120
G1 X6.72338 Y-34.63543 F120
G0 Z5
G0 X6.72338 Y-34.63543
G1 Z-0.1 F120
G1 X6.61924 Y-34.53129 F120
G0 Z5
G0 X6.61924 Y-34.53129
G1 Z-0.1 F120
G1 X6.4643 Y-34.4805 F120
G0 Z5
G0 X6.4643 Y-34.4805
G1 Z-0.1 F120
G1 X6.09854 Y-34.4805 F120
G0 Z5
G0 X7.27456 Y-35.57015
G1 Z-0.1 F120
G1 X7.84606 Y-35.57015 F120
G0 Z5
G0 X7.84606 Y-35.57015
G1 Z-0.1 F120
G1 X7.53364 Y-35.15359 F120
G0 Z5
G0 X7.53364 Y-35.15359
G1 Z-0.1 F120
G1 X7.68858 Y-35.15359 F120
G0 Z5
G0 X7.68858 Y-35.15359
G1 Z-0.1 F120
G1 X7.79272 Y-35.10279 F120
G0 Z5
G0 X7.79272 Y-35.10279
G1 Z-0.1 F120
G1 X7.84606 Y-35.052 F120
G0 Z5
G0 X7.84606 Y-35.052
G1 Z-0.1 F120
G1 X7.89686 Y-34.89451 F120
G0 Z5
G0 X7.89686 Y-34.89451
G1 Z-0.1 F120
G1 X7.89686 Y-34.79037 F120
G0 Z5
G0 X7.89686 Y-34.79037
G1 Z-0.1 F120
G1 X7.84606 Y-34.63543 F120
G0 Z5
G0 X7.84606 Y-34.63543
G1 Z-0.1 F120
G1 X7.74192 Y-34.53129 F120
G0 Z5
G0 X7.74192 Y-34.53129
G1 Z-0.1 F120
G1 X7.58444 Y-34.4805 F120
G0 Z5
G0 X7.58444 Y-34.4805
G1 Z-0.1 F120
G1 X7.4295 Y-34.4805 F120
G0 Z5
G0 X7.4295 Y-34.4805
G1 Z-0.1 F120
G1 X7.27456 Y-34.53129 F120
G0 Z5
G0 X7.27456 Y-34.53129
G1 Z-0.1 F120
G1 X7.22122 Y-34.58209 F120
G0 Z5
G0 X7.22122 Y-34.58209
G1 Z-0.1 F120
G1 X7.17042 Y-34.68623 F120
G0 Z5
G0 X4.1148 Y-44.20615
G1 Z-0.1 F120
G1 X4.1148 Y-43.1165 F120
G0 Z5
G0 X4.1148 Y-43.1165
G1 Z-0.1 F120
G1 X4.7371 Y-43.1165 F120
G0 Z5
G0 X5.08 Y-44.20615
G1 Z-0.1 F120
G1 X5.08 Y-43.1165 F120
G0 Z5
G0 X5.08 Y-44.20615
G1 Z-0.1 F120
G1 X5.75564 Y-44.20615 F120
G0 Z5
G0 X5.08 Y-43.688
G1 Z-0.1 F120
G1 X5.49656 Y-43.688 F120
G0 Z5
G0 X5.08 Y-43.1165
G1 Z-0.1 F120
G1 X5.75564 Y-43.1165 F120
G0 Z5
G0 X6.09854 Y-44.20615
G1 Z-0.1 F120
G1 X6.09854 Y-43.1165 F120
G0 Z5
G0 X6.09854 Y-44.20615
G1 Z-0.1 F120
G1 X6.4643 Y-44.20615 F120
G0 Z5
G0 X6.4643 Y-44.20615
G1 Z-0.1 F120
G1 X6.61924 Y-44.15535 F120
G0 Z5
G0 X6.61924 Y-44.15535
G1 Z-0.1 F120
G1 X6.72338 Y-44.05121 F120
G0 Z5
G0 X6.72338 Y-44.05121
G1 Z-0.1 F120
G1 X6.77418 Y-43.94707 F120
G0 Z5
G0 X6.77418 Y-43.94707
G1 Z-0.1 F120
G1 X6.82752 Y-43.78959 F120
G0 Z5
G0 X6.82752 Y-43.78959
G1 Z-0.1 F120
G1 X6.82752 Y-43.53051 F120
G0 Z5
G0 X6.82752 Y-43.53051
G1 Z-0.1 F120
G1 X6.77418 Y-43.37557 F120
G0 Z5
G0 X6.77418 Y-43.37557
G1 Z-0.1 F120
G1 X6.72338 Y-43.27143 F120
G0 Z5
G0 X6.72338 Y-43.27143
G1 Z-0.1 F120
G1 X6.61924 Y-43.16729 F120
G0 Z5
G0 X6.61924 Y-43.16729
G1 Z-0.1 F120
G1 X6.4643 Y-43.1165 F120
G0 Z5
G0 X6.4643 Y-43.1165
G1 Z-0.1 F120
G1 X6.09854 Y-43.1165 F120
G0 Z5
G0 X7.68858 Y-44.20615
G1 Z-0.1 F120
G1 X7.17042 Y-43.47971 F120
G0 Z5
G0 X7.17042 Y-43.47971
G1 Z-0.1 F120
G1 X7.9502 Y-43.47971 F120
G0 Z5
G0 X7.68858 Y-44.20615
G1 Z-0.1 F120
G1 X7.68858 Y-43.1165 F120
G0 Z5
G0 X4.1148 Y-52.58815
G1 Z-0.1 F120
G1 X4.1148 Y-51.4985 F120
G0 Z5
G0 X4.1148 Y-51.4985
G1 Z-0.1 F120
G1 X4.7371 Y-51.4985 F120
G0 Z5
G0 X5.08 Y-52.58815
G1 Z-0.1 F120
G1 X5.08 Y-51.4985 F120
G0 Z5
G0 X5.08 Y-52.58815
G1 Z-0.1 F120
G1 X5.75564 Y-52.58815 F120
G0 Z5
G0 X5.08 Y-52.07
G1 Z-0.1 F120
G1 X5.49656 Y-52.07 F120
G0 Z5
G0 X5.08 Y-51.4985
G1 Z-0.1 F120
G1 X5.75564 Y-51.4985 F120
G0 Z5
G0 X6.09854 Y-52.58815
G1 Z-0.1 F120
G1 X6.09854 Y-51.4985 F120
G0 Z5
G0 X6.09854 Y-52.58815
G1 Z-0.1 F120
G1 X6.4643 Y-52.58815 F120
G0 Z5
G0 X6.4643 Y-52.58815
G1 Z-0.1 F120
G1 X6.61924 Y-52.53735 F120
G0 Z5
G0 X6.61924 Y-52.53735
G1 Z-0.1 F120
G1 X6.72338 Y-52.43321 F120
G0 Z5
G0 X6.72338 Y-52.43321
G1 Z-0.1 F120
G1 X6.77418 Y-52.32907 F120
G0 Z5
G0 X6.77418 Y-52.32907
G1 Z-0.1 F120
G1 X6.82752 Y-52.17159 F120
G0 Z5
G0 X6.82752 Y-52.17159
G1 Z-0.1 F120
G1 X6.82752 Y-51.91251 F120
G0 Z5
G0 X6.82752 Y-51.91251
G1 Z-0.1 F120
G1 X6.77418 Y-51.75757 F120
G0 Z5
G0 X6.77418 Y-51.75757
G1 Z-0.1 F120
G1 X6.72338 Y-51.65343 F120
G0 Z5
G0 X6.72338 Y-51.65343
G1 Z-0.1 F120
G1 X6.61924 Y-51.54929 F120
G0 Z5
G0 X6.61924 Y-51.54929
G1 Z-0.1 F120
G1 X6.4643 Y-51.4985 F120
G0 Z5
G0 X6.4643 Y-51.4985
G1 Z-0.1 F120
G1 X6.09854 Y-51.4985 F120
G0 Z5
G0 X7.79272 Y-52.58815
G1 Z-0.1 F120
G1 X7.27456 Y-52.58815 F120
G0 Z5
G0 X7.27456 Y-52.58815
G1 Z-0.1 F120
G1 X7.22122 Y-52.12079 F120
G0 Z5
G0 X7.22122 Y-52.12079
G1 Z-0.1 F120
G1 X7.27456 Y-52.17159 F120
G0 Z5
G0 X7.27456 Y-52.17159
G1 Z-0.1 F120
G1 X7.4295 Y-52.22493 F120
G0 Z5
G0 X7.4295 Y-52.22493
G1 Z-0.1 F120
G1 X7.58444 Y-52.22493 F120
G0 Z5
G0 X7.58444 Y-52.22493
G1 Z-0.1 F120
G1 X7.74192 Y-52.17159 F120
G0 Z5
G0 X7.74192 Y-52.17159
G1 Z-0.1 F120
G1 X7.84606 Y-52.07 F120
G0 Z5
G0 X7.84606 Y-52.07
G1 Z-0.1 F120
G1 X7.89686 Y-51.91251 F120
G0 Z5
G0 X7.89686 Y-51.91251
G1 Z-0.1 F120
G1 X7.89686 Y-51.80837 F120
G0 Z5
G0 X7.89686 Y-51.80837
G1 Z-0.1 F120
G1 X7.84606 Y-51.65343 F120
G0 Z5
G0 X7.84606 Y-51.65343
G1 Z-0.1 F120
G1 X7.74192 Y-51.54929 F120
G0 Z5
G0 X7.74192 Y-51.54929
G1 Z-0.1 F120
G1 X7.58444 Y-51.4985 F120
G0 Z5
G0 X7.58444 Y-51.4985
G1 Z-0.1 F120
G1 X7.4295 Y-51.4985 F120
G0 Z5
G0 X7.4295 Y-51.4985
G1 Z-0.1 F120
G1 X7.27456 Y-51.54929 F120
G0 Z5
G0 X7.27456 Y-51.54929
G1 Z-0.1 F120
G1 X7.22122 Y-51.60009 F120
G0 Z5
G0 X7.22122 Y-51.60009
G1 Z-0.1 F120
G1 X7.17042 Y-51.70423 F120
G0 Z5
G0 X4.1148 Y-61.73215
G1 Z-0.1 F120
G1 X4.1148 Y-60.6425 F120
G0 Z5
G0 X4.1148 Y-60.6425
G1 Z-0.1 F120
G1 X4.7371 Y-60.6425 F120
G0 Z5
G0 X5.08 Y-61.73215
G1 Z-0.1 F120
G1 X5.08 Y-60.6425 F120
G0 Z5
G0 X5.08 Y-61.73215
G1 Z-0.1 F120
G1 X5.75564 Y-61.73215 F120
G0 Z5
G0 X5.08 Y-61.214
G1 Z-0.1 F120
G1 X5.49656 Y-61.214 F120
G0 Z5
G0 X5.08 Y-60.6425
G1 Z-0.1 F120
G1 X5.75564 Y-60.6425 F120
G0 Z5
G0 X6.09854 Y-61.73215
G1 Z-0.1 F120
G1 X6.09854 Y-60.6425 F120
G0 Z5
G0 X6.09854 Y-61.73215
G1 Z-0.1 F120
G1 X6.4643 Y-61.73215 F120
G0 Z5
G0 X6.4643 Y-61.73215
G1 Z-0.1 F120
G1 X6.61924 Y-61.68135 F120
G0 Z5
G0 X6.61924 Y-61.68135
G1 Z-0.1 F120
G1 X6.72338 Y-61.57721 F120
G0 Z5
G0 X6.72338 Y-61.57721
G1 Z-0.1 F120
G1 X6.77418 Y-61.47307 F120
G0 Z5
G0 X6.77418 Y-61.47307
G1 Z-0.1 F120
G1 X6.82752 Y-61.31559 F120
G0 Z5
G0 X6.82752 Y-61.31559
G1 Z-0.1 F120
G1 X6.82752 Y-61.05651 F120
G0 Z5
G0 X6.82752 Y-61.05651
G1 Z-0.1 F120
G1 X6.77418 Y-60.90157 F120
G0 Z5
G0 X6.77418 Y-60.90157
G1 Z-0.1 F120
G1 X6.72338 Y-60.79743 F120
G0 Z5
G0 X6.72338 Y-60.79743
G1 Z-0.1 F120
G1 X6.61924 Y-60.69329 F120
G0 Z5
G0 X6.61924 Y-60.69329
G1 Z-0.1 F120
G1 X6.4643 Y-60.6425 F120
G0 Z5
G0 X6.4643 Y-60.6425
G1 Z-0.1 F120
G1 X6.09854 Y-60.6425 F120
G0 Z5
G0 X7.79272 Y-61.57721
G1 Z-0.1 F120
G1 X7.74192 Y-61.68135 F120
G0 Z5
G0 X7.74192 Y-61.68135
G1 Z-0.1 F120
G1 X7.58444 Y-61.73215 F120
G0 Z5
G0 X7.58444 Y-61.73215
G1 Z-0.1 F120
G1 X7.4803 Y-61.73215 F120
G0 Z5
G0 X7.4803 Y-61.73215
G1 Z-0.1 F120
G1 X7.32536 Y-61.68135 F120
G0 Z5
G0 X7.32536 Y-61.68135
G1 Z-0.1 F120
G1 X7.22122 Y-61.52387 F120
G0 Z5
G0 X7.22122 Y-61.52387
G1 Z-0.1 F120
G1 X7.17042 Y-61.26479 F120
G0 Z5
G0 X7.17042 Y-61.26479
G1 Z-0.1 F120
G1 X7.17042 Y-61.00571 F120
G0 Z5
G0 X7.17042 Y-61.00571
G1 Z-0.1 F120
G1 X7.22122 Y-60.79743 F120
G0 Z5
G0 X7.22122 Y-60.79743
G1 Z-0.1 F120
G1 X7.32536 Y-60.69329 F120
G0 Z5
G0 X7.32536 Y-60.69329
G1 Z-0.1 F120
G1 X7.4803 Y-60.6425 F120
G0 Z5
G0 X7.4803 Y-60.6425
G1 Z-0.1 F120
G1 X7.53364 Y-60.6425 F120
G0 Z5
G0 X7.53364 Y-60.6425
G1 Z-0.1 F120
G1 X7.68858 Y-60.69329 F120
G0 Z5
G0 X7.68858 Y-60.69329
G1 Z-0.1 F120
G1 X7.79272 Y-60.79743 F120
G0 Z5
G0 X7.79272 Y-60.79743
G1 Z-0.1 F120
G1 X7.84606 Y-60.95237 F120
G0 Z5
G0 X7.84606 Y-60.95237
G1 Z-0.1 F120
G1 X7.84606 Y-61.00571 F120
G0 Z5
G0 X7.84606 Y-61.00571
G1 Z-0.1 F120
G1 X7.79272 Y-61.16065 F120
G0 Z5
G0 X7.79272 Y-61.16065
G1 Z-0.1 F120
G1 X7.68858 Y-61.26479 F120
G0 Z5
G0 X7.68858 Y-61.26479
G1 Z-0.1 F120
G1 X7.53364 Y-61.31559 F120
G0 Z5
G0 X7.53364 Y-61.31559
G1 Z-0.1 F120
G1 X7.4803 Y-61.31559 F120
G0 Z5
G0 X7.4803 Y-61.31559
G1 Z-0.1 F120
G1 X7.32536 Y-61.26479 F120
G0 Z5
G0 X7.32536 Y-61.26479
G1 Z-0.1 F120
G1 X7.22122 Y-61.16065 F120
G0 Z5
G0 X7.22122 Y-61.16065
G1 Z-0.1 F120
G1 X7.17042 Y-61.00571 F120
G0 Z5
G0 X4.1148 Y-18.80615
G1 Z-0.1 F120
G1 X4.1148 Y-17.7165 F120
G0 Z5
G0 X4.1148 Y-17.7165
G1 Z-0.1 F120
G1 X4.7371 Y-17.7165 F120
G0 Z5
G0 X5.08 Y-18.80615
G1 Z-0.1 F120
G1 X5.08 Y-17.7165 F120
G0 Z5
G0 X5.08 Y-18.80615
G1 Z-0.1 F120
G1 X5.75564 Y-18.80615 F120
G0 Z5
G0 X5.08 Y-18.288
G1 Z-0.1 F120
G1 X5.49656 Y-18.288 F120
G0 Z5
G0 X5.08 Y-17.7165
G1 Z-0.1 F120
G1 X5.75564 Y-17.7165 F120
G0 Z5
G0 X6.09854 Y-18.80615
G1 Z-0.1 F120
G1 X6.09854 Y-17.7165 F120
G0 Z5
G0 X6.09854 Y-18.80615
G1 Z-0.1 F120
G1 X6.46176 Y-18.80615 F120
G0 Z5
G0 X6.46176 Y-18.80615
G1 Z-0.1 F120
G1 X6.61924 Y-18.75535 F120
G0 Z5
G0 X6.61924 Y-18.75535
G1 Z-0.1 F120
G1 X6.72338 Y-18.65121 F120
G0 Z5
G0 X6.72338 Y-18.65121
G1 Z-0.1 F120
G1 X6.77418 Y-18.54707 F120
G0 Z5
G0 X6.77418 Y-18.54707
G1 Z-0.1 F120
G1 X6.82752 Y-18.38959 F120
G0 Z5
G0 X6.82752 Y-18.38959
G1 Z-0.1 F120
G1 X6.82752 Y-18.13051 F120
G0 Z5
G0 X6.82752 Y-18.13051
G1 Z-0.1 F120
G1 X6.77418 Y-17.97557 F120
G0 Z5
G0 X6.77418 Y-17.97557
G1 Z-0.1 F120
G1 X6.72338 Y-17.87143 F120
G0 Z5
G0 X6.72338 Y-17.87143
G1 Z-0.1 F120
G1 X6.61924 Y-17.76729 F120
G0 Z5
G0 X6.61924 Y-17.76729
G1 Z-0.1 F120
G1 X6.46176 Y-17.7165 F120
G0 Z5
G0 X6.46176 Y-17.7165
G1 Z-0.1 F120
G1 X6.09854 Y-17.7165 F120
G0 Z5
G0 X7.17042 Y-18.59787
G1 Z-0.1 F120
G1 X7.27456 Y-18.65121 F120
G0 Z5
G0 X7.27456 Y-18.65121
G1 Z-0.1 F120
G1 X7.4295 Y-18.80615 F120
G0 Z5
G0 X7.4295 Y-18.80615
G1 Z-0.1 F120
G1 X7.4295 Y-17.7165 F120
G0 Z5
G0 X43.434 Y-23.94838
G1 Z-0.1 F120
G1 X43.88866 Y-24.17444 F120
G0 Z5
G0 X43.88866 Y-24.17444
G1 Z-0.1 F120
G1 X44.56938 Y-24.8577 F120
G0 Z5
G0 X44.56938 Y-24.8577
G1 Z-0.1 F120
G1 X44.56938 Y-20.08504 F120
G0 Z5
G0 X46.07052 Y-24.8577
G1 Z-0.1 F120
G1 X46.07052 Y-20.08504 F120
G0 Z5
G0 X49.25314 Y-24.8577
G1 Z-0.1 F120
G1 X46.07052 Y-21.67509 F120
G0 Z5
G0 X47.2059 Y-22.813
G1 Z-0.1 F120
G1 X49.25314 Y-20.08504 F120
G0 Z5
G0 X21.463 Y-63.44284
G1 Z-0.1 F120
G1 X21.73478 Y-63.57746 F120
G0 Z5
G0 X21.73478 Y-63.57746
G1 Z-0.1 F120
G1 X22.14372 Y-63.9864 F120
G0 Z5
G0 X22.14372 Y-63.9864
G1 Z-0.1 F120
G1 X22.14372 Y-61.12382 F120
G0 Z5
G0 X23.8633 Y-63.9864
G1 Z-0.1 F120
G1 X23.45436 Y-63.85178 F120
G0 Z5
G0 X23.45436 Y-63.85178
G1 Z-0.1 F120
G1 X23.18004 Y-63.44284 F120
G0 Z5
G0 X23.18004 Y-63.44284
G1 Z-0.1 F120
G1 X23.04542 Y-62.75959 F120
G0 Z5
G0 X23.04542 Y-62.75959
G1 Z-0.1 F120
G1 X23.04542 Y-62.35064 F120
G0 Z5
G0 X23.04542 Y-62.35064
G1 Z-0.1 F120
G1 X23.18004 Y-61.66992 F120
G0 Z5
G0 X23.18004 Y-61.66992
G1 Z-0.1 F120
G1 X23.45436 Y-61.26098 F120
G0 Z5
G0 X23.45436 Y-61.26098
G1 Z-0.1 F120
G1 X23.8633 Y-61.12382 F120
G0 Z5
G0 X23.8633 Y-61.12382
G1 Z-0.1 F120
G1 X24.13508 Y-61.12382 F120
G0 Z5
G0 X24.13508 Y-61.12382
G1 Z-0.1 F120
G1 X24.54402 Y-61.26098 F120
G0 Z5
G0 X24.54402 Y-61.26098
G1 Z-0.1 F120
G1 X24.81834 Y-61.66992 F120
G0 Z5
G0 X24.81834 Y-61.66992
G1 Z-0.1 F120
G1 X24.95296 Y-62.35064 F120
G0 Z5
G0 X24.95296 Y-62.35064
G1 Z-0.1 F120
G1 X24.95296 Y-62.75959 F120
G0 Z5
G0 X24.95296 Y-62.75959
G1 Z-0.1 F120
G1 X24.81834 Y-63.44284 F120
G0 Z5
G0 X24.81834 Y-63.44284
G1 Z-0.1 F120
G1 X24.54402 Y-63.85178 F120
G0 Z5
G0 X24.54402 Y-63.85178
G1 Z-0.1 F120
G1 X24.13508 Y-63.9864 F120
G0 Z5
G0 X24.13508 Y-63.9864
G1 Z-0.1 F120
G1 X23.8633 Y-63.9864 F120
G0 Z5
G0 X25.85466 Y-63.9864
G1 Z-0.1 F120
G1 X25.85466 Y-61.12382 F120
G0 Z5
G0 X27.7622 Y-63.9864
G1 Z-0.1 F120
G1 X25.85466 Y-62.07886 F120
G0 Z5
G0 X26.53538 Y-62.75959
G1 Z-0.1 F120
G1 X27.7622 Y-61.12382 F120
G0 Z5
G0 X34.671 Y-67.50684
G1 Z-0.1 F120
G1 X34.94278 Y-67.64146 F120
G0 Z5
G0 X34.94278 Y-67.64146
G1 Z-0.1 F120
G1 X35.35172 Y-68.0504 F120
G0 Z5
G0 X35.35172 Y-68.0504
G1 Z-0.1 F120
G1 X35.35172 Y-65.18782 F120
G0 Z5
G0 X37.0713 Y-68.0504
G1 Z-0.1 F120
G1 X36.66236 Y-67.91578 F120
G0 Z5
G0 X36.66236 Y-67.91578
G1 Z-0.1 F120
G1 X36.38804 Y-67.50684 F120
G0 Z5
G0 X36.38804 Y-67.50684
G1 Z-0.1 F120
G1 X36.25342 Y-66.82359 F120
G0 Z5
G0 X36.25342 Y-66.82359
G1 Z-0.1 F120
G1 X36.25342 Y-66.41464 F120
G0 Z5
G0 X36.25342 Y-66.41464
G1 Z-0.1 F120
G1 X36.38804 Y-65.73392 F120
G0 Z5
G0 X36.38804 Y-65.73392
G1 Z-0.1 F120
G1 X36.66236 Y-65.32498 F120
G0 Z5
G0 X36.66236 Y-65.32498
G1 Z-0.1 F120
G1 X37.0713 Y-65.18782 F120
G0 Z5
G0 X37.0713 Y-65.18782
G1 Z-0.1 F120
G1 X37.34308 Y-65.18782 F120
G0 Z5
G0 X37.34308 Y-65.18782
G1 Z-0.1 F120
G1 X37.75202 Y-65.32498 F120
G0 Z5
G0 X37.75202 Y-65.32498
G1 Z-0.1 F120
G1 X38.02634 Y-65.73392 F120
G0 Z5
G0 X38.02634 Y-65.73392
G1 Z-0.1 F120
G1 X38.16096 Y-66.41464 F120
G0 Z5
G0 X38.16096 Y-66.41464
G1 Z-0.1 F120
G1 X38.16096 Y-66.82359 F120
G0 Z5
G0 X38.16096 Y-66.82359
G1 Z-0.1 F120
G1 X38.02634 Y-67.50684 F120
G0 Z5
G0 X38.02634 Y-67.50684
G1 Z-0.1 F120
G1 X37.75202 Y-67.91578 F120
G0 Z5
G0 X37.75202 Y-67.91578
G1 Z-0.1 F120
G1 X37.34308 Y-68.0504 F120
G0 Z5
G0 X37.34308 Y-68.0504
G1 Z-0.1 F120
G1 X37.0713 Y-68.0504 F120
G0 Z5
G0 X39.88054 Y-68.0504
G1 Z-0.1 F120
G1 X39.4716 Y-67.91578 F120
G0 Z5
G0 X39.4716 Y-67.91578
G1 Z-0.1 F120
G1 X39.19728 Y-67.50684 F120
G0 Z5
G0 X39.19728 Y-67.50684
G1 Z-0.1 F120
G1 X39.06266 Y-66.82359 F120
G0 Z5
G0 X39.06266 Y-66.82359
G1 Z-0.1 F120
G1 X39.06266 Y-66.41464 F120
G0 Z5
G0 X39.06266 Y-66.41464
G1 Z-0.1 F120
G1 X39.19728 Y-65.73392 F120
G0 Z5
G0 X39.19728 Y-65.73392
G1 Z-0.1 F120
G1 X39.4716 Y-65.32498 F120
G0 Z5
G0 X39.4716 Y-65.32498
G1 Z-0.1 F120
G1 X39.88054 Y-65.18782 F120
G0 Z5
G0 X39.88054 Y-65.18782
G1 Z-0.1 F120
G1 X40.15232 Y-65.18782 F120
G0 Z5
G0 X40.15232 Y-65.18782
G1 Z-0.1 F120
G1 X40.56126 Y-65.32498 F120
G0 Z5
G0 X40.56126 Y-65.32498
G1 Z-0.1 F120
G1 X40.83558 Y-65.73392 F120
G0 Z5
G0 X40.83558 Y-65.73392
G1 Z-0.1 F120
G1 X40.9702 Y-66.41464 F120
G0 Z5
G0 X40.9702 Y-66.41464
G1 Z-0.1 F120
G1 X40.9702 Y-66.82359 F120
G0 Z5
G0 X40.9702 Y-66.82359
G1 Z-0.1 F120
G1 X40.83558 Y-67.50684 F120
G0 Z5
G0 X40.83558 Y-67.50684
G1 Z-0.1 F120
G1 X40.56126 Y-67.91578 F120
G0 Z5
G0 X40.56126 Y-67.91578
G1 Z-0.1 F120
G1 X40.15232 Y-68.0504 F120
G0 Z5
G0 X40.15232 Y-68.0504
G1 Z-0.1 F120
G1 X39.88054 Y-68.0504 F120
G0 Z5
G0 X41.8719 Y-68.0504
G1 Z-0.1 F120
G1 X41.8719 Y-65.18782 F120
G0 Z5
G0 X43.77944 Y-68.0504
G1 Z-0.1 F120
G1 X41.8719 Y-66.14286 F120
G0 Z5
G0 X42.55262 Y-66.82359
G1 Z-0.1 F120
G1 X43.77944 Y-65.18782 F120
G0 Z5
G0 X28.66745 Y-24.58415
G1 Z-0.1 F120
G1 X28.61564 Y-24.58008 F120
G0 Z5
G0 X28.61564 Y-24.58008
G1 Z-0.1 F120
G1 X28.56484 Y-24.5684 F120
G0 Z5
G0 X28.56484 Y-24.5684
G1 Z-0.1 F120
G1 X28.51708 Y-24.54808 F120
G0 Z5
G0 X28.51708 Y-24.54808
G1 Z-0.1 F120
G1 X28.47289 Y-24.52116 F120
G0 Z5
G0 X28.47289 Y-24.52116
G1 Z-0.1 F120
G1 X28.43326 Y-24.48763 F120
G0 Z5
G0 X28.43326 Y-24.48763
G1 Z-0.1 F120
G1 X28.39923 Y-24.448 F120
G0 Z5
G0 X28.39923 Y-24.448
G1 Z-0.1 F120
G1 X28.3723 Y-24.40381 F120
G0 Z5
G0 X28.3723 Y-24.40381
G1 Z-0.1 F120
G1 X28.36113 Y-24.37993 F120
G0 Z5
G0 X28.36113 Y-24.37993
G1 Z-0.1 F120
G1 X28.34538 Y-24.33066 F120
G0 Z5
G0 X28.34538 Y-24.33066
G1 Z-0.1 F120
G1 X28.33725 Y-24.27935 F120
G0 Z5
G0 X28.33725 Y-24.27935
G1 Z-0.1 F120
G1 X28.33522 Y-23.50414 F120
G0 Z5
G0 X28.33522 Y-23.50414
G1 Z-0.1 F120
G1 X28.32658 Y-23.49601 F120
G0 Z5
G0 X28.32658 Y-23.49601
G1 Z-0.1 F120
G1 X29.337 Y-23.495 F120
G0 Z5
G0 X29.337 Y-23.495
G1 Z-0.1 F120
G1 X29.33598 Y-24.32812 F120
G0 Z5
G0 X29.33598 Y-24.32812
G1 Z-0.1 F120
G1 X29.33293 Y-24.3525 F120
G0 Z5
G0 X29.33293 Y-24.3525
G1 Z-0.1 F120
G1 X29.32023 Y-24.39974 F120
G0 Z5
G0 X29.32023 Y-24.39974
G1 Z-0.1 F120
G1 X29.2994 Y-24.44394 F120
G0 Z5
G0 X29.2994 Y-24.44394
G1 Z-0.1 F120
G1 X29.27146 Y-24.48407 F120
G0 Z5
G0 X29.27146 Y-24.48407
G1 Z-0.1 F120
G1 X29.23692 Y-24.51862 F120
G0 Z5
G0 X29.23692 Y-24.51862
G1 Z-0.1 F120
G1 X29.19679 Y-24.54656 F120
G0 Z5
G0 X29.19679 Y-24.54656
G1 Z-0.1 F120
G1 X29.17494 Y-24.55824 F120
G0 Z5
G0 X29.17494 Y-24.55824
G1 Z-0.1 F120
G1 X29.12872 Y-24.575 F120
G0 Z5
G0 X29.12872 Y-24.575
G1 Z-0.1 F120
G1 X29.08046 Y-24.58313 F120
G0 Z5
G0 X41.95701 Y-29.793
G1 Z-0.1 F120
G1 X41.95699 Y-35.99299 F120
G0 Z5
G0 X44.65698 Y-29.793
G1 Z-0.1 F120
G1 X44.65701 Y-35.99299 F120
G0 Z5
G0 X44.65698 Y-35.99299
G1 Z-0.1 F120
G1 X41.95699 Y-35.99299 F120
G0 Z5
G0 X44.65701 Y-29.793
G1 Z-0.1 F120
G1 X41.95701 Y-29.793 F120
G0 Z5
G0 X29.337 Y-23.495
G1 Z-0.1 F120
G1 X29.591 Y-23.495 F120
G0 Z5
G0 X28.067 Y-23.495
G1 Z-0.1 F120
G1 X28.321 Y-23.495 F120
G0 Z5
G0 X28.06705 Y-23.495
G1 Z-0.1 F120
G1 X23.74905 Y-23.495 F120
G0 Z5
G0 X23.74905 Y-23.495
G1 Z-0.1 F120
G1 X23.74905 Y-46.355 F120
G0 Z5
G0 X29.59105 Y-23.495
G1 Z-0.1 F120
G1 X33.90905 Y-23.495 F120
G0 Z5
G0 X33.90905 Y-23.495
G1 Z-0.1 F120
G1 X33.90905 Y-23.749 F120
G0 Z5
G0 X23.749 Y-46.355
G1 Z-0.1 F120
G1 X33.909 Y-46.355 F120
G0 Z5
G0 X33.909 Y-46.355
G1 Z-0.1 F120
G1 X33.909 Y-23.749 F120
G0 Z5
G0 X26.289 Y-36.195
G1 Z-0.1 F120
G1 X26.289 Y-45.085 F120
G0 Z5
G0 X26.289 Y-45.085
G1 Z-0.1 F120
G1 X31.369 Y-45.085 F120
G0 Z5
G0 X31.369 Y-45.085
G1 Z-0.1 F120
G1 X31.369 Y-36.195 F120
G0 Z5
G0 X31.369 Y-36.195
G1 Z-0.1 F120
G1 X26.289 Y-36.195 F120
G0 Z5
G0 X26.289 Y-24.765
G1 Z-0.1 F120
G1 X26.289 Y-33.655 F120
G0 Z5
G0 X26.289 Y-33.655
G1 Z-0.1 F120
G1 X31.369 Y-33.655 F120
G0 Z5
G0 X31.369 Y-33.655
G1 Z-0.1 F120
G1 X31.369 Y-24.765 F120
G0 Z5
G0 X31.369 Y-24.765
G1 Z-0.1 F120
G1 X26.289 Y-24.765 F120
G0 Z5
G0 X28.321 Y-23.495
G1 Z-0.1 F120
G1 X28.321 Y-24.13 F120
G0 Z5
G0 X29.337 Y-24.13
G1 Z-0.1 F120
G1 X29.337 Y-23.495 F120
G0 Z5
G0 X28.321 Y-23.495
G1 Z-0.1 F120
G1 X29.337 Y-23.495 F120
G0 Z5
G0 X6.985 Y-20.574
G1 Z-0.1 F120
G1 X6.985 Y-24.384 F120
G0 Z5
G0 X3.2258 Y-24.003
G1 Z-0.1 F120
G1 X3.9878 Y-24.003 F120
G0 Z5
G0 X3.6068 Y-23.622
G1 Z-0.1 F120
G1 X3.6068 Y-24.384 F120
G0 Z5
G0 X6.985 Y-28.956
G1 Z-0.1 F120
G1 X6.985 Y-32.766 F120
G0 Z5
G0 X3.2258 Y-32.385
G1 Z-0.1 F120
G1 X3.9878 Y-32.385 F120
G0 Z5
G0 X3.6068 Y-32.004
G1 Z-0.1 F120
G1 X3.6068 Y-32.766 F120
G0 Z5
G0 X6.985 Y-37.592
G1 Z-0.1 F120
G1 X6.985 Y-41.402 F120
G0 Z5
G0 X3.2258 Y-41.021
G1 Z-0.1 F120
G1 X3.9878 Y-41.021 F120
G0 Z5
G0 X3.6068 Y-40.64
G1 Z-0.1 F120
G1 X3.6068 Y-41.402 F120
G0 Z5
G0 X6.985 Y-45.974
G1 Z-0.1 F120
G1 X6.985 Y-49.784 F120
G0 Z5
G0 X3.2258 Y-49.403
G1 Z-0.1 F120
G1 X3.9878 Y-49.403 F120
G0 Z5
G0 X3.6068 Y-49.022
G1 Z-0.1 F120
G1 X3.6068 Y-49.784 F120
G0 Z5
G0 X6.985 Y-55.118
G1 Z-0.1 F120
G1 X6.985 Y-58.928 F120
G0 Z5
G0 X3.2258 Y-58.547
G1 Z-0.1 F120
G1 X3.9878 Y-58.547 F120
G0 Z5
G0 X3.6068 Y-58.166
G1 Z-0.1 F120
G1 X3.6068 Y-58.928 F120
G0 Z5
G0 X6.985 Y-12.192
G1 Z-0.1 F120
G1 X6.985 Y-16.002 F120
G0 Z5
G0 X3.2258 Y-15.621
G1 Z-0.1 F120
G1 X3.9878 Y-15.621 F120
G0 Z5
G0 X3.6068 Y-15.24
G1 Z-0.1 F120
G1 X3.6068 Y-16.002 F120
G0 Z5
G0 X28.32256599446357 Y-24.169857220629744
G1 Z-0.1 F120
G1 X28.321 Y-24.13 F120
G0 Z5
G0 X28.32725432297767 Y-24.209468708240436
G1 Z-0.1 F120
G1 X28.32256599446357 Y-24.169857220629744 F120
G0 Z5
G0 X28.33503608043798 Y-24.248590244838798
G1 Z-0.1 F120
G1 X28.32725432297767 Y-24.209468708240436 F120
G0 Z5
G0 X28.34586328972206 Y-24.286980633142473
G1 Z-0.1 F120
G1 X28.33503608043798 Y-24.248590244838798 F120
G0 Z5
G0 X28.359669197484266 Y-24.324403183641465
G1 Z-0.1 F120
G1 X28.34586328972206 Y-24.286980633142473 F120
G0 Z5
G0 X28.37636868571231 Y-24.360627173867687
G1 Z-0.1 F120
G1 X28.359669197484266 Y-24.324403183641465 F120
G0 Z5
G0 X28.395858796508122 Y-24.395429270875702
G1 Z-0.1 F120
G1 X28.37636868571231 Y-24.360627173867687 F120
G0 Z5
G0 X28.41801936685753 Y-24.428594908164577
G1 Z-0.1 F120
G1 X28.395858796508122 Y-24.395429270875702 F120
G0 Z5
G0 X28.442713769475183 Y-24.459919608551733
G1 Z-0.1 F120
G1 X28.41801936685753 Y-24.428594908164577 F120
G0 Z5
G0 X28.469789755157233 Y-24.489210244842766
G1 Z-0.1 F120
G1 X28.442713769475183 Y-24.459919608551733 F120
G0 Z5
G0 X28.499080391448267 Y-24.516286230524816
G1 Z-0.1 F120
G1 X28.469789755157233 Y-24.489210244842766 F120
G0 Z5
G0 X28.530405091835423 Y-24.54098063314247
G1 Z-0.1 F120
G1 X28.499080391448267 Y-24.516286230524816 F120
G0 Z5
G0 X28.563570729124297 Y-24.563141203491877
G1 Z-0.1 F120
G1 X28.530405091835423 Y-24.54098063314247 F120
G0 Z5
G0 X28.598372826132312 Y-24.58263131428769
G1 Z-0.1 F120
G1 X28.563570729124297 Y-24.563141203491877 F120
G0 Z5
G0 X28.634596816358535 Y-24.599330802515734
G1 Z-0.1 F120
G1 X28.598372826132312 Y-24.58263131428769 F120
G0 Z5
G0 X28.672019366857526 Y-24.61313671027794
G1 Z-0.1 F120
G1 X28.634596816358535 Y-24.599330802515734 F120
G0 Z5
G0 X28.7104097551612 Y-24.62396391956202
G1 Z-0.1 F120
G1 X28.672019366857526 Y-24.61313671027794 F120
G0 Z5
G0 X28.749531291759563 Y-24.63174567702233
G1 Z-0.1 F120
G1 X28.7104097551612 Y-24.62396391956202 F120
G0 Z5
G0 X28.789142779370255 Y-24.63643400553643
G1 Z-0.1 F120
G1 X28.749531291759563 Y-24.63174567702233 F120
G0 Z5
G0 X28.829 Y-24.637999999999998
G1 Z-0.1 F120
G1 X28.789142779370255 Y-24.63643400553643 F120
G0 Z5
G0 X28.868857220629746 Y-24.636434005536433
G1 Z-0.1 F120
G1 X28.829 Y-24.638 F120
G0 Z5
G0 X28.908468708240438 Y-24.631745677022334
G1 Z-0.1 F120
G1 X28.868857220629746 Y-24.636434005536433 F120
G0 Z5
G0 X28.9475902448388 Y-24.623963919562023
G1 Z-0.1 F120
G1 X28.908468708240438 Y-24.631745677022334 F120
G0 Z5
G0 X28.985980633142475 Y-24.613136710277942
G1 Z-0.1 F120
G1 X28.9475902448388 Y-24.623963919562023 F120
G0 Z5
G0 X29.023403183641467 Y-24.599330802515738
G1 Z-0.1 F120
G1 X28.985980633142475 Y-24.613136710277942 F120
G0 Z5
G0 X29.059627173867693 Y-24.582631314287692
G1 Z-0.1 F120
G1 X29.023403183641467 Y-24.599330802515738 F120
G0 Z5
G0 X29.094429270875704 Y-24.56314120349188
G1 Z-0.1 F120
G1 X29.059627173867693 Y-24.582631314287692 F120
G0 Z5
G0 X29.12759490816458 Y-24.540980633142475
G1 Z-0.1 F120
G1 X29.094429270875704 Y-24.56314120349188 F120
G0 Z5
G0 X29.158919608551734 Y-24.516286230524816
G1 Z-0.1 F120
G1 X29.12759490816458 Y-24.540980633142475 F120
G0 Z5
G0 X29.188210244842768 Y-24.489210244842766
G1 Z-0.1 F120
G1 X29.158919608551734 Y-24.516286230524816 F120
G0 Z5
G0 X29.215286230524818 Y-24.459919608551733
G1 Z-0.1 F120
G1 X29.188210244842768 Y-24.489210244842766 F120
G0 Z5
G0 X29.239980633142476 Y-24.428594908164577
G1 Z-0.1 F120
G1 X29.215286230524818 Y-24.459919608551733 F120
G0 Z5
G0 X29.26214120349188 Y-24.395429270875702
G1 Z-0.1 F120
G1 X29.239980633142476 Y-24.428594908164577 F120
G0 Z5
G0 X29.281631314287694 Y-24.36062717386769
G1 Z-0.1 F120
G1 X29.26214120349188 Y-24.395429270875702 F120
G0 Z5
G0 X29.298330802515736 Y-24.324403183641465
G1 Z-0.1 F120
G1 X29.281631314287694 Y-24.36062717386769 F120
G0 Z5
G0 X29.31213671027794 Y-24.286980633142473
G1 Z-0.1 F120
G1 X29.298330802515736 Y-24.324403183641465 F120
G0 Z5
G0 X29.32296391956202 Y-24.248590244838798
G1 Z-0.1 F120
G1 X29.31213671027794 Y-24.286980633142473 F120
G0 Z5
G0 X29.330745677022332 Y-24.209468708240436
G1 Z-0.1 F120
G1 X29.32296391956202 Y-24.248590244838798 F120
G0 Z5
G0 X29.33543400553643 Y-24.169857220629744
G1 Z-0.1 F120
G1 X29.330745677022332 Y-24.209468708240436 F120
G0 Z5
G0 X29.337 Y-24.13
G1 Z-0.1 F120
G1 X29.33543400553643 Y-24.169857220629744 F120
G0 Z5
G0 X6.435205159502144 Y-20.005195556821228
G1 Z-0.1 F120
G1 X6.984999999999999 Y-20.574 F120
G0 Z5
G0 X5.761856870157732 Y-19.589966773552376
G1 Z-0.1 F120
G1 X6.435205159502144 Y-20.005195556821228 F120
G0 Z5
G0 X5.0067571055101565 Y-19.354091368630304
G1 Z-0.1 F120
G1 X5.761856870157732 Y-19.589966773552376 F120
G0 Z5
G0 X4.216783032820287 Y-19.312212666456542
G1 Z-0.1 F120
G1 X5.0067571055101565 Y-19.354091368630304 F120
G0 Z5
G0 X3.4409768428965393 Y-19.466930528689623
G1 Z-0.1 F120
G1 X4.216783032820287 Y-19.312212666456542 F120
G0 Z5
G0 X2.7275011736176937 Y-19.80863995285741
G1 Z-0.1 F120
G1 X3.4409768428965393 Y-19.466930528689623 F120
G0 Z5
G0 X2.1206491367700537 Y-20.316127358210338
G1 Z-0.1 F120
G1 X2.7275011736176937 Y-19.80863995285741 F120
G0 Z5
G0 X1.6580945680052381 Y-20.957887540936543
G1 Z-0.1 F120
G1 X2.1206491367700537 Y-20.316127358210338 F120
G0 Z5
G0 X1.3685532064910202 Y-21.69407954115827
G1 Z-0.1 F120
G1 X1.6580945680052381 Y-20.957887540936543 F120
G0 Z5
G0 X1.2700000000000005 Y-22.479000000000003
G1 Z-0.1 F120
G1 X1.3685532064910202 Y-21.69407954115827 F120
G0 Z5
G0 X1.3685532064910206 Y-23.263920458841735
G1 Z-0.1 F120
G1 X1.2700000000000005 Y-22.479000000000003 F120
G0 Z5
G0 X1.6580945680052386 Y-24.000112459063462
G1 Z-0.1 F120
G1 X1.3685532064910206 Y-23.263920458841735 F120
G0 Z5
G0 X2.120649136770055 Y-24.641872641789668
G1 Z-0.1 F120
G1 X1.6580945680052386 Y-24.000112459063462 F120
G0 Z5
G0 X2.7275011736176955 Y-25.149360047142597
G1 Z-0.1 F120
G1 X2.120649136770055 Y-24.641872641789668 F120
G0 Z5
G0 X3.4409768428965393 Y-25.491069471310382
G1 Z-0.1 F120
G1 X2.7275011736176955 Y-25.149360047142597 F120
G0 Z5
G0 X4.216783032820289 Y-25.645787333543463
G1 Z-0.1 F120
G1 X3.4409768428965393 Y-25.491069471310382 F120
G0 Z5
G0 X5.006757105510159 Y-25.603908631369702
G1 Z-0.1 F120
G1 X4.216783032820289 Y-25.645787333543463 F120
G0 Z5
G0 X5.761856870157736 Y-25.36803322644763
G1 Z-0.1 F120
G1 X5.006757105510159 Y-25.603908631369702 F120
G0 Z5
G0 X6.435205159502144 Y-24.952804443178778
G1 Z-0.1 F120
G1 X5.761856870157736 Y-25.36803322644763 F120
G0 Z5
G0 X6.984999999999999 Y-24.384000000000004
G1 Z-0.1 F120
G1 X6.435205159502144 Y-24.952804443178778 F120
G0 Z5
G0 X6.435205159502144 Y-28.387195556821226
G1 Z-0.1 F120
G1 X6.984999999999999 Y-28.956 F120
G0 Z5
G0 X5.761856870157732 Y-27.971966773552374
G1 Z-0.1 F120
G1 X6.435205159502144 Y-28.387195556821226 F120
G0 Z5
G0 X5.0067571055101565 Y-27.7360913686303
G1 Z-0.1 F120
G1 X5.761856870157732 Y-27.971966773552374 F120
G0 Z5
G0 X4.216783032820287 Y-27.69421266645654
G1 Z-0.1 F120
G1 X5.0067571055101565 Y-27.7360913686303 F120
G0 Z5
G0 X3.4409768428965393 Y-27.84893052868962
G1 Z-0.1 F120
G1 X4.216783032820287 Y-27.69421266645654 F120
G0 Z5
G0 X2.7275011736176937 Y-28.190639952857406
G1 Z-0.1 F120
G1 X3.4409768428965393 Y-27.84893052868962 F120
G0 Z5
G0 X2.1206491367700537 Y-28.698127358210336
G1 Z-0.1 F120
G1 X2.7275011736176937 Y-28.190639952857406 F120
G0 Z5
G0 X1.6580945680052381 Y-29.33988754093654
G1 Z-0.1 F120
G1 X2.1206491367700537 Y-28.698127358210336 F120
G0 Z5
G0 X1.3685532064910202 Y-30.07607954115827
G1 Z-0.1 F120
G1 X1.6580945680052381 Y-29.33988754093654 F120
G0 Z5
G0 X1.2700000000000005 Y-30.861
G1 Z-0.1 F120
G1 X1.3685532064910202 Y-30.07607954115827 F120
G0 Z5
G0 X1.3685532064910206 Y-31.645920458841733
G1 Z-0.1 F120
G1 X1.2700000000000005 Y-30.861 F120
G0 Z5
G0 X1.6580945680052386 Y-32.382112459063464
G1 Z-0.1 F120
G1 X1.3685532064910206 Y-31.645920458841733 F120
G0 Z5
G0 X2.120649136770055 Y-33.023872641789666
G1 Z-0.1 F120
G1 X1.6580945680052386 Y-32.382112459063464 F120
G0 Z5
G0 X2.7275011736176955 Y-33.5313600471426
G1 Z-0.1 F120
G1 X2.120649136770055 Y-33.023872641789666 F120
G0 Z5
G0 X3.4409768428965393 Y-33.87306947131038
G1 Z-0.1 F120
G1 X2.7275011736176955 Y-33.5313600471426 F120
G0 Z5
G0 X4.216783032820289 Y-34.02778733354346
G1 Z-0.1 F120
G1 X3.4409768428965393 Y-33.87306947131038 F120
G0 Z5
G0 X5.006757105510159 Y-33.985908631369696
G1 Z-0.1 F120
G1 X4.216783032820289 Y-34.02778733354346 F120
G0 Z5
G0 X5.761856870157736 Y-33.75003322644763
G1 Z-0.1 F120
G1 X5.006757105510159 Y-33.985908631369696 F120
G0 Z5
G0 X6.435205159502144 Y-33.334804443178776
G1 Z-0.1 F120
G1 X5.761856870157736 Y-33.75003322644763 F120
G0 Z5
G0 X6.984999999999999 Y-32.766
G1 Z-0.1 F120
G1 X6.435205159502144 Y-33.334804443178776 F120
G0 Z5
G0 X6.435205159502144 Y-37.02319555682123
G1 Z-0.1 F120
G1 X6.984999999999999 Y-37.592 F120
G0 Z5
G0 X5.761856870157732 Y-36.60796677355238
G1 Z-0.1 F120
G1 X6.435205159502144 Y-37.02319555682123 F120
G0 Z5
G0 X5.0067571055101565 Y-36.3720913686303
G1 Z-0.1 F120
G1 X5.761856870157732 Y-36.60796677355238 F120
G0 Z5
G0 X4.216783032820287 Y-36.33021266645654
G1 Z-0.1 F120
G1 X5.0067571055101565 Y-36.3720913686303 F120
G0 Z5
G0 X3.4409768428965393 Y-36.48493052868962
G1 Z-0.1 F120
G1 X4.216783032820287 Y-36.33021266645654 F120
G0 Z5
G0 X2.7275011736176937 Y-36.826639952857406
G1 Z-0.1 F120
G1 X3.4409768428965393 Y-36.48493052868962 F120
G0 Z5
G0 X2.1206491367700537 Y-37.33412735821034
G1 Z-0.1 F120
G1 X2.7275011736176937 Y-36.826639952857406 F120
G0 Z5
G0 X1.6580945680052381 Y-37.97588754093654
G1 Z-0.1 F120
G1 X2.1206491367700537 Y-37.33412735821034 F120
G0 Z5
G0 X1.3685532064910202 Y-38.71207954115827
G1 Z-0.1 F120
G1 X1.6580945680052381 Y-37.97588754093654 F120
G0 Z5
G0 X1.2700000000000005 Y-39.497
G1 Z-0.1 F120
G1 X1.3685532064910202 Y-38.71207954115827 F120
G0 Z5
G0 X1.3685532064910206 Y-40.28192045884173
G1 Z-0.1 F120
G1 X1.2700000000000005 Y-39.497 F120
G0 Z5
G0 X1.6580945680052386 Y-41.01811245906346
G1 Z-0.1 F120
G1 X1.3685532064910206 Y-40.28192045884173 F120
G0 Z5
G0 X2.120649136770055 Y-41.65987264178967
G1 Z-0.1 F120
G1 X1.6580945680052386 Y-41.01811245906346 F120
G0 Z5
G0 X2.7275011736176955 Y-42.167360047142594
G1 Z-0.1 F120
G1 X2.120649136770055 Y-41.65987264178967 F120
G0 Z5
G0 X3.4409768428965393 Y-42.50906947131038
G1 Z-0.1 F120
G1 X2.7275011736176955 Y-42.167360047142594 F120
G0 Z5
G0 X4.216783032820289 Y-42.66378733354346
G1 Z-0.1 F120
G1 X3.4409768428965393 Y-42.50906947131038 F120
G0 Z5
G0 X5.006757105510159 Y-42.6219086313697
G1 Z-0.1 F120
G1 X4.216783032820289 Y-42.66378733354346 F120
G0 Z5
G0 X5.761856870157736 Y-42.38603322644762
G1 Z-0.1 F120
G1 X5.006757105510159 Y-42.6219086313697 F120
G0 Z5
G0 X6.435205159502144 Y-41.97080444317877
G1 Z-0.1 F120
G1 X5.761856870157736 Y-42.38603322644762 F120
G0 Z5
G0 X6.984999999999999 Y-41.402
G1 Z-0.1 F120
G1 X6.435205159502144 Y-41.97080444317877 F120
G0 Z5
G0 X6.435205159502144 Y-45.405195556821226
G1 Z-0.1 F120
G1 X6.984999999999999 Y-45.974 F120
G0 Z5
G0 X5.761856870157732 Y-44.98996677355237
G1 Z-0.1 F120
G1 X6.435205159502144 Y-45.405195556821226 F120
G0 Z5
G0 X5.0067571055101565 Y-44.7540913686303
G1 Z-0.1 F120
G1 X5.761856870157732 Y-44.98996677355237 F120
G0 Z5
G0 X4.216783032820287 Y-44.71221266645654
G1 Z-0.1 F120
G1 X5.0067571055101565 Y-44.7540913686303 F120
G0 Z5
G0 X3.4409768428965393 Y-44.866930528689615
G1 Z-0.1 F120
G1 X4.216783032820287 Y-44.71221266645654 F120
G0 Z5
G0 X2.7275011736176937 Y-45.2086399528574
G1 Z-0.1 F120
G1 X3.4409768428965393 Y-44.866930528689615 F120
G0 Z5
G0 X2.1206491367700537 Y-45.716127358210336
G1 Z-0.1 F120
G1 X2.7275011736176937 Y-45.2086399528574 F120
G0 Z5
G0 X1.6580945680052381 Y-46.35788754093654
G1 Z-0.1 F120
G1 X2.1206491367700537 Y-45.716127358210336 F120
G0 Z5
G0 X1.3685532064910202 Y-47.094079541158266
G1 Z-0.1 F120
G1 X1.6580945680052381 Y-46.35788754093654 F120
G0 Z5
G0 X1.2700000000000005 Y-47.879
G1 Z-0.1 F120
G1 X1.3685532064910202 Y-47.094079541158266 F120
G0 Z5
G0 X1.3685532064910206 Y-48.66392045884173
G1 Z-0.1 F120
G1 X1.2700000000000005 Y-47.879 F120
G0 Z5
G0 X1.6580945680052386 Y-49.40011245906346
G1 Z-0.1 F120
G1 X1.3685532064910206 Y-48.66392045884173 F120
G0 Z5
G0 X2.120649136770055 Y-50.041872641789666
G1 Z-0.1 F120
G1 X1.6580945680052386 Y-49.40011245906346 F120
G0 Z5
G0 X2.7275011736176955 Y-50.54936004714259
G1 Z-0.1 F120
G1 X2.120649136770055 Y-50.041872641789666 F120
G0 Z5
G0 X3.4409768428965393 Y-50.89106947131038
G1 Z-0.1 F120
G1 X2.7275011736176955 Y-50.54936004714259 F120
G0 Z5
G0 X4.216783032820289 Y-51.04578733354346
G1 Z-0.1 F120
G1 X3.4409768428965393 Y-50.89106947131038 F120
G0 Z5
G0 X5.006757105510159 Y-51.0039086313697
G1 Z-0.1 F120
G1 X4.216783032820289 Y-51.04578733354346 F120
G0 Z5
G0 X5.761856870157736 Y-50.76803322644762
G1 Z-0.1 F120
G1 X5.006757105510159 Y-51.0039086313697 F120
G0 Z5
G0 X6.435205159502144 Y-50.35280444317877
G1 Z-0.1 F120
G1 X5.761856870157736 Y-50.76803322644762 F120
G0 Z5
G0 X6.984999999999999 Y-49.784
G1 Z-0.1 F120
G1 X6.435205159502144 Y-50.35280444317877 F120
G0 Z5
G0 X6.435205159502144 Y-54.54919555682123
G1 Z-0.1 F120
G1 X6.984999999999999 Y-55.118 F120
G0 Z5
G0 X5.7618568701577315 Y-54.13396677355237
G1 Z-0.1 F120
G1 X6.435205159502144 Y-54.54919555682123 F120
G0 Z5
G0 X5.006757105510156 Y-53.898091368630304
G1 Z-0.1 F120
G1 X5.7618568701577315 Y-54.13396677355237 F120
G0 Z5
G0 X4.216783032820286 Y-53.85621266645654
G1 Z-0.1 F120
G1 X5.006757105510156 Y-53.898091368630304 F120
G0 Z5
G0 X3.4409768428965375 Y-54.01093052868962
G1 Z-0.1 F120
G1 X4.216783032820286 Y-53.85621266645654 F120
G0 Z5
G0 X2.727501173617693 Y-54.35263995285741
G1 Z-0.1 F120
G1 X3.4409768428965375 Y-54.01093052868962 F120
G0 Z5
G0 X2.1206491367700537 Y-54.86012735821034
G1 Z-0.1 F120
G1 X2.727501173617693 Y-54.35263995285741 F120
G0 Z5
G0 X1.6580945680052372 Y-55.50188754093654
G1 Z-0.1 F120
G1 X2.1206491367700537 Y-54.86012735821034 F120
G0 Z5
G0 X1.3685532064910197 Y-56.23807954115827
G1 Z-0.1 F120
G1 X1.6580945680052372 Y-55.50188754093654 F120
G0 Z5
G0 X1.2700000000000005 Y-57.02300000000001
G1 Z-0.1 F120
G1 X1.3685532064910197 Y-56.23807954115827 F120
G0 Z5
G0 X1.368553206491021 Y-57.807920458841735
G1 Z-0.1 F120
G1 X1.2700000000000005 Y-57.02300000000001 F120
G0 Z5
G0 X1.65809456800524 Y-58.54411245906347
G1 Z-0.1 F120
G1 X1.368553206491021 Y-57.807920458841735 F120
G0 Z5
G0 X2.120649136770058 Y-59.18587264178967
G1 Z-0.1 F120
G1 X1.65809456800524 Y-58.54411245906347 F120
G0 Z5
G0 X2.7275011736176977 Y-59.6933600471426
G1 Z-0.1 F120
G1 X2.120649136770058 Y-59.18587264178967 F120
G0 Z5
G0 X3.4409768428965446 Y-60.035069471310386
G1 Z-0.1 F120
G1 X2.7275011736176977 Y-59.6933600471426 F120
G0 Z5
G0 X4.216783032820294 Y-60.189787333543464
G1 Z-0.1 F120
G1 X3.4409768428965446 Y-60.035069471310386 F120
G0 Z5
G0 X5.0067571055101645 Y-60.1479086313697
G1 Z-0.1 F120
G1 X4.216783032820294 Y-60.189787333543464 F120
G0 Z5
G0 X5.761856870157736 Y-59.912033226447626
G1 Z-0.1 F120
G1 X5.0067571055101645 Y-60.1479086313697 F120
G0 Z5
G0 X6.435205159502148 Y-59.496804443178775
G1 Z-0.1 F120
G1 X5.761856870157736 Y-59.912033226447626 F120
G0 Z5
G0 X6.985000000000003 Y-58.928
G1 Z-0.1 F120
G1 X6.435205159502148 Y-59.496804443178775 F120
G0 Z5
G0 X6.435205159502145 Y-11.623195556821226
G1 Z-0.1 F120
G1 X6.985 Y-12.192 F120
G0 Z5
G0 X5.761856870157733 Y-11.207966773552375
G1 Z-0.1 F120
G1 X6.435205159502145 Y-11.623195556821226 F120
G0 Z5
G0 X5.006757105510157 Y-10.9720913686303
G1 Z-0.1 F120
G1 X5.761856870157733 Y-11.207966773552375 F120
G0 Z5
G0 X4.216783032820288 Y-10.93021266645654
G1 Z-0.1 F120
G1 X5.006757105510157 Y-10.9720913686303 F120
G0 Z5
G0 X3.44097684289654 Y-11.084930528689618
G1 Z-0.1 F120
G1 X4.216783032820288 Y-10.93021266645654 F120
G0 Z5
G0 X2.727501173617695 Y-11.426639952857403
G1 Z-0.1 F120
G1 X3.44097684289654 Y-11.084930528689618 F120
G0 Z5
G0 X2.1206491367700555 Y-11.934127358210333
G1 Z-0.1 F120
G1 X2.727501173617695 Y-11.426639952857403 F120
G0 Z5
G0 X1.6580945680052381 Y-12.575887540936538
G1 Z-0.1 F120
G1 X2.1206491367700555 Y-11.934127358210333 F120
G0 Z5
G0 X1.3685532064910206 Y-13.312079541158267
G1 Z-0.1 F120
G1 X1.6580945680052381 Y-12.575887540936538 F120
G0 Z5
G0 X1.2700000000000005 Y-14.097
G1 Z-0.1 F120
G1 X1.3685532064910206 Y-13.312079541158267 F120
G0 Z5
G0 X1.3685532064910202 Y-14.881920458841732
G1 Z-0.1 F120
G1 X1.2700000000000005 Y-14.097 F120
G0 Z5
G0 X1.6580945680052377 Y-15.61811245906346
G1 Z-0.1 F120
G1 X1.3685532064910202 Y-14.881920458841732 F120
G0 Z5
G0 X2.120649136770054 Y-16.259872641789663
G1 Z-0.1 F120
G1 X1.6580945680052377 Y-15.61811245906346 F120
G0 Z5
G0 X2.727501173617693 Y-16.767360047142592
G1 Z-0.1 F120
G1 X2.120649136770054 Y-16.259872641789663 F120
G0 Z5
G0 X3.4409768428965393 Y-17.10906947131038
G1 Z-0.1 F120
G1 X2.727501173617693 Y-16.767360047142592 F120
G0 Z5
G0 X4.216783032820289 Y-17.26378733354346
G1 Z-0.1 F120
G1 X3.4409768428965393 Y-17.10906947131038 F120
G0 Z5
G0 X5.0067571055101565 Y-17.2219086313697
G1 Z-0.1 F120
G1 X4.216783032820289 Y-17.26378733354346 F120
G0 Z5
G0 X5.761856870157733 Y-16.986033226447624
G1 Z-0.1 F120
G1 X5.0067571055101565 Y-17.2219086313697 F120
G0 Z5
G0 X6.435205159502144 Y-16.570804443178773
G1 Z-0.1 F120
G1 X5.761856870157733 Y-16.986033226447624 F120
G0 Z5
G0 X6.984999999999999 Y-16.002
G1 Z-0.1 F120
G1 X6.435205159502144 Y-16.570804443178773 F120
G0 Z5
G0 X6.86068355138969 Y-23.263903165712364
G1 Z-0.1 F120
G1 X6.985 Y-22.479 F120
G0 Z5
G0 X6.499903165712366 Y-23.97197454082288
G1 Z-0.1 F120
G1 X6.86068355138969 Y-23.263903165712364 F120
G0 Z5
G0 X5.937974540822882 Y-24.533903165712367
G1 Z-0.1 F120
G1 X6.499903165712366 Y-23.97197454082288 F120
G0 Z5
G0 X5.229903165712367 Y-24.89468355138969
G1 Z-0.1 F120
G1 X5.937974540822882 Y-24.533903165712367 F120
G0 Z5
G0 X4.445 Y-25.019
G1 Z-0.1 F120
G1 X5.229903165712367 Y-24.89468355138969 F120
G0 Z5
G0 X3.660096834287634 Y-24.89468355138969
G1 Z-0.1 F120
G1 X4.445 Y-25.019 F120
G0 Z5
G0 X2.9520254591771184 Y-24.533903165712367
G1 Z-0.1 F120
G1 X3.660096834287634 Y-24.89468355138969 F120
G0 Z5
G0 X2.390096834287634 Y-23.97197454082288
G1 Z-0.1 F120
G1 X2.9520254591771184 Y-24.533903165712367 F120
G0 Z5
G0 X2.0293164486103104 Y-23.263903165712367
G1 Z-0.1 F120
G1 X2.390096834287634 Y-23.97197454082288 F120
G0 Z5
G0 X1.9050000000000002 Y-22.479
G1 Z-0.1 F120
G1 X2.0293164486103104 Y-23.263903165712367 F120
G0 Z5
G0 X2.02931644861031 Y-21.694096834287635
G1 Z-0.1 F120
G1 X1.9050000000000002 Y-22.479 F120
G0 Z5
G0 X2.3900968342876334 Y-20.986025459177117
G1 Z-0.1 F120
G1 X2.02931644861031 Y-21.694096834287635 F120
G0 Z5
G0 X2.9520254591771184 Y-20.42409683428763
G1 Z-0.1 F120
G1 X2.3900968342876334 Y-20.986025459177117 F120
G0 Z5
G0 X3.6600968342876334 Y-20.06331644861031
G1 Z-0.1 F120
G1 X2.9520254591771184 Y-20.42409683428763 F120
G0 Z5
G0 X4.444999999999999 Y-19.939
G1 Z-0.1 F120
G1 X3.6600968342876334 Y-20.06331644861031 F120
G0 Z5
G0 X5.229903165712367 Y-20.06331644861031
G1 Z-0.1 F120
G1 X4.444999999999999 Y-19.939 F120
G0 Z5
G0 X5.937974540822881 Y-20.42409683428763
G1 Z-0.1 F120
G1 X5.229903165712367 Y-20.06331644861031 F120
G0 Z5
G0 X6.499903165712366 Y-20.986025459177117
G1 Z-0.1 F120
G1 X5.937974540822881 Y-20.42409683428763 F120
G0 Z5
G0 X6.86068355138969 Y-21.69409683428763
G1 Z-0.1 F120
G1 X6.499903165712366 Y-20.986025459177117 F120
G0 Z5
G0 X6.985 Y-22.479
G1 Z-0.1 F120
G1 X6.86068355138969 Y-21.69409683428763 F120
G0 Z5
G0 X6.86068355138969 Y-31.64590316571237
G1 Z-0.1 F120
G1 X6.985 Y-30.861 F120
G0 Z5
G0 X6.499903165712366 Y-32.35397454082288
G1 Z-0.1 F120
G1 X6.86068355138969 Y-31.64590316571237 F120
G0 Z5
G0 X5.937974540822882 Y-32.915903165712365
G1 Z-0.1 F120
G1 X6.499903165712366 Y-32.35397454082288 F120
G0 Z5
G0 X5.229903165712367 Y-33.27668355138969
G1 Z-0.1 F120
G1 X5.937974540822882 Y-32.915903165712365 F120
G0 Z5
G0 X4.445 Y-33.401
G1 Z-0.1 F120
G1 X5.229903165712367 Y-33.27668355138969 F120
G0 Z5
G0 X3.660096834287634 Y-33.27668355138969
G1 Z-0.1 F120
G1 X4.445 Y-33.401 F120
G0 Z5
G0 X2.9520254591771184 Y-32.915903165712365
G1 Z-0.1 F120
G1 X3.660096834287634 Y-33.27668355138969 F120
G0 Z5
G0 X2.390096834287634 Y-32.35397454082288
G1 Z-0.1 F120
G1 X2.9520254591771184 Y-32.915903165712365 F120
G0 Z5
G0 X2.0293164486103104 Y-31.64590316571237
G1 Z-0.1 F120
G1 X2.390096834287634 Y-32.35397454082288 F120
G0 Z5
G0 X1.9050000000000002 Y-30.861
G1 Z-0.1 F120
G1 X2.0293164486103104 Y-31.64590316571237 F120
G0 Z5
G0 X2.02931644861031 Y-30.076096834287636
G1 Z-0.1 F120
G1 X1.9050000000000002 Y-30.861 F120
G0 Z5
G0 X2.3900968342876334 Y-29.36802545917712
G1 Z-0.1 F120
G1 X2.02931644861031 Y-30.076096834287636 F120
G0 Z5
G0 X2.9520254591771184 Y-28.806096834287633
G1 Z-0.1 F120
G1 X2.3900968342876334 Y-29.36802545917712 F120
G0 Z5
G0 X3.6600968342876334 Y-28.44531644861031
G1 Z-0.1 F120
G1 X2.9520254591771184 Y-28.806096834287633 F120
G0 Z5
G0 X4.444999999999999 Y-28.321
G1 Z-0.1 F120
G1 X3.6600968342876334 Y-28.44531644861031 F120
G0 Z5
G0 X5.229903165712367 Y-28.44531644861031
G1 Z-0.1 F120
G1 X4.444999999999999 Y-28.321 F120
G0 Z5
G0 X5.937974540822881 Y-28.806096834287633
G1 Z-0.1 F120
G1 X5.229903165712367 Y-28.44531644861031 F120
G0 Z5
G0 X6.499903165712366 Y-29.36802545917712
G1 Z-0.1 F120
G1 X5.937974540822881 Y-28.806096834287633 F120
G0 Z5
G0 X6.86068355138969 Y-30.076096834287632
G1 Z-0.1 F120
G1 X6.499903165712366 Y-29.36802545917712 F120
G0 Z5
G0 X6.985 Y-30.861
G1 Z-0.1 F120
G1 X6.86068355138969 Y-30.076096834287632 F120
G0 Z5
G0 X6.86093355138969 Y-40.281903165712365
G1 Z-0.1 F120
G1 X6.98525 Y-39.497 F120
G0 Z5
G0 X6.500153165712366 Y-40.989974540822885
G1 Z-0.1 F120
G1 X6.86093355138969 Y-40.281903165712365 F120
G0 Z5
G0 X5.9382245408228815 Y-41.55190316571237
G1 Z-0.1 F120
G1 X6.500153165712366 Y-40.989974540822885 F120
G0 Z5
G0 X5.230153165712366 Y-41.91268355138969
G1 Z-0.1 F120
G1 X5.9382245408228815 Y-41.55190316571237 F120
G0 Z5
G0 X4.44525 Y-42.037
G1 Z-0.1 F120
G1 X5.230153165712366 Y-41.91268355138969 F120
G0 Z5
G0 X3.6603468342876333 Y-41.91268355138969
G1 Z-0.1 F120
G1 X4.44525 Y-42.037 F120
G0 Z5
G0 X2.952275459177118 Y-41.55190316571237
G1 Z-0.1 F120
G1 X3.6603468342876333 Y-41.91268355138969 F120
G0 Z5
G0 X2.3903468342876333 Y-40.989974540822885
G1 Z-0.1 F120
G1 X2.952275459177118 Y-41.55190316571237 F120
G0 Z5
G0 X2.0295664486103098 Y-40.281903165712365
G1 Z-0.1 F120
G1 X2.3903468342876333 Y-40.989974540822885 F120
G0 Z5
G0 X1.9052499999999997 Y-39.497
G1 Z-0.1 F120
G1 X2.0295664486103098 Y-40.281903165712365 F120
G0 Z5
G0 X2.0295664486103093 Y-38.712096834287635
G1 Z-0.1 F120
G1 X1.9052499999999997 Y-39.497 F120
G0 Z5
G0 X2.390346834287633 Y-38.00402545917712
G1 Z-0.1 F120
G1 X2.0295664486103093 Y-38.712096834287635 F120
G0 Z5
G0 X2.952275459177118 Y-37.44209683428763
G1 Z-0.1 F120
G1 X2.390346834287633 Y-38.00402545917712 F120
G0 Z5
G0 X3.660346834287633 Y-37.08131644861031
G1 Z-0.1 F120
G1 X2.952275459177118 Y-37.44209683428763 F120
G0 Z5
G0 X4.445249999999999 Y-36.957
G1 Z-0.1 F120
G1 X3.660346834287633 Y-37.08131644861031 F120
G0 Z5
G0 X5.230153165712366 Y-37.08131644861031
G1 Z-0.1 F120
G1 X4.445249999999999 Y-36.957 F120
G0 Z5
G0 X5.938224540822881 Y-37.44209683428763
G1 Z-0.1 F120
G1 X5.230153165712366 Y-37.08131644861031 F120
G0 Z5
G0 X6.500153165712366 Y-38.004025459177114
G1 Z-0.1 F120
G1 X5.938224540822881 Y-37.44209683428763 F120
G0 Z5
G0 X6.86093355138969 Y-38.712096834287635
G1 Z-0.1 F120
G1 X6.500153165712366 Y-38.004025459177114 F120
G0 Z5
G0 X6.98525 Y-39.497
G1 Z-0.1 F120
G1 X6.86093355138969 Y-38.712096834287635 F120
G0 Z5
G0 X6.86068355138969 Y-48.66390316571236
G1 Z-0.1 F120
G1 X6.985 Y-47.879 F120
G0 Z5
G0 X6.499903165712366 Y-49.371974540822876
G1 Z-0.1 F120
G1 X6.86068355138969 Y-48.66390316571236 F120
G0 Z5
G0 X5.937974540822882 Y-49.933903165712366
G1 Z-0.1 F120
G1 X6.499903165712366 Y-49.371974540822876 F120
G0 Z5
G0 X5.229903165712367 Y-50.29468355138969
G1 Z-0.1 F120
G1 X5.937974540822882 Y-49.933903165712366 F120
G0 Z5
G0 X4.445 Y-50.419
G1 Z-0.1 F120
G1 X5.229903165712367 Y-50.29468355138969 F120
G0 Z5
G0 X3.660096834287634 Y-50.29468355138969
G1 Z-0.1 F120
G1 X4.445 Y-50.419 F120
G0 Z5
G0 X2.9520254591771184 Y-49.933903165712366
G1 Z-0.1 F120
G1 X3.660096834287634 Y-50.29468355138969 F120
G0 Z5
G0 X2.390096834287634 Y-49.37197454082288
G1 Z-0.1 F120
G1 X2.9520254591771184 Y-49.933903165712366 F120
G0 Z5
G0 X2.0293164486103104 Y-48.66390316571236
G1 Z-0.1 F120
G1 X2.390096834287634 Y-49.37197454082288 F120
G0 Z5
G0 X1.9050000000000002 Y-47.879
G1 Z-0.1 F120
G1 X2.0293164486103104 Y-48.66390316571236 F120
G0 Z5
G0 X2.02931644861031 Y-47.09409683428763
G1 Z-0.1 F120
G1 X1.9050000000000002 Y-47.879 F120
G0 Z5
G0 X2.3900968342876334 Y-46.38602545917712
G1 Z-0.1 F120
G1 X2.02931644861031 Y-47.09409683428763 F120
G0 Z5
G0 X2.9520254591771184 Y-45.82409683428763
G1 Z-0.1 F120
G1 X2.3900968342876334 Y-46.38602545917712 F120
G0 Z5
G0 X3.6600968342876334 Y-45.46331644861031
G1 Z-0.1 F120
G1 X2.9520254591771184 Y-45.82409683428763 F120
G0 Z5
G0 X4.444999999999999 Y-45.339
G1 Z-0.1 F120
G1 X3.6600968342876334 Y-45.46331644861031 F120
G0 Z5
G0 X5.229903165712367 Y-45.46331644861031
G1 Z-0.1 F120
G1 X4.444999999999999 Y-45.339 F120
G0 Z5
G0 X5.937974540822881 Y-45.82409683428763
G1 Z-0.1 F120
G1 X5.229903165712367 Y-45.46331644861031 F120
G0 Z5
G0 X6.499903165712366 Y-46.38602545917711
G1 Z-0.1 F120
G1 X5.937974540822881 Y-45.82409683428763 F120
G0 Z5
G0 X6.86068355138969 Y-47.09409683428763
G1 Z-0.1 F120
G1 X6.499903165712366 Y-46.38602545917711 F120
G0 Z5
G0 X6.985 Y-47.879
G1 Z-0.1 F120
G1 X6.86068355138969 Y-47.09409683428763 F120
G0 Z5
G0 X6.86093355138969 Y-57.80790316571237
G1 Z-0.1 F120
G1 X6.98525 Y-57.023 F120
G0 Z5
G0 X6.500153165712366 Y-58.51597454082288
G1 Z-0.1 F120
G1 X6.86093355138969 Y-57.80790316571237 F120
G0 Z5
G0 X5.9382245408228815 Y-59.07790316571237
G1 Z-0.1 F120
G1 X6.500153165712366 Y-58.51597454082288 F120
G0 Z5
G0 X5.230153165712366 Y-59.438683551389694
G1 Z-0.1 F120
G1 X5.9382245408228815 Y-59.07790316571237 F120
G0 Z5
G0 X4.44525 Y-59.563
G1 Z-0.1 F120
G1 X5.230153165712366 Y-59.438683551389694 F120
G0 Z5
G0 X3.6603468342876333 Y-59.438683551389694
G1 Z-0.1 F120
G1 X4.44525 Y-59.563 F120
G0 Z5
G0 X2.952275459177118 Y-59.07790316571237
G1 Z-0.1 F120
G1 X3.6603468342876333 Y-59.438683551389694 F120
G0 Z5
G0 X2.3903468342876333 Y-58.51597454082289
G1 Z-0.1 F120
G1 X2.952275459177118 Y-59.07790316571237 F120
G0 Z5
G0 X2.0295664486103098 Y-57.80790316571237
G1 Z-0.1 F120
G1 X2.3903468342876333 Y-58.51597454082289 F120
G0 Z5
G0 X1.9052499999999997 Y-57.023
G1 Z-0.1 F120
G1 X2.0295664486103098 Y-57.80790316571237 F120
G0 Z5
G0 X2.0295664486103093 Y-56.23809683428764
G1 Z-0.1 F120
G1 X1.9052499999999997 Y-57.023 F120
G0 Z5
G0 X2.390346834287633 Y-55.530025459177125
G1 Z-0.1 F120
G1 X2.0295664486103093 Y-56.23809683428764 F120
G0 Z5
G0 X2.952275459177118 Y-54.968096834287635
G1 Z-0.1 F120
G1 X2.390346834287633 Y-55.530025459177125 F120
G0 Z5
G0 X3.660346834287633 Y-54.60731644861031
G1 Z-0.1 F120
G1 X2.952275459177118 Y-54.968096834287635 F120
G0 Z5
G0 X4.445249999999999 Y-54.483000000000004
G1 Z-0.1 F120
G1 X3.660346834287633 Y-54.60731644861031 F120
G0 Z5
G0 X5.230153165712366 Y-54.60731644861031
G1 Z-0.1 F120
G1 X4.445249999999999 Y-54.483000000000004 F120
G0 Z5
G0 X5.938224540822881 Y-54.968096834287635
G1 Z-0.1 F120
G1 X5.230153165712366 Y-54.60731644861031 F120
G0 Z5
G0 X6.500153165712366 Y-55.53002545917712
G1 Z-0.1 F120
G1 X5.938224540822881 Y-54.968096834287635 F120
G0 Z5
G0 X6.86093355138969 Y-56.23809683428764
G1 Z-0.1 F120
G1 X6.500153165712366 Y-55.53002545917712 F120
G0 Z5
G0 X6.98525 Y-57.023
G1 Z-0.1 F120
G1 X6.86093355138969 Y-56.23809683428764 F120
G0 Z5
G0 X6.86068355138969 Y-14.881903165712366
G1 Z-0.1 F120
G1 X6.985 Y-14.097 F120
G0 Z5
G0 X6.499903165712366 Y-15.589974540822881
G1 Z-0.1 F120
G1 X6.86068355138969 Y-14.881903165712366 F120
G0 Z5
G0 X5.937974540822882 Y-16.151903165712366
G1 Z-0.1 F120
G1 X6.499903165712366 Y-15.589974540822881 F120
G0 Z5
G0 X5.229903165712367 Y-16.51268355138969
G1 Z-0.1 F120
G1 X5.937974540822882 Y-16.151903165712366 F120
G0 Z5
G0 X4.445 Y-16.637
G1 Z-0.1 F120
G1 X5.229903165712367 Y-16.51268355138969 F120
G0 Z5
G0 X3.660096834287634 Y-16.51268355138969
G1 Z-0.1 F120
G1 X4.445 Y-16.637 F120
G0 Z5
G0 X2.9520254591771184 Y-16.151903165712366
G1 Z-0.1 F120
G1 X3.660096834287634 Y-16.51268355138969 F120
G0 Z5
G0 X2.390096834287634 Y-15.589974540822881
G1 Z-0.1 F120
G1 X2.9520254591771184 Y-16.151903165712366 F120
G0 Z5
G0 X2.0293164486103104 Y-14.881903165712366
G1 Z-0.1 F120
G1 X2.390096834287634 Y-15.589974540822881 F120
G0 Z5
G0 X1.9050000000000002 Y-14.097
G1 Z-0.1 F120
G1 X2.0293164486103104 Y-14.881903165712366 F120
G0 Z5
G0 X2.02931644861031 Y-13.312096834287633
G1 Z-0.1 F120
G1 X1.9050000000000002 Y-14.097 F120
G0 Z5
G0 X2.3900968342876334 Y-12.604025459177118
G1 Z-0.1 F120
G1 X2.02931644861031 Y-13.312096834287633 F120
G0 Z5
G0 X2.9520254591771184 Y-12.042096834287634
G1 Z-0.1 F120
G1 X2.3900968342876334 Y-12.604025459177118 F120
G0 Z5
G0 X3.6600968342876334 Y-11.68131644861031
G1 Z-0.1 F120
G1 X2.9520254591771184 Y-12.042096834287634 F120
G0 Z5
G0 X4.444999999999999 Y-11.556999999999999
G1 Z-0.1 F120
G1 X3.6600968342876334 Y-11.68131644861031 F120
G0 Z5
G0 X5.229903165712367 Y-11.681316448610309
G1 Z-0.1 F120
G1 X4.444999999999999 Y-11.556999999999999 F120
G0 Z5
G0 X5.937974540822881 Y-12.042096834287634
G1 Z-0.1 F120
G1 X5.229903165712367 Y-11.681316448610309 F120
G0 Z5
G0 X6.499903165712366 Y-12.604025459177118
G1 Z-0.1 F120
G1 X5.937974540822881 Y-12.042096834287634 F120
G0 Z5
G0 X6.86068355138969 Y-13.312096834287633
G1 Z-0.1 F120
G1 X6.499903165712366 Y-12.604025459177118 F120
G0 Z5
G0 X6.985 Y-14.097
G1 Z-0.1 F120
G1 X6.86068355138969 Y-13.312096834287633 F120
M30