
    ;Header Start
    ;header_type: cnc
    ;tool_head: levelTwoCNCToolheadForSM2
    ;machine: A400
    ;gcode_flavor: marlin
    ;renderMethod: line
    ;max_power: (255,)
    ;file_total_lines: FILE_TOTAL_LINE_COUNT
    ;estimated_time(s): ESTIMATED_TIME
    ;is_rotate: false
    ;diameter: 0
    ;max_x(mm): 66.12686
    ;max_y(mm): 96.12679999999999
    ;max_z(mm): 80
    ;max_b(mm): 0
    ;min_x(mm): 6.87298
    ;min_y(mm): 56.872879999999995
    ;min_b(mm): 0
    ;min_z(mm): -3.5
    ;work_speed(mm/minute): 120
    ;jog_speed(mm/minute): 1500
    ;power(%): 0
    ;work_size_x: 400
    ;work_size_y: 400
    ;origin: bottom-left
    ;Header End
    ;PCB_To_CNC v2
    ; Made by Daniel Dobromylskyj (https://www.github.com/DanielDobromylskyj)
    ; G-code START <<<
G00 X11.76 Y3.84 Z3 F1500
M03 S18000
G01 X11.76 Y3.84 Z-0.1 F120
G01 X11.78 Y3.84 Z-0.1 F120
G01 X11.8 Y3.84 Z-0.1 F120
G01 X11.82 Y3.84 Z-0.1 F120
G01 X11.84 Y3.84 Z-0.1 F120
G01 X11.86 Y3.84 Z-0.1 F120
G01 X11.88 Y3.84 Z-0.1 F120
G01 X11.9 Y3.84 Z-0.1 F120
G01 X11.92 Y3.84 Z-0.1 F120
G01 X11.94 Y3.84 Z-0.1 F120
G01 X11.96 Y3.84 Z-0.1 F120
G01 X11.98 Y3.84 Z-0.1 F120
G01 X12.0 Y3.84 Z-0.1 F120
G01 X12.02 Y3.84 Z-0.1 F120
G01 X12.04 Y3.84 Z-0.1 F120
G01 X12.06 Y3.84 Z-0.1 F120
G01 X12.08 Y3.84 Z-0.1 F120
G01 X12.08 Y3.86 Z-0.1 F120
G01 X12.1 Y3.86 Z-0.1 F120
G01 X12.12 Y3.86 Z-0.1 F120
G01 X12.14 Y3.86 Z-0.1 F120
G01 X12.16 Y3.86 Z-0.1 F120
G01 X12.18 Y3.86 Z-0.1 F120
G01 X12.2 Y3.86 Z-0.1 F120
G01 X12.22 Y3.86 Z-0.1 F120
G01 X12.22 Y3.88 Z-0.1 F120
G01 X12.24 Y3.88 Z-0.1 F120
G01 X12.26 Y3.88 Z-0.1 F120
G01 X12.28 Y3.88 Z-0.1 F120
G01 X12.28 Y3.9 Z-0.1 F120
G01 X12.3 Y3.9 Z-0.1 F120
G01 X12.32 Y3.9 Z-0.1 F120
G01 X12.34 Y3.9 Z-0.1 F120
G01 X12.34 Y3.92 Z-0.1 F120
G01 X12.36 Y3.92 Z-0.1 F120
G01 X12.38 Y3.92 Z-0.1 F120
G01 X12.38 Y3.94 Z-0.1 F120
G01 X12.4 Y3.94 Z-0.1 F120
G01 X12.42 Y3.94 Z-0.1 F120
G01 X12.44 Y3.94 Z-0.1 F120
G01 X12.44 Y3.96 Z-0.1 F120
G01 X12.46 Y3.96 Z-0.1 F120
G01 X12.48 Y3.96 Z-0.1 F120
G01 X12.48 Y3.98 Z-0.1 F120
G01 X12.5 Y3.98 Z-0.1 F120
G01 X12.52 Y3.98 Z-0.1 F120
G01 X12.52 Y4.0 Z-0.1 F120
G01 X12.54 Y4.0 Z-0.1 F120
G01 X12.56 Y4.0 Z-0.1 F120
G01 X12.56 Y4.02 Z-0.1 F120
G01 X12.58 Y4.02 Z-0.1 F120
G01 X12.58 Y4.04 Z-0.1 F120
G01 X12.6 Y4.04 Z-0.1 F120
G01 X12.6 Y4.06 Z-0.1 F120
G01 X12.62 Y4.06 Z-0.1 F120
G01 X12.64 Y4.06 Z-0.1 F120
G01 X12.64 Y4.08 Z-0.1 F120
G01 X12.66 Y4.08 Z-0.1 F120
G01 X12.66 Y4.1 Z-0.1 F120
G01 X12.68 Y4.1 Z-0.1 F120
G01 X12.68 Y4.12 Z-0.1 F120
G01 X12.7 Y4.12 Z-0.1 F120
G01 X12.7 Y4.14 Z-0.1 F120
G01 X12.72 Y4.14 Z-0.1 F120
G01 X12.74 Y4.14 Z-0.1 F120
G01 X12.74 Y4.16 Z-0.1 F120
G01 X12.76 Y4.16 Z-0.1 F120
G01 X12.76 Y4.18 Z-0.1 F120
G01 X12.78 Y4.18 Z-0.1 F120
G01 X12.78 Y4.2 Z-0.1 F120
G01 X12.8 Y4.2 Z-0.1 F120
G01 X12.8 Y4.22 Z-0.1 F120
G01 X12.8 Y4.24 Z-0.1 F120
G01 X12.82 Y4.24 Z-0.1 F120
G01 X12.82 Y4.26 Z-0.1 F120
G01 X12.84 Y4.26 Z-0.1 F120
G01 X12.84 Y4.28 Z-0.1 F120
G01 X12.86 Y4.28 Z-0.1 F120
G01 X12.86 Y4.3 Z-0.1 F120
G01 X12.86 Y4.32 Z-0.1 F120
G01 X12.88 Y4.32 Z-0.1 F120
G01 X12.88 Y4.34 Z-0.1 F120
G01 X12.88 Y4.36 Z-0.1 F120
G01 X12.9 Y4.36 Z-0.1 F120
G01 X12.9 Y4.38 Z-0.1 F120
G01 X12.9 Y4.4 Z-0.1 F120
G01 X12.92 Y4.4 Z-0.1 F120
G01 X12.92 Y4.42 Z-0.1 F120
G01 X12.92 Y4.44 Z-0.1 F120
G01 X12.94 Y4.44 Z-0.1 F120
G01 X12.94 Y4.46 Z-0.1 F120
G01 X12.94 Y4.48 Z-0.1 F120
G01 X12.96 Y4.48 Z-0.1 F120
G01 X12.96 Y4.5 Z-0.1 F120
G01 X12.96 Y4.52 Z-0.1 F120
G01 X12.98 Y4.52 Z-0.1 F120
G01 X12.98 Y4.54 Z-0.1 F120
G01 X12.98 Y4.56 Z-0.1 F120
G01 X12.98 Y4.58 Z-0.1 F120
G01 X13.0 Y4.58 Z-0.1 F120
G01 X13.0 Y4.6 Z-0.1 F120
G01 X13.0 Y4.62 Z-0.1 F120
G01 X13.0 Y4.64 Z-0.1 F120
G01 X13.0 Y4.66 Z-0.1 F120
G01 X13.0 Y4.68 Z-0.1 F120
G01 X13.02 Y4.68 Z-0.1 F120
G01 X13.02 Y4.7 Z-0.1 F120
G01 X13.02 Y4.72 Z-0.1 F120
G01 X13.02 Y4.74 Z-0.1 F120
G01 X13.02 Y4.76 Z-0.1 F120
G01 X13.02 Y4.78 Z-0.1 F120
G01 X13.02 Y4.8 Z-0.1 F120
G01 X13.02 Y4.82 Z-0.1 F120
G01 X13.02 Y4.84 Z-0.1 F120
G01 X13.02 Y4.86 Z-0.1 F120
G01 X13.02 Y4.88 Z-0.1 F120
G01 X13.02 Y4.9 Z-0.1 F120
G01 X13.02 Y4.92 Z-0.1 F120
G01 X13.02 Y4.94 Z-0.1 F120
G01 X13.02 Y4.96 Z-0.1 F120
G01 X13.02 Y4.98 Z-0.1 F120
G01 X13.02 Y5.0 Z-0.1 F120
G01 X13.02 Y5.02 Z-0.1 F120
G01 X13.02 Y5.04 Z-0.1 F120
G01 X13.02 Y5.06 Z-0.1 F120
G01 X13.02 Y5.08 Z-0.1 F120
G01 X13.02 Y5.1 Z-0.1 F120
G01 X13.02 Y5.12 Z-0.1 F120
G01 X13.02 Y5.14 Z-0.1 F120
G01 X13.02 Y5.16 Z-0.1 F120
G01 X13.02 Y5.18 Z-0.1 F120
G01 X13.02 Y5.2 Z-0.1 F120
G01 X13.02 Y5.22 Z-0.1 F120
G01 X13.0 Y5.22 Z-0.1 F120
G01 X13.0 Y5.24 Z-0.1 F120
G01 X13.0 Y5.26 Z-0.1 F120
G01 X13.0 Y5.28 Z-0.1 F120
G01 X13.0 Y5.3 Z-0.1 F120
G01 X13.0 Y5.32 Z-0.1 F120
G01 X12.98 Y5.32 Z-0.1 F120
G01 X12.98 Y5.34 Z-0.1 F120
G01 X12.98 Y5.36 Z-0.1 F120
G01 X12.98 Y5.38 Z-0.1 F120
G01 X12.96 Y5.38 Z-0.1 F120
G01 X12.96 Y5.4 Z-0.1 F120
G01 X12.96 Y5.42 Z-0.1 F120
G01 X12.94 Y5.42 Z-0.1 F120
G01 X12.94 Y5.44 Z-0.1 F120
G01 X12.94 Y5.46 Z-0.1 F120
G01 X12.92 Y5.46 Z-0.1 F120
G01 X12.92 Y5.48 Z-0.1 F120
G01 X12.92 Y5.5 Z-0.1 F120
G01 X12.9 Y5.5 Z-0.1 F120
G01 X12.9 Y5.52 Z-0.1 F120
G01 X12.88 Y5.52 Z-0.1 F120
G01 X12.88 Y5.54 Z-0.1 F120
G01 X12.88 Y5.56 Z-0.1 F120
G01 X12.86 Y5.56 Z-0.1 F120
G01 X12.86 Y5.58 Z-0.1 F120
G01 X12.86 Y5.6 Z-0.1 F120
G01 X12.84 Y5.6 Z-0.1 F120
G01 X12.84 Y5.62 Z-0.1 F120
G01 X12.84 Y5.64 Z-0.1 F120
G01 X12.82 Y5.64 Z-0.1 F120
G01 X12.82 Y5.66 Z-0.1 F120
G01 X12.8 Y5.66 Z-0.1 F120
G01 X12.8 Y5.68 Z-0.1 F120
G01 X12.8 Y5.7 Z-0.1 F120
G01 X12.78 Y5.7 Z-0.1 F120
G01 X12.78 Y5.72 Z-0.1 F120
G01 X12.76 Y5.72 Z-0.1 F120
G01 X12.76 Y5.74 Z-0.1 F120
G01 X12.74 Y5.74 Z-0.1 F120
G01 X12.74 Y5.76 Z-0.1 F120
G01 X12.72 Y5.76 Z-0.1 F120
G01 X12.7 Y5.76 Z-0.1 F120
G01 X12.7 Y5.78 Z-0.1 F120
G01 X12.68 Y5.78 Z-0.1 F120
G01 X12.68 Y5.8 Z-0.1 F120
G01 X12.66 Y5.8 Z-0.1 F120
G01 X12.66 Y5.82 Z-0.1 F120
G01 X12.64 Y5.82 Z-0.1 F120
G01 X12.64 Y5.84 Z-0.1 F120
G01 X12.62 Y5.84 Z-0.1 F120
G01 X12.6 Y5.84 Z-0.1 F120
G01 X12.6 Y5.86 Z-0.1 F120
G01 X12.58 Y5.86 Z-0.1 F120
G01 X12.58 Y5.88 Z-0.1 F120
G01 X12.56 Y5.88 Z-0.1 F120
G01 X12.56 Y5.9 Z-0.1 F120
G01 X12.54 Y5.9 Z-0.1 F120
G01 X12.52 Y5.9 Z-0.1 F120
G01 X12.52 Y5.92 Z-0.1 F120
G01 X12.5 Y5.92 Z-0.1 F120
G01 X12.48 Y5.92 Z-0.1 F120
G01 X12.48 Y5.94 Z-0.1 F120
G01 X12.46 Y5.94 Z-0.1 F120
G01 X12.44 Y5.94 Z-0.1 F120
G01 X12.44 Y5.96 Z-0.1 F120
G01 X12.42 Y5.96 Z-0.1 F120
G01 X12.4 Y5.96 Z-0.1 F120
G01 X12.38 Y5.96 Z-0.1 F120
G01 X12.38 Y5.98 Z-0.1 F120
G01 X12.36 Y5.98 Z-0.1 F120
G01 X12.34 Y5.98 Z-0.1 F120
G01 X12.34 Y6.0 Z-0.1 F120
G01 X12.32 Y6.0 Z-0.1 F120
G01 X12.3 Y6.0 Z-0.1 F120
G01 X12.28 Y6.0 Z-0.1 F120
G01 X12.26 Y6.0 Z-0.1 F120
G01 X12.24 Y6.0 Z-0.1 F120
G01 X12.22 Y6.0 Z-0.1 F120
G01 X12.22 Y6.02 Z-0.1 F120
G01 X12.2 Y6.02 Z-0.1 F120
G01 X12.18 Y6.02 Z-0.1 F120
G01 X12.16 Y6.02 Z-0.1 F120
G01 X12.14 Y6.02 Z-0.1 F120
G01 X12.12 Y6.02 Z-0.1 F120
G01 X12.1 Y6.02 Z-0.1 F120
G01 X12.08 Y6.02 Z-0.1 F120
G01 X12.08 Y6.04 Z-0.1 F120
G01 X12.06 Y6.04 Z-0.1 F120
G01 X12.04 Y6.04 Z-0.1 F120
G01 X12.02 Y6.04 Z-0.1 F120
G01 X12.0 Y6.04 Z-0.1 F120
G01 X11.98 Y6.04 Z-0.1 F120
G01 X11.96 Y6.04 Z-0.1 F120
G01 X11.94 Y6.04 Z-0.1 F120
G01 X11.92 Y6.04 Z-0.1 F120
G01 X11.9 Y6.04 Z-0.1 F120
G01 X11.88 Y6.04 Z-0.1 F120
G01 X11.86 Y6.04 Z-0.1 F120
G01 X11.84 Y6.04 Z-0.1 F120
G01 X11.82 Y6.04 Z-0.1 F120
G01 X11.8 Y6.04 Z-0.1 F120
G01 X11.78 Y6.04 Z-0.1 F120
G01 X11.76 Y6.04 Z-0.1 F120
G01 X11.76 Y6.02 Z-0.1 F120
G01 X11.74 Y6.02 Z-0.1 F120
G01 X11.72 Y6.02 Z-0.1 F120
G01 X11.7 Y6.02 Z-0.1 F120
G01 X11.68 Y6.02 Z-0.1 F120
G01 X11.66 Y6.02 Z-0.1 F120
G01 X11.64 Y6.02 Z-0.1 F120
G01 X11.64 Y6.0 Z-0.1 F120
G01 X11.62 Y6.0 Z-0.1 F120
G01 X11.6 Y6.0 Z-0.1 F120
G01 X11.58 Y6.0 Z-0.1 F120
G01 X11.56 Y6.0 Z-0.1 F120
G01 X11.54 Y6.0 Z-0.1 F120
G01 X11.52 Y6.0 Z-0.1 F120
G01 X11.52 Y5.98 Z-0.1 F120
G01 X11.5 Y5.98 Z-0.1 F120
G01 X11.48 Y5.98 Z-0.1 F120
G01 X11.46 Y5.98 Z-0.1 F120
G01 X11.46 Y5.96 Z-0.1 F120
G01 X11.44 Y5.96 Z-0.1 F120
G01 X11.42 Y5.96 Z-0.1 F120
G01 X11.4 Y5.96 Z-0.1 F120
G01 X11.4 Y5.94 Z-0.1 F120
G01 X11.38 Y5.94 Z-0.1 F120
G01 X11.36 Y5.94 Z-0.1 F120
G01 X11.36 Y5.92 Z-0.1 F120
G01 X11.34 Y5.92 Z-0.1 F120
G01 X11.32 Y5.92 Z-0.1 F120
G01 X11.32 Y5.9 Z-0.1 F120
G01 X11.3 Y5.9 Z-0.1 F120
G01 X11.28 Y5.9 Z-0.1 F120
G01 X11.28 Y5.88 Z-0.1 F120
G01 X11.26 Y5.88 Z-0.1 F120
G01 X11.26 Y5.86 Z-0.1 F120
G01 X11.24 Y5.86 Z-0.1 F120
G01 X11.24 Y5.84 Z-0.1 F120
G01 X11.22 Y5.84 Z-0.1 F120
G01 X11.2 Y5.84 Z-0.1 F120
G01 X11.2 Y5.82 Z-0.1 F120
G01 X11.18 Y5.82 Z-0.1 F120
G01 X11.18 Y5.8 Z-0.1 F120
G01 X11.16 Y5.8 Z-0.1 F120
G01 X11.16 Y5.78 Z-0.1 F120
G01 X11.14 Y5.78 Z-0.1 F120
G01 X11.14 Y5.76 Z-0.1 F120
G01 X11.12 Y5.76 Z-0.1 F120
G01 X11.12 Y5.74 Z-0.1 F120
G01 X11.1 Y5.74 Z-0.1 F120
G01 X11.1 Y5.72 Z-0.1 F120
G01 X11.08 Y5.72 Z-0.1 F120
G01 X11.08 Y5.7 Z-0.1 F120
G01 X11.06 Y5.7 Z-0.1 F120
G01 X11.06 Y5.68 Z-0.1 F120
G01 X11.06 Y5.66 Z-0.1 F120
G01 X11.04 Y5.66 Z-0.1 F120
G01 X11.04 Y5.64 Z-0.1 F120
G01 X11.02 Y5.64 Z-0.1 F120
G01 X11.02 Y5.62 Z-0.1 F120
G01 X11.0 Y5.62 Z-0.1 F120
G01 X11.0 Y5.6 Z-0.1 F120
G01 X11.0 Y5.58 Z-0.1 F120
G01 X10.98 Y5.58 Z-0.1 F120
G01 X10.98 Y5.56 Z-0.1 F120
G01 X10.96 Y5.56 Z-0.1 F120
G01 X10.96 Y5.54 Z-0.1 F120
G01 X10.96 Y5.52 Z-0.1 F120
G01 X10.94 Y5.52 Z-0.1 F120
G01 X10.94 Y5.5 Z-0.1 F120
G01 X10.94 Y5.48 Z-0.1 F120
G01 X10.92 Y5.48 Z-0.1 F120
G01 X10.92 Y5.46 Z-0.1 F120
G01 X10.92 Y5.44 Z-0.1 F120
G01 X10.9 Y5.44 Z-0.1 F120
G01 X10.9 Y5.42 Z-0.1 F120
G01 X10.9 Y5.4 Z-0.1 F120
G01 X10.9 Y5.38 Z-0.1 F120
G01 X10.88 Y5.38 Z-0.1 F120
G01 X10.88 Y5.36 Z-0.1 F120
G01 X10.88 Y5.34 Z-0.1 F120
G01 X10.88 Y5.32 Z-0.1 F120
G01 X10.86 Y5.32 Z-0.1 F120
G01 X10.86 Y5.3 Z-0.1 F120
G01 X10.86 Y5.28 Z-0.1 F120
G01 X10.86 Y5.26 Z-0.1 F120
G01 X10.86 Y5.24 Z-0.1 F120
G01 X10.86 Y5.22 Z-0.1 F120
G01 X10.84 Y5.22 Z-0.1 F120
G01 X10.84 Y5.2 Z-0.1 F120
G01 X10.84 Y5.18 Z-0.1 F120
G01 X10.84 Y5.16 Z-0.1 F120
G01 X10.84 Y5.14 Z-0.1 F120
G01 X10.84 Y5.12 Z-0.1 F120
G01 X10.84 Y5.1 Z-0.1 F120
G01 X10.82 Y5.1 Z-0.1 F120
G01 X10.82 Y5.08 Z-0.1 F120
G01 X10.82 Y5.06 Z-0.1 F120
G01 X10.82 Y5.04 Z-0.1 F120
G01 X10.82 Y5.02 Z-0.1 F120
G01 X10.82 Y5.0 Z-0.1 F120
G01 X10.82 Y4.98 Z-0.1 F120
G01 X10.82 Y4.96 Z-0.1 F120
G01 X10.82 Y4.94 Z-0.1 F120
G01 X10.82 Y4.92 Z-0.1 F120
G01 X10.82 Y4.9 Z-0.1 F120
G01 X10.82 Y4.88 Z-0.1 F120
G01 X10.82 Y4.86 Z-0.1 F120
G01 X10.82 Y4.84 Z-0.1 F120
G01 X10.82 Y4.82 Z-0.1 F120
G01 X10.82 Y4.8 Z-0.1 F120
G01 X10.84 Y4.8 Z-0.1 F120
G01 X10.84 Y4.78 Z-0.1 F120
G01 X10.84 Y4.76 Z-0.1 F120
G01 X10.84 Y4.74 Z-0.1 F120
G01 X10.84 Y4.72 Z-0.1 F120
G01 X10.84 Y4.7 Z-0.1 F120
G01 X10.84 Y4.68 Z-0.1 F120
G01 X10.86 Y4.68 Z-0.1 F120
G01 X10.86 Y4.66 Z-0.1 F120
G01 X10.86 Y4.64 Z-0.1 F120
G01 X10.86 Y4.62 Z-0.1 F120
G01 X10.86 Y4.6 Z-0.1 F120
G01 X10.86 Y4.58 Z-0.1 F120
G01 X10.88 Y4.58 Z-0.1 F120
G01 X10.88 Y4.56 Z-0.1 F120
G01 X10.88 Y4.54 Z-0.1 F120
G01 X10.88 Y4.52 Z-0.1 F120
G01 X10.9 Y4.52 Z-0.1 F120
G01 X10.9 Y4.5 Z-0.1 F120
G01 X10.9 Y4.48 Z-0.1 F120
G01 X10.9 Y4.46 Z-0.1 F120
G01 X10.92 Y4.46 Z-0.1 F120
G01 X10.92 Y4.44 Z-0.1 F120
G01 X10.92 Y4.42 Z-0.1 F120
G01 X10.92 Y4.4 Z-0.1 F120
G01 X10.94 Y4.4 Z-0.1 F120
G01 X10.94 Y4.38 Z-0.1 F120
G01 X10.94 Y4.36 Z-0.1 F120
G01 X10.96 Y4.36 Z-0.1 F120
G01 X10.96 Y4.34 Z-0.1 F120
G01 X10.98 Y4.34 Z-0.1 F120
G01 X10.98 Y4.32 Z-0.1 F120
G01 X10.98 Y4.3 Z-0.1 F120
G01 X11.0 Y4.3 Z-0.1 F120
G01 X11.0 Y4.28 Z-0.1 F120
G01 X11.02 Y4.28 Z-0.1 F120
G01 X11.02 Y4.26 Z-0.1 F120
G01 X11.04 Y4.26 Z-0.1 F120
G01 X11.04 Y4.24 Z-0.1 F120
G01 X11.06 Y4.24 Z-0.1 F120
G01 X11.06 Y4.22 Z-0.1 F120
G01 X11.06 Y4.2 Z-0.1 F120
G01 X11.08 Y4.2 Z-0.1 F120
G01 X11.08 Y4.18 Z-0.1 F120
G01 X11.1 Y4.18 Z-0.1 F120
G01 X11.1 Y4.16 Z-0.1 F120
G01 X11.12 Y4.16 Z-0.1 F120
G01 X11.12 Y4.14 Z-0.1 F120
G01 X11.14 Y4.14 Z-0.1 F120
G01 X11.14 Y4.12 Z-0.1 F120
G01 X11.16 Y4.12 Z-0.1 F120
G01 X11.16 Y4.1 Z-0.1 F120
G01 X11.18 Y4.1 Z-0.1 F120
G01 X11.18 Y4.08 Z-0.1 F120
G01 X11.2 Y4.08 Z-0.1 F120
G01 X11.2 Y4.06 Z-0.1 F120
G01 X11.22 Y4.06 Z-0.1 F120
G01 X11.24 Y4.06 Z-0.1 F120
G01 X11.24 Y4.04 Z-0.1 F120
G01 X11.26 Y4.04 Z-0.1 F120
G01 X11.26 Y4.02 Z-0.1 F120
G01 X11.28 Y4.02 Z-0.1 F120
G01 X11.28 Y4.0 Z-0.1 F120
G01 X11.3 Y4.0 Z-0.1 F120
G01 X11.32 Y4.0 Z-0.1 F120
G01 X11.32 Y3.98 Z-0.1 F120
G01 X11.34 Y3.98 Z-0.1 F120
G01 X11.36 Y3.98 Z-0.1 F120
G01 X11.36 Y3.96 Z-0.1 F120
G01 X11.38 Y3.96 Z-0.1 F120
G01 X11.4 Y3.96 Z-0.1 F120
G01 X11.4 Y3.94 Z-0.1 F120
G01 X11.42 Y3.94 Z-0.1 F120
G01 X11.44 Y3.94 Z-0.1 F120
G01 X11.46 Y3.94 Z-0.1 F120
G01 X11.46 Y3.92 Z-0.1 F120
G01 X11.48 Y3.92 Z-0.1 F120
G01 X11.5 Y3.92 Z-0.1 F120
G01 X11.52 Y3.92 Z-0.1 F120
G01 X11.52 Y3.9 Z-0.1 F120
G01 X11.54 Y3.9 Z-0.1 F120
G01 X11.56 Y3.9 Z-0.1 F120
G01 X11.58 Y3.9 Z-0.1 F120
G01 X11.58 Y3.88 Z-0.1 F120
G01 X11.6 Y3.88 Z-0.1 F120
G01 X11.62 Y3.88 Z-0.1 F120
G01 X11.64 Y3.88 Z-0.1 F120
G01 X11.64 Y3.86 Z-0.1 F120
G01 X11.66 Y3.86 Z-0.1 F120
G01 X11.68 Y3.86 Z-0.1 F120
G01 X11.7 Y3.86 Z-0.1 F120
G01 X11.72 Y3.86 Z-0.1 F120
G01 X11.74 Y3.86 Z-0.1 F120
G01 X11.76 Y3.86 Z-0.1 F120
G01 X11.76 Y3.84 Z-0.1 F120
M05
G00 X11.76 Y3.84 Z3 F1500
G00 X16.84 Y3.84 Z3 F1500
M03 S18000
G01 X16.84 Y3.84 Z-0.1 F120
G01 X16.86 Y3.84 Z-0.1 F120
G01 X16.88 Y3.84 Z-0.1 F120
G01 X16.9 Y3.84 Z-0.1 F120
G01 X16.92 Y3.84 Z-0.1 F120
G01 X16.94 Y3.84 Z-0.1 F120
G01 X16.96 Y3.84 Z-0.1 F120
G01 X16.98 Y3.84 Z-0.1 F120
G01 X17.0 Y3.84 Z-0.1 F120
G01 X17.02 Y3.84 Z-0.1 F120
G01 X17.04 Y3.84 Z-0.1 F120
G01 X17.06 Y3.84 Z-0.1 F120
G01 X17.08 Y3.84 Z-0.1 F120
G01 X17.1 Y3.84 Z-0.1 F120
G01 X17.12 Y3.84 Z-0.1 F120
G01 X17.14 Y3.84 Z-0.1 F120
G01 X17.16 Y3.84 Z-0.1 F120
G01 X17.16 Y3.86 Z-0.1 F120
G01 X17.18 Y3.86 Z-0.1 F120
G01 X17.2 Y3.86 Z-0.1 F120
G01 X17.22 Y3.86 Z-0.1 F120
G01 X17.24 Y3.86 Z-0.1 F120
G01 X17.26 Y3.86 Z-0.1 F120
G01 X17.28 Y3.86 Z-0.1 F120
G01 X17.3 Y3.86 Z-0.1 F120
G01 X17.3 Y3.88 Z-0.1 F120
G01 X17.32 Y3.88 Z-0.1 F120
G01 X17.34 Y3.88 Z-0.1 F120
G01 X17.36 Y3.88 Z-0.1 F120
G01 X17.36 Y3.9 Z-0.1 F120
G01 X17.38 Y3.9 Z-0.1 F120
G01 X17.4 Y3.9 Z-0.1 F120
G01 X17.42 Y3.9 Z-0.1 F120
G01 X17.42 Y3.92 Z-0.1 F120
G01 X17.44 Y3.92 Z-0.1 F120
G01 X17.46 Y3.92 Z-0.1 F120
G01 X17.46 Y3.94 Z-0.1 F120
G01 X17.48 Y3.94 Z-0.1 F120
G01 X17.5 Y3.94 Z-0.1 F120
G01 X17.52 Y3.94 Z-0.1 F120
G01 X17.52 Y3.96 Z-0.1 F120
G01 X17.54 Y3.96 Z-0.1 F120
G01 X17.56 Y3.96 Z-0.1 F120
G01 X17.56 Y3.98 Z-0.1 F120
G01 X17.58 Y3.98 Z-0.1 F120
G01 X17.6 Y3.98 Z-0.1 F120
G01 X17.6 Y4.0 Z-0.1 F120
G01 X17.62 Y4.0 Z-0.1 F120
G01 X17.64 Y4.0 Z-0.1 F120
G01 X17.64 Y4.02 Z-0.1 F120
G01 X17.66 Y4.02 Z-0.1 F120
G01 X17.66 Y4.04 Z-0.1 F120
G01 X17.68 Y4.04 Z-0.1 F120
G01 X17.68 Y4.06 Z-0.1 F120
G01 X17.7 Y4.06 Z-0.1 F120
G01 X17.72 Y4.06 Z-0.1 F120
G01 X17.72 Y4.08 Z-0.1 F120
G01 X17.74 Y4.08 Z-0.1 F120
G01 X17.74 Y4.1 Z-0.1 F120
G01 X17.76 Y4.1 Z-0.1 F120
G01 X17.76 Y4.12 Z-0.1 F120
G01 X17.78 Y4.12 Z-0.1 F120
G01 X17.78 Y4.14 Z-0.1 F120
G01 X17.8 Y4.14 Z-0.1 F120
G01 X17.82 Y4.14 Z-0.1 F120
G01 X17.82 Y4.16 Z-0.1 F120
G01 X17.84 Y4.16 Z-0.1 F120
G01 X17.84 Y4.18 Z-0.1 F120
G01 X17.86 Y4.18 Z-0.1 F120
G01 X17.86 Y4.2 Z-0.1 F120
G01 X17.88 Y4.2 Z-0.1 F120
G01 X17.88 Y4.22 Z-0.1 F120
G01 X17.88 Y4.24 Z-0.1 F120
G01 X17.9 Y4.24 Z-0.1 F120
G01 X17.9 Y4.26 Z-0.1 F120
G01 X17.92 Y4.26 Z-0.1 F120
G01 X17.92 Y4.28 Z-0.1 F120
G01 X17.94 Y4.28 Z-0.1 F120
G01 X17.94 Y4.3 Z-0.1 F120
G01 X17.94 Y4.32 Z-0.1 F120
G01 X17.96 Y4.32 Z-0.1 F120
G01 X17.96 Y4.34 Z-0.1 F120
G01 X17.96 Y4.36 Z-0.1 F120
G01 X17.98 Y4.36 Z-0.1 F120
G01 X17.98 Y4.38 Z-0.1 F120
G01 X17.98 Y4.4 Z-0.1 F120
G01 X18.0 Y4.4 Z-0.1 F120
G01 X18.0 Y4.42 Z-0.1 F120
G01 X18.0 Y4.44 Z-0.1 F120
G01 X18.02 Y4.44 Z-0.1 F120
G01 X18.02 Y4.46 Z-0.1 F120
G01 X18.02 Y4.48 Z-0.1 F120
G01 X18.04 Y4.48 Z-0.1 F120
G01 X18.04 Y4.5 Z-0.1 F120
G01 X18.04 Y4.52 Z-0.1 F120
G01 X18.06 Y4.52 Z-0.1 F120
G01 X18.06 Y4.54 Z-0.1 F120
G01 X18.06 Y4.56 Z-0.1 F120
G01 X18.06 Y4.58 Z-0.1 F120
G01 X18.08 Y4.58 Z-0.1 F120
G01 X18.08 Y4.6 Z-0.1 F120
G01 X18.08 Y4.62 Z-0.1 F120
G01 X18.08 Y4.64 Z-0.1 F120
G01 X18.08 Y4.66 Z-0.1 F120
G01 X18.08 Y4.68 Z-0.1 F120
G01 X18.1 Y4.68 Z-0.1 F120
G01 X18.1 Y4.7 Z-0.1 F120
G01 X18.1 Y4.72 Z-0.1 F120
G01 X18.1 Y4.74 Z-0.1 F120
G01 X18.1 Y4.76 Z-0.1 F120
G01 X18.1 Y4.78 Z-0.1 F120
G01 X18.1 Y4.8 Z-0.1 F120
G01 X18.1 Y4.82 Z-0.1 F120
G01 X18.1 Y4.84 Z-0.1 F120
G01 X18.1 Y4.86 Z-0.1 F120
G01 X18.1 Y4.88 Z-0.1 F120
G01 X18.1 Y4.9 Z-0.1 F120
G01 X18.1 Y4.92 Z-0.1 F120
G01 X18.1 Y4.94 Z-0.1 F120
G01 X18.1 Y4.96 Z-0.1 F120
G01 X18.1 Y4.98 Z-0.1 F120
G01 X18.1 Y5.0 Z-0.1 F120
G01 X18.1 Y5.02 Z-0.1 F120
G01 X18.1 Y5.04 Z-0.1 F120
G01 X18.1 Y5.06 Z-0.1 F120
G01 X18.1 Y5.08 Z-0.1 F120
G01 X18.1 Y5.1 Z-0.1 F120
G01 X18.1 Y5.12 Z-0.1 F120
G01 X18.1 Y5.14 Z-0.1 F120
G01 X18.1 Y5.16 Z-0.1 F120
G01 X18.1 Y5.18 Z-0.1 F120
G01 X18.1 Y5.2 Z-0.1 F120
G01 X18.1 Y5.22 Z-0.1 F120
G01 X18.08 Y5.22 Z-0.1 F120
G01 X18.08 Y5.24 Z-0.1 F120
G01 X18.08 Y5.26 Z-0.1 F120
G01 X18.08 Y5.28 Z-0.1 F120
G01 X18.08 Y5.3 Z-0.1 F120
G01 X18.08 Y5.32 Z-0.1 F120
G01 X18.06 Y5.32 Z-0.1 F120
G01 X18.06 Y5.34 Z-0.1 F120
G01 X18.06 Y5.36 Z-0.1 F120
G01 X18.06 Y5.38 Z-0.1 F120
G01 X18.04 Y5.38 Z-0.1 F120
G01 X18.04 Y5.4 Z-0.1 F120
G01 X18.04 Y5.42 Z-0.1 F120
G01 X18.02 Y5.42 Z-0.1 F120
G01 X18.02 Y5.44 Z-0.1 F120
G01 X18.02 Y5.46 Z-0.1 F120
G01 X18.0 Y5.46 Z-0.1 F120
G01 X18.0 Y5.48 Z-0.1 F120
G01 X18.0 Y5.5 Z-0.1 F120
G01 X17.98 Y5.5 Z-0.1 F120
G01 X17.98 Y5.52 Z-0.1 F120
G01 X17.96 Y5.52 Z-0.1 F120
G01 X17.96 Y5.54 Z-0.1 F120
G01 X17.96 Y5.56 Z-0.1 F120
G01 X17.94 Y5.56 Z-0.1 F120
G01 X17.94 Y5.58 Z-0.1 F120
G01 X17.94 Y5.6 Z-0.1 F120
G01 X17.92 Y5.6 Z-0.1 F120
G01 X17.92 Y5.62 Z-0.1 F120
G01 X17.92 Y5.64 Z-0.1 F120
G01 X17.9 Y5.64 Z-0.1 F120
G01 X17.9 Y5.66 Z-0.1 F120
G01 X17.88 Y5.66 Z-0.1 F120
G01 X17.88 Y5.68 Z-0.1 F120
G01 X17.88 Y5.7 Z-0.1 F120
G01 X17.86 Y5.7 Z-0.1 F120
G01 X17.86 Y5.72 Z-0.1 F120
G01 X17.84 Y5.72 Z-0.1 F120
G01 X17.84 Y5.74 Z-0.1 F120
G01 X17.82 Y5.74 Z-0.1 F120
G01 X17.82 Y5.76 Z-0.1 F120
G01 X17.8 Y5.76 Z-0.1 F120
G01 X17.78 Y5.76 Z-0.1 F120
G01 X17.78 Y5.78 Z-0.1 F120
G01 X17.76 Y5.78 Z-0.1 F120
G01 X17.76 Y5.8 Z-0.1 F120
G01 X17.74 Y5.8 Z-0.1 F120
G01 X17.74 Y5.82 Z-0.1 F120
G01 X17.72 Y5.82 Z-0.1 F120
G01 X17.72 Y5.84 Z-0.1 F120
G01 X17.7 Y5.84 Z-0.1 F120
G01 X17.68 Y5.84 Z-0.1 F120
G01 X17.68 Y5.86 Z-0.1 F120
G01 X17.66 Y5.86 Z-0.1 F120
G01 X17.66 Y5.88 Z-0.1 F120
G01 X17.64 Y5.88 Z-0.1 F120
G01 X17.64 Y5.9 Z-0.1 F120
G01 X17.62 Y5.9 Z-0.1 F120
G01 X17.6 Y5.9 Z-0.1 F120
G01 X17.6 Y5.92 Z-0.1 F120
G01 X17.58 Y5.92 Z-0.1 F120
G01 X17.56 Y5.92 Z-0.1 F120
G01 X17.56 Y5.94 Z-0.1 F120
G01 X17.54 Y5.94 Z-0.1 F120
G01 X17.52 Y5.94 Z-0.1 F120
G01 X17.52 Y5.96 Z-0.1 F120
G01 X17.5 Y5.96 Z-0.1 F120
G01 X17.48 Y5.96 Z-0.1 F120
G01 X17.46 Y5.96 Z-0.1 F120
G01 X17.46 Y5.98 Z-0.1 F120
G01 X17.44 Y5.98 Z-0.1 F120
G01 X17.42 Y5.98 Z-0.1 F120
G01 X17.42 Y6.0 Z-0.1 F120
G01 X17.4 Y6.0 Z-0.1 F120
G01 X17.38 Y6.0 Z-0.1 F120
G01 X17.36 Y6.0 Z-0.1 F120
G01 X17.34 Y6.0 Z-0.1 F120
G01 X17.32 Y6.0 Z-0.1 F120
G01 X17.3 Y6.0 Z-0.1 F120
G01 X17.3 Y6.02 Z-0.1 F120
G01 X17.28 Y6.02 Z-0.1 F120
G01 X17.26 Y6.02 Z-0.1 F120
G01 X17.24 Y6.02 Z-0.1 F120
G01 X17.22 Y6.02 Z-0.1 F120
G01 X17.2 Y6.02 Z-0.1 F120
G01 X17.18 Y6.02 Z-0.1 F120
G01 X17.16 Y6.02 Z-0.1 F120
G01 X17.16 Y6.04 Z-0.1 F120
G01 X17.14 Y6.04 Z-0.1 F120
G01 X17.12 Y6.04 Z-0.1 F120
G01 X17.1 Y6.04 Z-0.1 F120
G01 X17.08 Y6.04 Z-0.1 F120
G01 X17.06 Y6.04 Z-0.1 F120
G01 X17.04 Y6.04 Z-0.1 F120
G01 X17.02 Y6.04 Z-0.1 F120
G01 X17.0 Y6.04 Z-0.1 F120
G01 X16.98 Y6.04 Z-0.1 F120
G01 X16.96 Y6.04 Z-0.1 F120
G01 X16.94 Y6.04 Z-0.1 F120
G01 X16.92 Y6.04 Z-0.1 F120
G01 X16.9 Y6.04 Z-0.1 F120
G01 X16.88 Y6.04 Z-0.1 F120
G01 X16.86 Y6.04 Z-0.1 F120
G01 X16.84 Y6.04 Z-0.1 F120
G01 X16.84 Y6.02 Z-0.1 F120
G01 X16.82 Y6.02 Z-0.1 F120
G01 X16.8 Y6.02 Z-0.1 F120
G01 X16.78 Y6.02 Z-0.1 F120
G01 X16.76 Y6.02 Z-0.1 F120
G01 X16.74 Y6.02 Z-0.1 F120
G01 X16.72 Y6.02 Z-0.1 F120
G01 X16.72 Y6.0 Z-0.1 F120
G01 X16.7 Y6.0 Z-0.1 F120
G01 X16.68 Y6.0 Z-0.1 F120
G01 X16.66 Y6.0 Z-0.1 F120
G01 X16.64 Y6.0 Z-0.1 F120
G01 X16.62 Y6.0 Z-0.1 F120
G01 X16.6 Y6.0 Z-0.1 F120
G01 X16.6 Y5.98 Z-0.1 F120
G01 X16.58 Y5.98 Z-0.1 F120
G01 X16.56 Y5.98 Z-0.1 F120
G01 X16.54 Y5.98 Z-0.1 F120
G01 X16.54 Y5.96 Z-0.1 F120
G01 X16.52 Y5.96 Z-0.1 F120
G01 X16.5 Y5.96 Z-0.1 F120
G01 X16.48 Y5.96 Z-0.1 F120
G01 X16.48 Y5.94 Z-0.1 F120
G01 X16.46 Y5.94 Z-0.1 F120
G01 X16.44 Y5.94 Z-0.1 F120
G01 X16.44 Y5.92 Z-0.1 F120
G01 X16.42 Y5.92 Z-0.1 F120
G01 X16.4 Y5.92 Z-0.1 F120
G01 X16.4 Y5.9 Z-0.1 F120
G01 X16.38 Y5.9 Z-0.1 F120
G01 X16.36 Y5.9 Z-0.1 F120
G01 X16.36 Y5.88 Z-0.1 F120
G01 X16.34 Y5.88 Z-0.1 F120
G01 X16.34 Y5.86 Z-0.1 F120
G01 X16.32 Y5.86 Z-0.1 F120
G01 X16.32 Y5.84 Z-0.1 F120
G01 X16.3 Y5.84 Z-0.1 F120
G01 X16.28 Y5.84 Z-0.1 F120
G01 X16.28 Y5.82 Z-0.1 F120
G01 X16.26 Y5.82 Z-0.1 F120
G01 X16.26 Y5.8 Z-0.1 F120
G01 X16.24 Y5.8 Z-0.1 F120
G01 X16.24 Y5.78 Z-0.1 F120
G01 X16.22 Y5.78 Z-0.1 F120
G01 X16.22 Y5.76 Z-0.1 F120
G01 X16.2 Y5.76 Z-0.1 F120
G01 X16.2 Y5.74 Z-0.1 F120
G01 X16.18 Y5.74 Z-0.1 F120
G01 X16.18 Y5.72 Z-0.1 F120
G01 X16.16 Y5.72 Z-0.1 F120
G01 X16.16 Y5.7 Z-0.1 F120
G01 X16.14 Y5.7 Z-0.1 F120
G01 X16.14 Y5.68 Z-0.1 F120
G01 X16.14 Y5.66 Z-0.1 F120
G01 X16.12 Y5.66 Z-0.1 F120
G01 X16.12 Y5.64 Z-0.1 F120
G01 X16.1 Y5.64 Z-0.1 F120
G01 X16.1 Y5.62 Z-0.1 F120
G01 X16.08 Y5.62 Z-0.1 F120
G01 X16.08 Y5.6 Z-0.1 F120
G01 X16.08 Y5.58 Z-0.1 F120
G01 X16.06 Y5.58 Z-0.1 F120
G01 X16.06 Y5.56 Z-0.1 F120
G01 X16.04 Y5.56 Z-0.1 F120
G01 X16.04 Y5.54 Z-0.1 F120
G01 X16.04 Y5.52 Z-0.1 F120
G01 X16.02 Y5.52 Z-0.1 F120
G01 X16.02 Y5.5 Z-0.1 F120
G01 X16.02 Y5.48 Z-0.1 F120
G01 X16.0 Y5.48 Z-0.1 F120
G01 X16.0 Y5.46 Z-0.1 F120
G01 X16.0 Y5.44 Z-0.1 F120
G01 X15.98 Y5.44 Z-0.1 F120
G01 X15.98 Y5.42 Z-0.1 F120
G01 X15.98 Y5.4 Z-0.1 F120
G01 X15.98 Y5.38 Z-0.1 F120
G01 X15.96 Y5.38 Z-0.1 F120
G01 X15.96 Y5.36 Z-0.1 F120
G01 X15.96 Y5.34 Z-0.1 F120
G01 X15.96 Y5.32 Z-0.1 F120
G01 X15.94 Y5.32 Z-0.1 F120
G01 X15.94 Y5.3 Z-0.1 F120
G01 X15.94 Y5.28 Z-0.1 F120
G01 X15.94 Y5.26 Z-0.1 F120
G01 X15.94 Y5.24 Z-0.1 F120
G01 X15.94 Y5.22 Z-0.1 F120
G01 X15.92 Y5.22 Z-0.1 F120
G01 X15.92 Y5.2 Z-0.1 F120
G01 X15.92 Y5.18 Z-0.1 F120
G01 X15.92 Y5.16 Z-0.1 F120
G01 X15.92 Y5.14 Z-0.1 F120
G01 X15.92 Y5.12 Z-0.1 F120
G01 X15.92 Y5.1 Z-0.1 F120
G01 X15.9 Y5.1 Z-0.1 F120
G01 X15.9 Y5.08 Z-0.1 F120
G01 X15.9 Y5.06 Z-0.1 F120
G01 X15.9 Y5.04 Z-0.1 F120
G01 X15.9 Y5.02 Z-0.1 F120
G01 X15.9 Y5.0 Z-0.1 F120
G01 X15.9 Y4.98 Z-0.1 F120
G01 X15.9 Y4.96 Z-0.1 F120
G01 X15.9 Y4.94 Z-0.1 F120
G01 X15.9 Y4.92 Z-0.1 F120
G01 X15.9 Y4.9 Z-0.1 F120
G01 X15.9 Y4.88 Z-0.1 F120
G01 X15.9 Y4.86 Z-0.1 F120
G01 X15.9 Y4.84 Z-0.1 F120
G01 X15.9 Y4.82 Z-0.1 F120
G01 X15.9 Y4.8 Z-0.1 F120
G01 X15.92 Y4.8 Z-0.1 F120
G01 X15.92 Y4.78 Z-0.1 F120
G01 X15.92 Y4.76 Z-0.1 F120
G01 X15.92 Y4.74 Z-0.1 F120
G01 X15.92 Y4.72 Z-0.1 F120
G01 X15.92 Y4.7 Z-0.1 F120
G01 X15.92 Y4.68 Z-0.1 F120
G01 X15.94 Y4.68 Z-0.1 F120
G01 X15.94 Y4.66 Z-0.1 F120
G01 X15.94 Y4.64 Z-0.1 F120
G01 X15.94 Y4.62 Z-0.1 F120
G01 X15.94 Y4.6 Z-0.1 F120
G01 X15.94 Y4.58 Z-0.1 F120
G01 X15.96 Y4.58 Z-0.1 F120
G01 X15.96 Y4.56 Z-0.1 F120
G01 X15.96 Y4.54 Z-0.1 F120
G01 X15.96 Y4.52 Z-0.1 F120
G01 X15.98 Y4.52 Z-0.1 F120
G01 X15.98 Y4.5 Z-0.1 F120
G01 X15.98 Y4.48 Z-0.1 F120
G01 X15.98 Y4.46 Z-0.1 F120
G01 X16.0 Y4.46 Z-0.1 F120
G01 X16.0 Y4.44 Z-0.1 F120
G01 X16.0 Y4.42 Z-0.1 F120
G01 X16.0 Y4.4 Z-0.1 F120
G01 X16.02 Y4.4 Z-0.1 F120
G01 X16.02 Y4.38 Z-0.1 F120
G01 X16.02 Y4.36 Z-0.1 F120
G01 X16.04 Y4.36 Z-0.1 F120
G01 X16.04 Y4.34 Z-0.1 F120
G01 X16.06 Y4.34 Z-0.1 F120
G01 X16.06 Y4.32 Z-0.1 F120
G01 X16.06 Y4.3 Z-0.1 F120
G01 X16.08 Y4.3 Z-0.1 F120
G01 X16.08 Y4.28 Z-0.1 F120
G01 X16.1 Y4.28 Z-0.1 F120
G01 X16.1 Y4.26 Z-0.1 F120
G01 X16.12 Y4.26 Z-0.1 F120
G01 X16.12 Y4.24 Z-0.1 F120
G01 X16.14 Y4.24 Z-0.1 F120
G01 X16.14 Y4.22 Z-0.1 F120
G01 X16.14 Y4.2 Z-0.1 F120
G01 X16.16 Y4.2 Z-0.1 F120
G01 X16.16 Y4.18 Z-0.1 F120
G01 X16.18 Y4.18 Z-0.1 F120
G01 X16.18 Y4.16 Z-0.1 F120
G01 X16.2 Y4.16 Z-0.1 F120
G01 X16.2 Y4.14 Z-0.1 F120
G01 X16.22 Y4.14 Z-0.1 F120
G01 X16.22 Y4.12 Z-0.1 F120
G01 X16.24 Y4.12 Z-0.1 F120
G01 X16.24 Y4.1 Z-0.1 F120
G01 X16.26 Y4.1 Z-0.1 F120
G01 X16.26 Y4.08 Z-0.1 F120
G01 X16.28 Y4.08 Z-0.1 F120
G01 X16.28 Y4.06 Z-0.1 F120
G01 X16.3 Y4.06 Z-0.1 F120
G01 X16.32 Y4.06 Z-0.1 F120
G01 X16.32 Y4.04 Z-0.1 F120
G01 X16.34 Y4.04 Z-0.1 F120
G01 X16.34 Y4.02 Z-0.1 F120
G01 X16.36 Y4.02 Z-0.1 F120
G01 X16.36 Y4.0 Z-0.1 F120
G01 X16.38 Y4.0 Z-0.1 F120
G01 X16.4 Y4.0 Z-0.1 F120
G01 X16.4 Y3.98 Z-0.1 F120
G01 X16.42 Y3.98 Z-0.1 F120
G01 X16.44 Y3.98 Z-0.1 F120
G01 X16.44 Y3.96 Z-0.1 F120
G01 X16.46 Y3.96 Z-0.1 F120
G01 X16.48 Y3.96 Z-0.1 F120
G01 X16.48 Y3.94 Z-0.1 F120
G01 X16.5 Y3.94 Z-0.1 F120
G01 X16.52 Y3.94 Z-0.1 F120
G01 X16.54 Y3.94 Z-0.1 F120
G01 X16.54 Y3.92 Z-0.1 F120
G01 X16.56 Y3.92 Z-0.1 F120
G01 X16.58 Y3.92 Z-0.1 F120
G01 X16.6 Y3.92 Z-0.1 F120
G01 X16.6 Y3.9 Z-0.1 F120
G01 X16.62 Y3.9 Z-0.1 F120
G01 X16.64 Y3.9 Z-0.1 F120
G01 X16.66 Y3.9 Z-0.1 F120
G01 X16.66 Y3.88 Z-0.1 F120
G01 X16.68 Y3.88 Z-0.1 F120
G01 X16.7 Y3.88 Z-0.1 F120
G01 X16.72 Y3.88 Z-0.1 F120
G01 X16.72 Y3.86 Z-0.1 F120
G01 X16.74 Y3.86 Z-0.1 F120
G01 X16.76 Y3.86 Z-0.1 F120
G01 X16.78 Y3.86 Z-0.1 F120
G01 X16.8 Y3.86 Z-0.1 F120
G01 X16.82 Y3.86 Z-0.1 F120
G01 X16.84 Y3.86 Z-0.1 F120
G01 X16.84 Y3.84 Z-0.1 F120
M05
G00 X16.84 Y3.84 Z3 F1500
G00 X23.82 Y13.12 Z3 F1500
M03 S18000
G01 X23.82 Y13.12 Z-0.1 F120
G01 X23.84 Y13.12 Z-0.1 F120
G01 X23.86 Y13.12 Z-0.1 F120
G01 X23.88 Y13.12 Z-0.1 F120
G01 X23.9 Y13.12 Z-0.1 F120
G01 X23.92 Y13.12 Z-0.1 F120
G01 X23.94 Y13.12 Z-0.1 F120
G01 X23.96 Y13.12 Z-0.1 F120
G01 X23.98 Y13.12 Z-0.1 F120
G01 X24.0 Y13.12 Z-0.1 F120
G01 X24.02 Y13.12 Z-0.1 F120
G01 X24.04 Y13.12 Z-0.1 F120
G01 X24.06 Y13.12 Z-0.1 F120
G01 X24.08 Y13.12 Z-0.1 F120
G01 X24.1 Y13.12 Z-0.1 F120
G01 X24.12 Y13.12 Z-0.1 F120
G01 X24.14 Y13.12 Z-0.1 F120
G01 X24.16 Y13.12 Z-0.1 F120
G01 X24.16 Y13.14 Z-0.1 F120
G01 X24.18 Y13.14 Z-0.1 F120
G01 X24.2 Y13.14 Z-0.1 F120
G01 X24.22 Y13.14 Z-0.1 F120
G01 X24.24 Y13.14 Z-0.1 F120
G01 X24.26 Y13.14 Z-0.1 F120
G01 X24.28 Y13.14 Z-0.1 F120
G01 X24.28 Y13.16 Z-0.1 F120
G01 X24.3 Y13.16 Z-0.1 F120
G01 X24.32 Y13.16 Z-0.1 F120
G01 X24.34 Y13.16 Z-0.1 F120
G01 X24.36 Y13.16 Z-0.1 F120
G01 X24.38 Y13.16 Z-0.1 F120
G01 X24.4 Y13.16 Z-0.1 F120
G01 X24.4 Y13.18 Z-0.1 F120
G01 X24.42 Y13.18 Z-0.1 F120
G01 X24.44 Y13.18 Z-0.1 F120
G01 X24.44 Y13.2 Z-0.1 F120
G01 X24.46 Y13.2 Z-0.1 F120
G01 X24.48 Y13.2 Z-0.1 F120
G01 X24.48 Y13.22 Z-0.1 F120
G01 X24.5 Y13.22 Z-0.1 F120
G01 X24.52 Y13.22 Z-0.1 F120
G01 X24.52 Y13.24 Z-0.1 F120
G01 X24.54 Y13.24 Z-0.1 F120
G01 X24.56 Y13.24 Z-0.1 F120
G01 X24.56 Y13.26 Z-0.1 F120
G01 X24.58 Y13.26 Z-0.1 F120
G01 X24.58 Y13.28 Z-0.1 F120
G01 X24.6 Y13.28 Z-0.1 F120
G01 X24.62 Y13.28 Z-0.1 F120
G01 X24.62 Y13.3 Z-0.1 F120
G01 X24.64 Y13.3 Z-0.1 F120
G01 X24.66 Y13.3 Z-0.1 F120
G01 X24.66 Y13.32 Z-0.1 F120
G01 X24.68 Y13.32 Z-0.1 F120
G01 X24.68 Y13.34 Z-0.1 F120
G01 X24.7 Y13.34 Z-0.1 F120
G01 X24.72 Y13.34 Z-0.1 F120
G01 X24.72 Y13.36 Z-0.1 F120
G01 X24.74 Y13.36 Z-0.1 F120
G01 X24.74 Y13.38 Z-0.1 F120
G01 X24.76 Y13.38 Z-0.1 F120
G01 X24.76 Y13.4 Z-0.1 F120
G01 X24.78 Y13.4 Z-0.1 F120
G01 X24.78 Y13.42 Z-0.1 F120
G01 X24.8 Y13.42 Z-0.1 F120
G01 X24.8 Y13.44 Z-0.1 F120
G01 X24.82 Y13.44 Z-0.1 F120
G01 X24.82 Y13.46 Z-0.1 F120
G01 X24.84 Y13.46 Z-0.1 F120
G01 X24.84 Y13.48 Z-0.1 F120
G01 X24.86 Y13.48 Z-0.1 F120
G01 X24.86 Y13.5 Z-0.1 F120
G01 X24.86 Y13.52 Z-0.1 F120
G01 X24.88 Y13.52 Z-0.1 F120
G01 X24.88 Y13.54 Z-0.1 F120
G01 X24.9 Y13.54 Z-0.1 F120
G01 X24.9 Y13.56 Z-0.1 F120
G01 X24.92 Y13.56 Z-0.1 F120
G01 X24.92 Y13.58 Z-0.1 F120
G01 X24.92 Y13.6 Z-0.1 F120
G01 X24.94 Y13.6 Z-0.1 F120
G01 X24.94 Y13.62 Z-0.1 F120
G01 X24.94 Y13.64 Z-0.1 F120
G01 X24.96 Y13.64 Z-0.1 F120
G01 X24.96 Y13.66 Z-0.1 F120
G01 X24.98 Y13.66 Z-0.1 F120
G01 X24.98 Y13.68 Z-0.1 F120
G01 X24.98 Y13.7 Z-0.1 F120
G01 X25.0 Y13.7 Z-0.1 F120
G01 X25.0 Y13.72 Z-0.1 F120
G01 X25.0 Y13.74 Z-0.1 F120
G01 X25.02 Y13.74 Z-0.1 F120
G01 X25.02 Y13.76 Z-0.1 F120
G01 X25.02 Y13.78 Z-0.1 F120
G01 X25.04 Y13.78 Z-0.1 F120
G01 X25.04 Y13.8 Z-0.1 F120
G01 X25.04 Y13.82 Z-0.1 F120
G01 X25.04 Y13.84 Z-0.1 F120
G01 X25.06 Y13.84 Z-0.1 F120
G01 X25.06 Y13.86 Z-0.1 F120
G01 X25.06 Y13.88 Z-0.1 F120
G01 X25.06 Y13.9 Z-0.1 F120
G01 X25.06 Y13.92 Z-0.1 F120
G01 X25.06 Y13.94 Z-0.1 F120
G01 X25.08 Y13.94 Z-0.1 F120
G01 X25.08 Y13.96 Z-0.1 F120
G01 X25.08 Y13.98 Z-0.1 F120
G01 X25.08 Y14.0 Z-0.1 F120
G01 X25.08 Y14.02 Z-0.1 F120
G01 X25.08 Y14.04 Z-0.1 F120
G01 X25.08 Y14.06 Z-0.1 F120
G01 X25.08 Y14.08 Z-0.1 F120
G01 X25.08 Y14.1 Z-0.1 F120
G01 X25.08 Y14.12 Z-0.1 F120
G01 X25.08 Y14.14 Z-0.1 F120
G01 X25.08 Y14.16 Z-0.1 F120
G01 X25.08 Y14.18 Z-0.1 F120
G01 X25.08 Y14.2 Z-0.1 F120
G01 X25.08 Y14.22 Z-0.1 F120
G01 X25.08 Y14.24 Z-0.1 F120
G01 X25.08 Y14.26 Z-0.1 F120
G01 X25.08 Y14.28 Z-0.1 F120
G01 X25.08 Y14.3 Z-0.1 F120
G01 X25.08 Y14.32 Z-0.1 F120
G01 X25.08 Y14.34 Z-0.1 F120
G01 X25.08 Y14.36 Z-0.1 F120
G01 X25.08 Y14.38 Z-0.1 F120
G01 X25.08 Y14.4 Z-0.1 F120
G01 X25.08 Y14.42 Z-0.1 F120
G01 X25.08 Y14.44 Z-0.1 F120
G01 X25.08 Y14.46 Z-0.1 F120
G01 X25.08 Y14.48 Z-0.1 F120
G01 X25.06 Y14.48 Z-0.1 F120
G01 X25.06 Y14.5 Z-0.1 F120
G01 X25.06 Y14.52 Z-0.1 F120
G01 X25.06 Y14.54 Z-0.1 F120
G01 X25.06 Y14.56 Z-0.1 F120
G01 X25.06 Y14.58 Z-0.1 F120
G01 X25.04 Y14.58 Z-0.1 F120
G01 X25.04 Y14.6 Z-0.1 F120
G01 X25.04 Y14.62 Z-0.1 F120
G01 X25.04 Y14.64 Z-0.1 F120
G01 X25.02 Y14.64 Z-0.1 F120
G01 X25.02 Y14.66 Z-0.1 F120
G01 X25.02 Y14.68 Z-0.1 F120
G01 X25.0 Y14.68 Z-0.1 F120
G01 X25.0 Y14.7 Z-0.1 F120
G01 X25.0 Y14.72 Z-0.1 F120
G01 X24.98 Y14.72 Z-0.1 F120
G01 X24.98 Y14.74 Z-0.1 F120
G01 X24.98 Y14.76 Z-0.1 F120
G01 X24.96 Y14.76 Z-0.1 F120
G01 X24.96 Y14.78 Z-0.1 F120
G01 X24.96 Y14.8 Z-0.1 F120
G01 X24.94 Y14.8 Z-0.1 F120
G01 X24.94 Y14.82 Z-0.1 F120
G01 X24.94 Y14.84 Z-0.1 F120
G01 X24.92 Y14.84 Z-0.1 F120
G01 X24.92 Y14.86 Z-0.1 F120
G01 X24.92 Y14.88 Z-0.1 F120
G01 X24.9 Y14.88 Z-0.1 F120
G01 X24.9 Y14.9 Z-0.1 F120
G01 X24.88 Y14.9 Z-0.1 F120
G01 X24.88 Y14.92 Z-0.1 F120
G01 X24.86 Y14.92 Z-0.1 F120
G01 X24.86 Y14.94 Z-0.1 F120
G01 X24.86 Y14.96 Z-0.1 F120
G01 X24.84 Y14.96 Z-0.1 F120
G01 X24.84 Y14.98 Z-0.1 F120
G01 X24.82 Y14.98 Z-0.1 F120
G01 X24.82 Y15.0 Z-0.1 F120
G01 X24.8 Y15.0 Z-0.1 F120
G01 X24.8 Y15.02 Z-0.1 F120
G01 X24.78 Y15.02 Z-0.1 F120
G01 X24.76 Y15.02 Z-0.1 F120
G01 X24.76 Y15.04 Z-0.1 F120
G01 X24.74 Y15.04 Z-0.1 F120
G01 X24.74 Y15.06 Z-0.1 F120
G01 X24.72 Y15.06 Z-0.1 F120
G01 X24.72 Y15.08 Z-0.1 F120
G01 X24.7 Y15.08 Z-0.1 F120
G01 X24.7 Y15.1 Z-0.1 F120
G01 X24.68 Y15.1 Z-0.1 F120
G01 X24.66 Y15.1 Z-0.1 F120
G01 X24.66 Y15.12 Z-0.1 F120
G01 X24.64 Y15.12 Z-0.1 F120
G01 X24.64 Y15.14 Z-0.1 F120
G01 X24.62 Y15.14 Z-0.1 F120
G01 X24.62 Y15.16 Z-0.1 F120
G01 X24.6 Y15.16 Z-0.1 F120
G01 X24.58 Y15.16 Z-0.1 F120
G01 X24.58 Y15.18 Z-0.1 F120
G01 X24.56 Y15.18 Z-0.1 F120
G01 X24.56 Y15.2 Z-0.1 F120
G01 X24.54 Y15.2 Z-0.1 F120
G01 X24.52 Y15.2 Z-0.1 F120
G01 X24.52 Y15.22 Z-0.1 F120
G01 X24.5 Y15.22 Z-0.1 F120
G01 X24.48 Y15.22 Z-0.1 F120
G01 X24.46 Y15.22 Z-0.1 F120
G01 X24.46 Y15.24 Z-0.1 F120
G01 X24.44 Y15.24 Z-0.1 F120
G01 X24.42 Y15.24 Z-0.1 F120
G01 X24.4 Y15.24 Z-0.1 F120
G01 X24.4 Y15.26 Z-0.1 F120
G01 X24.38 Y15.26 Z-0.1 F120
G01 X24.36 Y15.26 Z-0.1 F120
G01 X24.34 Y15.26 Z-0.1 F120
G01 X24.34 Y15.28 Z-0.1 F120
G01 X24.32 Y15.28 Z-0.1 F120
G01 X24.3 Y15.28 Z-0.1 F120
G01 X24.28 Y15.28 Z-0.1 F120
G01 X24.28 Y15.3 Z-0.1 F120
G01 X24.26 Y15.3 Z-0.1 F120
G01 X24.24 Y15.3 Z-0.1 F120
G01 X24.22 Y15.3 Z-0.1 F120
G01 X24.2 Y15.3 Z-0.1 F120
G01 X24.18 Y15.3 Z-0.1 F120
G01 X24.16 Y15.3 Z-0.1 F120
G01 X24.16 Y15.32 Z-0.1 F120
G01 X24.14 Y15.32 Z-0.1 F120
G01 X24.12 Y15.32 Z-0.1 F120
G01 X24.1 Y15.32 Z-0.1 F120
G01 X24.08 Y15.32 Z-0.1 F120
G01 X24.06 Y15.32 Z-0.1 F120
G01 X24.04 Y15.32 Z-0.1 F120
G01 X24.02 Y15.32 Z-0.1 F120
G01 X24.0 Y15.32 Z-0.1 F120
G01 X23.98 Y15.32 Z-0.1 F120
G01 X23.96 Y15.32 Z-0.1 F120
G01 X23.94 Y15.32 Z-0.1 F120
G01 X23.92 Y15.32 Z-0.1 F120
G01 X23.9 Y15.32 Z-0.1 F120
G01 X23.88 Y15.32 Z-0.1 F120
G01 X23.86 Y15.32 Z-0.1 F120
G01 X23.84 Y15.32 Z-0.1 F120
G01 X23.82 Y15.32 Z-0.1 F120
G01 X23.82 Y15.3 Z-0.1 F120
G01 X23.8 Y15.3 Z-0.1 F120
G01 X23.78 Y15.3 Z-0.1 F120
G01 X23.76 Y15.3 Z-0.1 F120
G01 X23.74 Y15.3 Z-0.1 F120
G01 X23.72 Y15.3 Z-0.1 F120
G01 X23.7 Y15.3 Z-0.1 F120
G01 X23.7 Y15.28 Z-0.1 F120
G01 X23.68 Y15.28 Z-0.1 F120
G01 X23.66 Y15.28 Z-0.1 F120
G01 X23.64 Y15.28 Z-0.1 F120
G01 X23.64 Y15.26 Z-0.1 F120
G01 X23.62 Y15.26 Z-0.1 F120
G01 X23.6 Y15.26 Z-0.1 F120
G01 X23.58 Y15.26 Z-0.1 F120
G01 X23.58 Y15.24 Z-0.1 F120
G01 X23.56 Y15.24 Z-0.1 F120
G01 X23.54 Y15.24 Z-0.1 F120
G01 X23.52 Y15.24 Z-0.1 F120
G01 X23.52 Y15.22 Z-0.1 F120
G01 X23.5 Y15.22 Z-0.1 F120
G01 X23.48 Y15.22 Z-0.1 F120
G01 X23.46 Y15.22 Z-0.1 F120
G01 X23.46 Y15.2 Z-0.1 F120
G01 X23.44 Y15.2 Z-0.1 F120
G01 X23.42 Y15.2 Z-0.1 F120
G01 X23.42 Y15.18 Z-0.1 F120
G01 X23.4 Y15.18 Z-0.1 F120
G01 X23.4 Y15.16 Z-0.1 F120
G01 X23.38 Y15.16 Z-0.1 F120
G01 X23.36 Y15.16 Z-0.1 F120
G01 X23.36 Y15.14 Z-0.1 F120
G01 X23.34 Y15.14 Z-0.1 F120
G01 X23.34 Y15.12 Z-0.1 F120
G01 X23.32 Y15.12 Z-0.1 F120
G01 X23.32 Y15.1 Z-0.1 F120
G01 X23.3 Y15.1 Z-0.1 F120
G01 X23.28 Y15.1 Z-0.1 F120
G01 X23.28 Y15.08 Z-0.1 F120
G01 X23.26 Y15.08 Z-0.1 F120
G01 X23.26 Y15.06 Z-0.1 F120
G01 X23.24 Y15.06 Z-0.1 F120
G01 X23.24 Y15.04 Z-0.1 F120
G01 X23.22 Y15.04 Z-0.1 F120
G01 X23.22 Y15.02 Z-0.1 F120
G01 X23.2 Y15.02 Z-0.1 F120
G01 X23.18 Y15.02 Z-0.1 F120
G01 X23.18 Y15.0 Z-0.1 F120
G01 X23.16 Y15.0 Z-0.1 F120
G01 X23.16 Y14.98 Z-0.1 F120
G01 X23.14 Y14.98 Z-0.1 F120
G01 X23.14 Y14.96 Z-0.1 F120
G01 X23.12 Y14.96 Z-0.1 F120
G01 X23.12 Y14.94 Z-0.1 F120
G01 X23.12 Y14.92 Z-0.1 F120
G01 X23.1 Y14.92 Z-0.1 F120
G01 X23.1 Y14.9 Z-0.1 F120
G01 X23.08 Y14.9 Z-0.1 F120
G01 X23.08 Y14.88 Z-0.1 F120
G01 X23.06 Y14.88 Z-0.1 F120
G01 X23.06 Y14.86 Z-0.1 F120
G01 X23.06 Y14.84 Z-0.1 F120
G01 X23.04 Y14.84 Z-0.1 F120
G01 X23.04 Y14.82 Z-0.1 F120
G01 X23.04 Y14.8 Z-0.1 F120
G01 X23.02 Y14.8 Z-0.1 F120
G01 X23.02 Y14.78 Z-0.1 F120
G01 X23.02 Y14.76 Z-0.1 F120
G01 X23.0 Y14.76 Z-0.1 F120
G01 X23.0 Y14.74 Z-0.1 F120
G01 X23.0 Y14.72 Z-0.1 F120
G01 X22.98 Y14.72 Z-0.1 F120
G01 X22.98 Y14.7 Z-0.1 F120
G01 X22.98 Y14.68 Z-0.1 F120
G01 X22.96 Y14.68 Z-0.1 F120
G01 X22.96 Y14.66 Z-0.1 F120
G01 X22.96 Y14.64 Z-0.1 F120
G01 X22.94 Y14.64 Z-0.1 F120
G01 X22.94 Y14.62 Z-0.1 F120
G01 X22.94 Y14.6 Z-0.1 F120
G01 X22.94 Y14.58 Z-0.1 F120
G01 X22.92 Y14.58 Z-0.1 F120
G01 X22.92 Y14.56 Z-0.1 F120
G01 X22.92 Y14.54 Z-0.1 F120
G01 X22.92 Y14.52 Z-0.1 F120
G01 X22.92 Y14.5 Z-0.1 F120
G01 X22.92 Y14.48 Z-0.1 F120
G01 X22.9 Y14.48 Z-0.1 F120
G01 X22.9 Y14.46 Z-0.1 F120
G01 X22.9 Y14.44 Z-0.1 F120
G01 X22.9 Y14.42 Z-0.1 F120
G01 X22.9 Y14.4 Z-0.1 F120
G01 X22.9 Y14.38 Z-0.1 F120
G01 X22.9 Y14.36 Z-0.1 F120
G01 X22.88 Y14.36 Z-0.1 F120
G01 X22.88 Y14.34 Z-0.1 F120
G01 X22.88 Y14.32 Z-0.1 F120
G01 X22.88 Y14.3 Z-0.1 F120
G01 X22.88 Y14.28 Z-0.1 F120
G01 X22.88 Y14.26 Z-0.1 F120
G01 X22.88 Y14.24 Z-0.1 F120
G01 X22.88 Y14.22 Z-0.1 F120
G01 X22.88 Y14.2 Z-0.1 F120
G01 X22.88 Y14.18 Z-0.1 F120
G01 X22.88 Y14.16 Z-0.1 F120
G01 X22.88 Y14.14 Z-0.1 F120
G01 X22.88 Y14.12 Z-0.1 F120
G01 X22.88 Y14.1 Z-0.1 F120
G01 X22.88 Y14.08 Z-0.1 F120
G01 X22.9 Y14.08 Z-0.1 F120
G01 X22.9 Y14.06 Z-0.1 F120
G01 X22.9 Y14.04 Z-0.1 F120
G01 X22.9 Y14.02 Z-0.1 F120
G01 X22.9 Y14.0 Z-0.1 F120
G01 X22.9 Y13.98 Z-0.1 F120
G01 X22.9 Y13.96 Z-0.1 F120
G01 X22.9 Y13.94 Z-0.1 F120
G01 X22.92 Y13.94 Z-0.1 F120
G01 X22.92 Y13.92 Z-0.1 F120
G01 X22.92 Y13.9 Z-0.1 F120
G01 X22.92 Y13.88 Z-0.1 F120
G01 X22.92 Y13.86 Z-0.1 F120
G01 X22.92 Y13.84 Z-0.1 F120
G01 X22.94 Y13.84 Z-0.1 F120
G01 X22.94 Y13.82 Z-0.1 F120
G01 X22.94 Y13.8 Z-0.1 F120
G01 X22.94 Y13.78 Z-0.1 F120
G01 X22.96 Y13.78 Z-0.1 F120
G01 X22.96 Y13.76 Z-0.1 F120
G01 X22.96 Y13.74 Z-0.1 F120
G01 X22.98 Y13.74 Z-0.1 F120
G01 X22.98 Y13.72 Z-0.1 F120
G01 X22.98 Y13.7 Z-0.1 F120
G01 X23.0 Y13.7 Z-0.1 F120
G01 X23.0 Y13.68 Z-0.1 F120
G01 X23.0 Y13.66 Z-0.1 F120
G01 X23.02 Y13.66 Z-0.1 F120
G01 X23.02 Y13.64 Z-0.1 F120
G01 X23.04 Y13.64 Z-0.1 F120
G01 X23.04 Y13.62 Z-0.1 F120
G01 X23.04 Y13.6 Z-0.1 F120
G01 X23.06 Y13.6 Z-0.1 F120
G01 X23.06 Y13.58 Z-0.1 F120
G01 X23.06 Y13.56 Z-0.1 F120
G01 X23.08 Y13.56 Z-0.1 F120
G01 X23.08 Y13.54 Z-0.1 F120
G01 X23.1 Y13.54 Z-0.1 F120
G01 X23.1 Y13.52 Z-0.1 F120
G01 X23.12 Y13.52 Z-0.1 F120
G01 X23.12 Y13.5 Z-0.1 F120
G01 X23.12 Y13.48 Z-0.1 F120
G01 X23.14 Y13.48 Z-0.1 F120
G01 X23.14 Y13.46 Z-0.1 F120
G01 X23.16 Y13.46 Z-0.1 F120
G01 X23.16 Y13.44 Z-0.1 F120
G01 X23.18 Y13.44 Z-0.1 F120
G01 X23.18 Y13.42 Z-0.1 F120
G01 X23.2 Y13.42 Z-0.1 F120
G01 X23.2 Y13.4 Z-0.1 F120
G01 X23.22 Y13.4 Z-0.1 F120
G01 X23.22 Y13.38 Z-0.1 F120
G01 X23.24 Y13.38 Z-0.1 F120
G01 X23.24 Y13.36 Z-0.1 F120
G01 X23.26 Y13.36 Z-0.1 F120
G01 X23.26 Y13.34 Z-0.1 F120
G01 X23.28 Y13.34 Z-0.1 F120
G01 X23.3 Y13.34 Z-0.1 F120
G01 X23.3 Y13.32 Z-0.1 F120
G01 X23.32 Y13.32 Z-0.1 F120
G01 X23.32 Y13.3 Z-0.1 F120
G01 X23.34 Y13.3 Z-0.1 F120
G01 X23.36 Y13.3 Z-0.1 F120
G01 X23.36 Y13.28 Z-0.1 F120
G01 X23.38 Y13.28 Z-0.1 F120
G01 X23.4 Y13.28 Z-0.1 F120
G01 X23.4 Y13.26 Z-0.1 F120
G01 X23.42 Y13.26 Z-0.1 F120
G01 X23.42 Y13.24 Z-0.1 F120
G01 X23.44 Y13.24 Z-0.1 F120
G01 X23.46 Y13.24 Z-0.1 F120
G01 X23.46 Y13.22 Z-0.1 F120
G01 X23.48 Y13.22 Z-0.1 F120
G01 X23.5 Y13.22 Z-0.1 F120
G01 X23.5 Y13.2 Z-0.1 F120
G01 X23.52 Y13.2 Z-0.1 F120
G01 X23.54 Y13.2 Z-0.1 F120
G01 X23.54 Y13.18 Z-0.1 F120
G01 X23.56 Y13.18 Z-0.1 F120
G01 X23.58 Y13.18 Z-0.1 F120
G01 X23.58 Y13.16 Z-0.1 F120
G01 X23.6 Y13.16 Z-0.1 F120
G01 X23.62 Y13.16 Z-0.1 F120
G01 X23.64 Y13.16 Z-0.1 F120
G01 X23.66 Y13.16 Z-0.1 F120
G01 X23.68 Y13.16 Z-0.1 F120
G01 X23.7 Y13.16 Z-0.1 F120
G01 X23.7 Y13.14 Z-0.1 F120
G01 X23.72 Y13.14 Z-0.1 F120
G01 X23.74 Y13.14 Z-0.1 F120
G01 X23.76 Y13.14 Z-0.1 F120
G01 X23.78 Y13.14 Z-0.1 F120
G01 X23.8 Y13.14 Z-0.1 F120
G01 X23.82 Y13.14 Z-0.1 F120
G01 X23.82 Y13.12 Z-0.1 F120
M05
G00 X23.82 Y13.12 Z3 F1500
G00 X28.88 Y13.18 Z3 F1500
M03 S18000
G01 X28.88 Y13.18 Z-0.1 F120
G01 X28.9 Y13.18 Z-0.1 F120
G01 X28.92 Y13.18 Z-0.1 F120
G01 X28.94 Y13.18 Z-0.1 F120
G01 X28.96 Y13.18 Z-0.1 F120
G01 X28.98 Y13.18 Z-0.1 F120
G01 X29.0 Y13.18 Z-0.1 F120
G01 X29.02 Y13.18 Z-0.1 F120
G01 X29.04 Y13.18 Z-0.1 F120
G01 X29.06 Y13.18 Z-0.1 F120
G01 X29.08 Y13.18 Z-0.1 F120
G01 X29.1 Y13.18 Z-0.1 F120
G01 X29.12 Y13.18 Z-0.1 F120
G01 X29.14 Y13.18 Z-0.1 F120
G01 X29.16 Y13.18 Z-0.1 F120
G01 X29.18 Y13.18 Z-0.1 F120
G01 X29.2 Y13.18 Z-0.1 F120
G01 X29.22 Y13.18 Z-0.1 F120
G01 X29.24 Y13.18 Z-0.1 F120
G01 X29.26 Y13.18 Z-0.1 F120
G01 X29.26 Y13.2 Z-0.1 F120
G01 X29.28 Y13.2 Z-0.1 F120
G01 X29.3 Y13.2 Z-0.1 F120
G01 X29.3 Y13.22 Z-0.1 F120
G01 X29.32 Y13.22 Z-0.1 F120
G01 X29.34 Y13.22 Z-0.1 F120
G01 X29.34 Y13.24 Z-0.1 F120
G01 X29.36 Y13.24 Z-0.1 F120
G01 X29.36 Y13.26 Z-0.1 F120
G01 X29.38 Y13.26 Z-0.1 F120
G01 X29.38 Y13.28 Z-0.1 F120
G01 X29.4 Y13.28 Z-0.1 F120
G01 X29.4 Y13.3 Z-0.1 F120
G01 X29.42 Y13.3 Z-0.1 F120
G01 X29.42 Y13.32 Z-0.1 F120
G01 X29.42 Y13.34 Z-0.1 F120
G01 X29.44 Y13.34 Z-0.1 F120
G01 X29.44 Y13.36 Z-0.1 F120
G01 X29.46 Y13.36 Z-0.1 F120
G01 X29.46 Y13.38 Z-0.1 F120
G01 X29.46 Y13.4 Z-0.1 F120
G01 X29.46 Y13.42 Z-0.1 F120
G01 X29.46 Y13.44 Z-0.1 F120
G01 X29.48 Y13.44 Z-0.1 F120
G01 X29.48 Y13.46 Z-0.1 F120
G01 X29.48 Y13.48 Z-0.1 F120
G01 X29.48 Y13.5 Z-0.1 F120
G01 X29.48 Y13.52 Z-0.1 F120
G01 X29.48 Y13.54 Z-0.1 F120
G01 X29.48 Y13.56 Z-0.1 F120
G01 X29.48 Y13.58 Z-0.1 F120
G01 X29.48 Y13.6 Z-0.1 F120
G01 X29.48 Y13.62 Z-0.1 F120
G01 X29.48 Y13.64 Z-0.1 F120
G01 X29.48 Y13.66 Z-0.1 F120
G01 X29.48 Y13.68 Z-0.1 F120
G01 X29.48 Y13.7 Z-0.1 F120
G01 X29.48 Y13.72 Z-0.1 F120
G01 X29.46 Y13.72 Z-0.1 F120
G01 X29.46 Y13.74 Z-0.1 F120
G01 X29.46 Y13.76 Z-0.1 F120
G01 X29.46 Y13.78 Z-0.1 F120
G01 X29.46 Y13.8 Z-0.1 F120
G01 X29.44 Y13.8 Z-0.1 F120
G01 X29.44 Y13.82 Z-0.1 F120
G01 X29.44 Y13.84 Z-0.1 F120
G01 X29.42 Y13.84 Z-0.1 F120
G01 X29.42 Y13.86 Z-0.1 F120
G01 X29.4 Y13.86 Z-0.1 F120
G01 X29.4 Y13.88 Z-0.1 F120
G01 X29.4 Y13.9 Z-0.1 F120
G01 X29.38 Y13.9 Z-0.1 F120
G01 X29.36 Y13.9 Z-0.1 F120
G01 X29.36 Y13.92 Z-0.1 F120
G01 X29.34 Y13.92 Z-0.1 F120
G01 X29.34 Y13.94 Z-0.1 F120
G01 X29.32 Y13.94 Z-0.1 F120
G01 X29.3 Y13.94 Z-0.1 F120
G01 X29.3 Y13.96 Z-0.1 F120
G01 X29.28 Y13.96 Z-0.1 F120
G01 X29.26 Y13.96 Z-0.1 F120
G01 X29.26 Y13.98 Z-0.1 F120
G01 X29.24 Y13.98 Z-0.1 F120
G01 X29.22 Y13.98 Z-0.1 F120
G01 X29.2 Y13.98 Z-0.1 F120
G01 X29.18 Y13.98 Z-0.1 F120
G01 X29.18 Y14.0 Z-0.1 F120
G01 X29.16 Y14.0 Z-0.1 F120
G01 X29.14 Y14.0 Z-0.1 F120
G01 X29.12 Y14.0 Z-0.1 F120
G01 X29.1 Y14.0 Z-0.1 F120
G01 X29.08 Y14.0 Z-0.1 F120
G01 X29.06 Y14.0 Z-0.1 F120
G01 X29.04 Y14.0 Z-0.1 F120
G01 X29.02 Y14.0 Z-0.1 F120
G01 X29.0 Y14.0 Z-0.1 F120
G01 X28.98 Y14.0 Z-0.1 F120
G01 X28.96 Y14.0 Z-0.1 F120
G01 X28.94 Y14.0 Z-0.1 F120
G01 X28.94 Y13.98 Z-0.1 F120
G01 X28.92 Y13.98 Z-0.1 F120
G01 X28.9 Y13.98 Z-0.1 F120
G01 X28.88 Y13.98 Z-0.1 F120
G01 X28.88 Y13.96 Z-0.1 F120
G01 X28.86 Y13.96 Z-0.1 F120
G01 X28.84 Y13.96 Z-0.1 F120
G01 X28.84 Y13.94 Z-0.1 F120
G01 X28.82 Y13.94 Z-0.1 F120
G01 X28.8 Y13.94 Z-0.1 F120
G01 X28.8 Y13.92 Z-0.1 F120
G01 X28.78 Y13.92 Z-0.1 F120
G01 X28.78 Y13.9 Z-0.1 F120
G01 X28.76 Y13.9 Z-0.1 F120
G01 X28.74 Y13.9 Z-0.1 F120
G01 X28.74 Y13.88 Z-0.1 F120
G01 X28.74 Y13.86 Z-0.1 F120
G01 X28.72 Y13.86 Z-0.1 F120
G01 X28.72 Y13.84 Z-0.1 F120
G01 X28.7 Y13.84 Z-0.1 F120
G01 X28.7 Y13.82 Z-0.1 F120
G01 X28.7 Y13.8 Z-0.1 F120
G01 X28.68 Y13.8 Z-0.1 F120
G01 X28.68 Y13.78 Z-0.1 F120
G01 X28.68 Y13.76 Z-0.1 F120
G01 X28.66 Y13.76 Z-0.1 F120
G01 X28.66 Y13.74 Z-0.1 F120
G01 X28.66 Y13.72 Z-0.1 F120
G01 X28.66 Y13.7 Z-0.1 F120
G01 X28.66 Y13.68 Z-0.1 F120
G01 X28.64 Y13.68 Z-0.1 F120
G01 X28.62 Y13.68 Z-0.1 F120
G01 X28.6 Y13.68 Z-0.1 F120
G01 X28.58 Y13.68 Z-0.1 F120
G01 X28.56 Y13.68 Z-0.1 F120
G01 X28.54 Y13.68 Z-0.1 F120
G01 X28.52 Y13.68 Z-0.1 F120
G01 X28.5 Y13.68 Z-0.1 F120
G01 X28.48 Y13.68 Z-0.1 F120
G01 X28.46 Y13.68 Z-0.1 F120
G01 X28.44 Y13.68 Z-0.1 F120
G01 X28.42 Y13.68 Z-0.1 F120
G01 X28.4 Y13.68 Z-0.1 F120
G01 X28.38 Y13.68 Z-0.1 F120
G01 X28.36 Y13.68 Z-0.1 F120
G01 X28.34 Y13.68 Z-0.1 F120
G01 X28.32 Y13.68 Z-0.1 F120
G01 X28.3 Y13.68 Z-0.1 F120
G01 X28.28 Y13.68 Z-0.1 F120
G01 X28.26 Y13.68 Z-0.1 F120
G01 X28.26 Y13.7 Z-0.1 F120
G01 X28.24 Y13.7 Z-0.1 F120
G01 X28.24 Y13.72 Z-0.1 F120
G01 X28.22 Y13.72 Z-0.1 F120
G01 X28.22 Y13.74 Z-0.1 F120
G01 X28.2 Y13.74 Z-0.1 F120
G01 X28.2 Y13.76 Z-0.1 F120
G01 X28.18 Y13.76 Z-0.1 F120
G01 X28.18 Y13.78 Z-0.1 F120
G01 X28.16 Y13.78 Z-0.1 F120
G01 X28.16 Y13.8 Z-0.1 F120
G01 X28.14 Y13.8 Z-0.1 F120
G01 X28.14 Y13.82 Z-0.1 F120
G01 X28.12 Y13.82 Z-0.1 F120
G01 X28.12 Y13.84 Z-0.1 F120
G01 X28.1 Y13.84 Z-0.1 F120
G01 X28.1 Y13.86 Z-0.1 F120
G01 X28.08 Y13.86 Z-0.1 F120
G01 X28.08 Y13.88 Z-0.1 F120
G01 X28.06 Y13.88 Z-0.1 F120
G01 X28.06 Y13.9 Z-0.1 F120
G01 X28.04 Y13.9 Z-0.1 F120
G01 X28.04 Y13.92 Z-0.1 F120
G01 X28.02 Y13.92 Z-0.1 F120
G01 X28.02 Y13.94 Z-0.1 F120
G01 X28.0 Y13.94 Z-0.1 F120
G01 X28.0 Y13.96 Z-0.1 F120
G01 X27.98 Y13.96 Z-0.1 F120
G01 X27.98 Y13.98 Z-0.1 F120
G01 X27.96 Y13.98 Z-0.1 F120
G01 X27.96 Y14.0 Z-0.1 F120
G01 X27.94 Y14.0 Z-0.1 F120
G01 X27.94 Y14.02 Z-0.1 F120
G01 X27.92 Y14.02 Z-0.1 F120
G01 X27.92 Y14.04 Z-0.1 F120
G01 X27.9 Y14.04 Z-0.1 F120
G01 X27.9 Y14.06 Z-0.1 F120
G01 X27.88 Y14.06 Z-0.1 F120
G01 X27.88 Y14.08 Z-0.1 F120
G01 X27.86 Y14.08 Z-0.1 F120
G01 X27.86 Y14.1 Z-0.1 F120
G01 X27.84 Y14.1 Z-0.1 F120
G01 X27.84 Y14.12 Z-0.1 F120
G01 X27.84 Y14.14 Z-0.1 F120
G01 X27.82 Y14.14 Z-0.1 F120
G01 X27.82 Y14.16 Z-0.1 F120
G01 X27.8 Y14.16 Z-0.1 F120
G01 X27.8 Y14.18 Z-0.1 F120
G01 X27.78 Y14.18 Z-0.1 F120
G01 X27.78 Y14.2 Z-0.1 F120
G01 X27.76 Y14.2 Z-0.1 F120
G01 X27.76 Y14.22 Z-0.1 F120
G01 X27.74 Y14.22 Z-0.1 F120
G01 X27.74 Y14.24 Z-0.1 F120
G01 X27.72 Y14.24 Z-0.1 F120
G01 X27.72 Y14.26 Z-0.1 F120
G01 X27.7 Y14.26 Z-0.1 F120
G01 X27.7 Y14.28 Z-0.1 F120
G01 X27.68 Y14.28 Z-0.1 F120
G01 X27.68 Y14.3 Z-0.1 F120
G01 X27.66 Y14.3 Z-0.1 F120
G01 X27.66 Y14.32 Z-0.1 F120
G01 X27.64 Y14.32 Z-0.1 F120
G01 X27.64 Y14.34 Z-0.1 F120
G01 X27.62 Y14.34 Z-0.1 F120
G01 X27.62 Y14.36 Z-0.1 F120
G01 X27.6 Y14.36 Z-0.1 F120
G01 X27.6 Y14.38 Z-0.1 F120
G01 X27.58 Y14.38 Z-0.1 F120
G01 X27.58 Y14.4 Z-0.1 F120
G01 X27.56 Y14.4 Z-0.1 F120
G01 X27.56 Y14.42 Z-0.1 F120
G01 X27.54 Y14.42 Z-0.1 F120
G01 X27.54 Y14.44 Z-0.1 F120
G01 X27.52 Y14.44 Z-0.1 F120
G01 X27.52 Y14.46 Z-0.1 F120
G01 X27.5 Y14.46 Z-0.1 F120
G01 X27.5 Y14.48 Z-0.1 F120
G01 X27.48 Y14.48 Z-0.1 F120
G01 X27.48 Y14.5 Z-0.1 F120
G01 X27.46 Y14.5 Z-0.1 F120
G01 X27.46 Y14.52 Z-0.1 F120
G01 X27.44 Y14.52 Z-0.1 F120
G01 X27.44 Y14.54 Z-0.1 F120
G01 X27.42 Y14.54 Z-0.1 F120
G01 X27.42 Y14.56 Z-0.1 F120
G01 X27.4 Y14.56 Z-0.1 F120
G01 X27.4 Y14.58 Z-0.1 F120
G01 X27.4 Y14.6 Z-0.1 F120
G01 X27.4 Y14.62 Z-0.1 F120
G01 X27.4 Y14.64 Z-0.1 F120
G01 X27.4 Y14.66 Z-0.1 F120
G01 X27.4 Y14.68 Z-0.1 F120
G01 X27.4 Y14.7 Z-0.1 F120
G01 X27.4 Y14.72 Z-0.1 F120
G01 X27.4 Y14.74 Z-0.1 F120
G01 X27.4 Y14.76 Z-0.1 F120
G01 X27.42 Y14.76 Z-0.1 F120
G01 X27.44 Y14.76 Z-0.1 F120
G01 X27.46 Y14.76 Z-0.1 F120
G01 X27.48 Y14.76 Z-0.1 F120
G01 X27.5 Y14.76 Z-0.1 F120
G01 X27.52 Y14.76 Z-0.1 F120
G01 X27.54 Y14.76 Z-0.1 F120
G01 X27.56 Y14.76 Z-0.1 F120
G01 X27.58 Y14.76 Z-0.1 F120
G01 X27.6 Y14.76 Z-0.1 F120
G01 X27.62 Y14.76 Z-0.1 F120
G01 X27.62 Y14.78 Z-0.1 F120
G01 X27.64 Y14.78 Z-0.1 F120
G01 X27.66 Y14.78 Z-0.1 F120
G01 X27.68 Y14.78 Z-0.1 F120
G01 X27.7 Y14.78 Z-0.1 F120
G01 X27.7 Y14.8 Z-0.1 F120
G01 X27.72 Y14.8 Z-0.1 F120
G01 X27.74 Y14.8 Z-0.1 F120
G01 X27.76 Y14.8 Z-0.1 F120
G01 X27.78 Y14.8 Z-0.1 F120
G01 X27.78 Y14.82 Z-0.1 F120
G01 X27.8 Y14.82 Z-0.1 F120
G01 X27.82 Y14.82 Z-0.1 F120
G01 X27.84 Y14.82 Z-0.1 F120
G01 X27.86 Y14.82 Z-0.1 F120
G01 X27.88 Y14.82 Z-0.1 F120
G01 X27.88 Y14.84 Z-0.1 F120
G01 X27.9 Y14.84 Z-0.1 F120
G01 X27.9 Y14.86 Z-0.1 F120
G01 X27.92 Y14.86 Z-0.1 F120
G01 X27.92 Y14.88 Z-0.1 F120
G01 X27.94 Y14.88 Z-0.1 F120
G01 X27.94 Y14.9 Z-0.1 F120
G01 X27.96 Y14.9 Z-0.1 F120
G01 X27.98 Y14.9 Z-0.1 F120
G01 X27.98 Y14.92 Z-0.1 F120
G01 X28.0 Y14.92 Z-0.1 F120
G01 X28.02 Y14.92 Z-0.1 F120
G01 X28.02 Y14.94 Z-0.1 F120
G01 X28.04 Y14.94 Z-0.1 F120
G01 X28.04 Y14.96 Z-0.1 F120
G01 X28.06 Y14.96 Z-0.1 F120
G01 X28.06 Y14.98 Z-0.1 F120
G01 X28.08 Y14.98 Z-0.1 F120
G01 X28.08 Y15.0 Z-0.1 F120
G01 X28.1 Y15.0 Z-0.1 F120
G01 X28.1 Y15.02 Z-0.1 F120
G01 X28.1 Y15.04 Z-0.1 F120
G01 X28.12 Y15.04 Z-0.1 F120
G01 X28.12 Y15.06 Z-0.1 F120
G01 X28.14 Y15.06 Z-0.1 F120
G01 X28.14 Y15.08 Z-0.1 F120
G01 X28.16 Y15.08 Z-0.1 F120
G01 X28.16 Y15.1 Z-0.1 F120
G01 X28.16 Y15.12 Z-0.1 F120
G01 X28.18 Y15.12 Z-0.1 F120
G01 X28.18 Y15.14 Z-0.1 F120
G01 X28.18 Y15.16 Z-0.1 F120
G01 X28.2 Y15.16 Z-0.1 F120
G01 X28.2 Y15.18 Z-0.1 F120
G01 X28.2 Y15.2 Z-0.1 F120
G01 X28.22 Y15.2 Z-0.1 F120
G01 X28.22 Y15.22 Z-0.1 F120
G01 X28.22 Y15.24 Z-0.1 F120
G01 X28.24 Y15.24 Z-0.1 F120
G01 X28.24 Y15.26 Z-0.1 F120
G01 X28.24 Y15.28 Z-0.1 F120
G01 X28.26 Y15.28 Z-0.1 F120
G01 X28.26 Y15.3 Z-0.1 F120
G01 X28.26 Y15.32 Z-0.1 F120
G01 X28.26 Y15.34 Z-0.1 F120
G01 X28.26 Y15.36 Z-0.1 F120
G01 X28.26 Y15.38 Z-0.1 F120
G01 X28.26 Y15.4 Z-0.1 F120
G01 X28.26 Y15.42 Z-0.1 F120
G01 X28.26 Y15.44 Z-0.1 F120
G01 X28.28 Y15.44 Z-0.1 F120
G01 X28.28 Y15.46 Z-0.1 F120
G01 X28.28 Y15.48 Z-0.1 F120
G01 X28.28 Y15.5 Z-0.1 F120
G01 X28.28 Y15.52 Z-0.1 F120
G01 X28.28 Y15.54 Z-0.1 F120
G01 X28.28 Y15.56 Z-0.1 F120
G01 X28.28 Y15.58 Z-0.1 F120
G01 X28.28 Y15.6 Z-0.1 F120
G01 X28.28 Y15.62 Z-0.1 F120
G01 X28.28 Y15.64 Z-0.1 F120
G01 X28.28 Y15.66 Z-0.1 F120
G01 X28.28 Y15.68 Z-0.1 F120
G01 X28.28 Y15.7 Z-0.1 F120
G01 X28.26 Y15.7 Z-0.1 F120
G01 X28.26 Y15.72 Z-0.1 F120
G01 X28.26 Y15.74 Z-0.1 F120
G01 X28.26 Y15.76 Z-0.1 F120
G01 X28.26 Y15.78 Z-0.1 F120
G01 X28.26 Y15.8 Z-0.1 F120
G01 X28.26 Y15.82 Z-0.1 F120
G01 X28.26 Y15.84 Z-0.1 F120
G01 X28.24 Y15.84 Z-0.1 F120
G01 X28.24 Y15.86 Z-0.1 F120
G01 X28.24 Y15.88 Z-0.1 F120
G01 X28.22 Y15.88 Z-0.1 F120
G01 X28.22 Y15.9 Z-0.1 F120
G01 X28.22 Y15.92 Z-0.1 F120
G01 X28.2 Y15.92 Z-0.1 F120
G01 X28.2 Y15.94 Z-0.1 F120
G01 X28.2 Y15.96 Z-0.1 F120
G01 X28.18 Y15.96 Z-0.1 F120
G01 X28.18 Y15.98 Z-0.1 F120
G01 X28.18 Y16.0 Z-0.1 F120
G01 X28.16 Y16.0 Z-0.1 F120
G01 X28.16 Y16.02 Z-0.1 F120
G01 X28.16 Y16.04 Z-0.1 F120
G01 X28.14 Y16.04 Z-0.1 F120
G01 X28.14 Y16.06 Z-0.1 F120
G01 X28.14 Y16.08 Z-0.1 F120
G01 X28.12 Y16.08 Z-0.1 F120
G01 X28.12 Y16.1 Z-0.1 F120
G01 X28.1 Y16.1 Z-0.1 F120
G01 X28.1 Y16.12 Z-0.1 F120
G01 X28.08 Y16.12 Z-0.1 F120
G01 X28.08 Y16.14 Z-0.1 F120
G01 X28.06 Y16.14 Z-0.1 F120
G01 X28.06 Y16.16 Z-0.1 F120
G01 X28.04 Y16.16 Z-0.1 F120
G01 X28.04 Y16.18 Z-0.1 F120
G01 X28.02 Y16.18 Z-0.1 F120
G01 X28.02 Y16.2 Z-0.1 F120
G01 X28.0 Y16.2 Z-0.1 F120
G01 X28.0 Y16.22 Z-0.1 F120
G01 X27.98 Y16.22 Z-0.1 F120
G01 X27.96 Y16.22 Z-0.1 F120
G01 X27.96 Y16.24 Z-0.1 F120
G01 X27.94 Y16.24 Z-0.1 F120
G01 X27.94 Y16.26 Z-0.1 F120
G01 X27.92 Y16.26 Z-0.1 F120
G01 X27.9 Y16.26 Z-0.1 F120
G01 X27.9 Y16.28 Z-0.1 F120
G01 X27.88 Y16.28 Z-0.1 F120
G01 X27.88 Y16.3 Z-0.1 F120
G01 X27.86 Y16.3 Z-0.1 F120
G01 X27.84 Y16.3 Z-0.1 F120
G01 X27.82 Y16.3 Z-0.1 F120
G01 X27.8 Y16.3 Z-0.1 F120
G01 X27.78 Y16.3 Z-0.1 F120
G01 X27.78 Y16.32 Z-0.1 F120
G01 X27.76 Y16.32 Z-0.1 F120
G01 X27.74 Y16.32 Z-0.1 F120
G01 X27.74 Y16.34 Z-0.1 F120
G01 X27.72 Y16.34 Z-0.1 F120
G01 X27.7 Y16.34 Z-0.1 F120
G01 X27.7 Y16.36 Z-0.1 F120
G01 X27.68 Y16.36 Z-0.1 F120
G01 X27.66 Y16.36 Z-0.1 F120
G01 X27.64 Y16.36 Z-0.1 F120
G01 X27.62 Y16.36 Z-0.1 F120
G01 X27.6 Y16.36 Z-0.1 F120
G01 X27.58 Y16.36 Z-0.1 F120
G01 X27.56 Y16.36 Z-0.1 F120
G01 X27.54 Y16.36 Z-0.1 F120
G01 X27.52 Y16.36 Z-0.1 F120
G01 X27.5 Y16.36 Z-0.1 F120
G01 X27.48 Y16.36 Z-0.1 F120
G01 X27.46 Y16.36 Z-0.1 F120
G01 X27.44 Y16.36 Z-0.1 F120
G01 X27.42 Y16.36 Z-0.1 F120
G01 X27.4 Y16.36 Z-0.1 F120
G01 X27.38 Y16.36 Z-0.1 F120
G01 X27.36 Y16.36 Z-0.1 F120
G01 X27.34 Y16.36 Z-0.1 F120
G01 X27.32 Y16.36 Z-0.1 F120
G01 X27.3 Y16.36 Z-0.1 F120
G01 X27.28 Y16.36 Z-0.1 F120
G01 X27.26 Y16.36 Z-0.1 F120
G01 X27.24 Y16.36 Z-0.1 F120
G01 X27.24 Y16.34 Z-0.1 F120
G01 X27.22 Y16.34 Z-0.1 F120
G01 X27.2 Y16.34 Z-0.1 F120
G01 X27.2 Y16.32 Z-0.1 F120
G01 X27.18 Y16.32 Z-0.1 F120
G01 X27.16 Y16.32 Z-0.1 F120
G01 X27.16 Y16.3 Z-0.1 F120
G01 X27.14 Y16.3 Z-0.1 F120
G01 X27.12 Y16.3 Z-0.1 F120
G01 X27.1 Y16.3 Z-0.1 F120
G01 X27.08 Y16.3 Z-0.1 F120
G01 X27.08 Y16.28 Z-0.1 F120
G01 X27.06 Y16.28 Z-0.1 F120
G01 X27.04 Y16.28 Z-0.1 F120
G01 X27.04 Y16.26 Z-0.1 F120
G01 X27.02 Y16.26 Z-0.1 F120
G01 X27.0 Y16.26 Z-0.1 F120
G01 X27.0 Y16.24 Z-0.1 F120
G01 X26.98 Y16.24 Z-0.1 F120
G01 X26.98 Y16.22 Z-0.1 F120
G01 X26.96 Y16.22 Z-0.1 F120
G01 X26.94 Y16.22 Z-0.1 F120
G01 X26.94 Y16.2 Z-0.1 F120
G01 X26.92 Y16.2 Z-0.1 F120
G01 X26.92 Y16.18 Z-0.1 F120
G01 X26.9 Y16.18 Z-0.1 F120
G01 X26.9 Y16.16 Z-0.1 F120
G01 X26.88 Y16.16 Z-0.1 F120
G01 X26.88 Y16.14 Z-0.1 F120
G01 X26.86 Y16.14 Z-0.1 F120
G01 X26.86 Y16.12 Z-0.1 F120
G01 X26.84 Y16.12 Z-0.1 F120
G01 X26.84 Y16.1 Z-0.1 F120
G01 X26.82 Y16.1 Z-0.1 F120
G01 X26.82 Y16.08 Z-0.1 F120
G01 X26.8 Y16.08 Z-0.1 F120
G01 X26.8 Y16.06 Z-0.1 F120
G01 X26.8 Y16.04 Z-0.1 F120
G01 X26.78 Y16.04 Z-0.1 F120
G01 X26.78 Y16.02 Z-0.1 F120
G01 X26.78 Y16.0 Z-0.1 F120
G01 X26.76 Y16.0 Z-0.1 F120
G01 X26.76 Y15.98 Z-0.1 F120
G01 X26.76 Y15.96 Z-0.1 F120
G01 X26.74 Y15.96 Z-0.1 F120
G01 X26.74 Y15.94 Z-0.1 F120
G01 X26.74 Y15.92 Z-0.1 F120
G01 X26.72 Y15.92 Z-0.1 F120
G01 X26.72 Y15.9 Z-0.1 F120
G01 X26.72 Y15.88 Z-0.1 F120
G01 X26.72 Y15.86 Z-0.1 F120
G01 X26.7 Y15.86 Z-0.1 F120
G01 X26.7 Y15.84 Z-0.1 F120
G01 X26.7 Y15.82 Z-0.1 F120
G01 X26.7 Y15.8 Z-0.1 F120
G01 X26.7 Y15.78 Z-0.1 F120
G01 X26.68 Y15.78 Z-0.1 F120
G01 X26.68 Y15.76 Z-0.1 F120
G01 X26.68 Y15.74 Z-0.1 F120
G01 X26.68 Y15.72 Z-0.1 F120
G01 X26.68 Y15.7 Z-0.1 F120
G01 X26.68 Y15.68 Z-0.1 F120
G01 X26.68 Y15.66 Z-0.1 F120
G01 X26.68 Y15.64 Z-0.1 F120
G01 X26.68 Y15.62 Z-0.1 F120
G01 X26.68 Y15.6 Z-0.1 F120
G01 X26.68 Y15.58 Z-0.1 F120
G01 X26.68 Y15.56 Z-0.1 F120
G01 X26.68 Y15.54 Z-0.1 F120
G01 X26.68 Y15.52 Z-0.1 F120
G01 X26.68 Y15.5 Z-0.1 F120
G01 X26.68 Y15.48 Z-0.1 F120
G01 X26.68 Y15.46 Z-0.1 F120
G01 X26.68 Y15.44 Z-0.1 F120
G01 X26.68 Y15.42 Z-0.1 F120
G01 X26.68 Y15.4 Z-0.1 F120
G01 X26.68 Y15.38 Z-0.1 F120
G01 X26.68 Y15.36 Z-0.1 F120
G01 X26.68 Y15.34 Z-0.1 F120
G01 X26.7 Y15.34 Z-0.1 F120
G01 X26.7 Y15.32 Z-0.1 F120
G01 X26.7 Y15.3 Z-0.1 F120
G01 X26.7 Y15.28 Z-0.1 F120
G01 X26.7 Y15.26 Z-0.1 F120
G01 X26.72 Y15.26 Z-0.1 F120
G01 X26.72 Y15.24 Z-0.1 F120
G01 X26.72 Y15.22 Z-0.1 F120
G01 X26.72 Y15.2 Z-0.1 F120
G01 X26.74 Y15.2 Z-0.1 F120
G01 X26.74 Y15.18 Z-0.1 F120
G01 X26.74 Y15.16 Z-0.1 F120
G01 X26.76 Y15.16 Z-0.1 F120
G01 X26.76 Y15.14 Z-0.1 F120
G01 X26.76 Y15.12 Z-0.1 F120
G01 X26.78 Y15.12 Z-0.1 F120
G01 X26.78 Y15.1 Z-0.1 F120
G01 X26.78 Y15.08 Z-0.1 F120
G01 X26.8 Y15.08 Z-0.1 F120
G01 X26.8 Y15.06 Z-0.1 F120
G01 X26.82 Y15.06 Z-0.1 F120
G01 X26.82 Y15.04 Z-0.1 F120
G01 X26.84 Y15.04 Z-0.1 F120
G01 X26.84 Y15.02 Z-0.1 F120
G01 X26.84 Y15.0 Z-0.1 F120
G01 X26.86 Y15.0 Z-0.1 F120
G01 X26.86 Y14.98 Z-0.1 F120
G01 X26.88 Y14.98 Z-0.1 F120
G01 X26.88 Y14.96 Z-0.1 F120
G01 X26.9 Y14.96 Z-0.1 F120
G01 X26.9 Y14.94 Z-0.1 F120
G01 X26.92 Y14.94 Z-0.1 F120
G01 X26.92 Y14.92 Z-0.1 F120
G01 X26.94 Y14.92 Z-0.1 F120
G01 X26.96 Y14.92 Z-0.1 F120
G01 X26.96 Y14.9 Z-0.1 F120
G01 X26.98 Y14.9 Z-0.1 F120
G01 X27.0 Y14.9 Z-0.1 F120
G01 X27.0 Y14.88 Z-0.1 F120
G01 X27.02 Y14.88 Z-0.1 F120
G01 X27.02 Y14.86 Z-0.1 F120
G01 X27.04 Y14.86 Z-0.1 F120
G01 X27.06 Y14.86 Z-0.1 F120
G01 X27.06 Y14.84 Z-0.1 F120
G01 X27.08 Y14.84 Z-0.1 F120
G01 X27.08 Y14.82 Z-0.1 F120
G01 X27.1 Y14.82 Z-0.1 F120
G01 X27.12 Y14.82 Z-0.1 F120
G01 X27.14 Y14.82 Z-0.1 F120
G01 X27.16 Y14.82 Z-0.1 F120
G01 X27.16 Y14.8 Z-0.1 F120
G01 X27.18 Y14.8 Z-0.1 F120
G01 X27.2 Y14.8 Z-0.1 F120
G01 X27.2 Y14.78 Z-0.1 F120
G01 X27.2 Y14.76 Z-0.1 F120
G01 X27.2 Y14.74 Z-0.1 F120
G01 X27.2 Y14.72 Z-0.1 F120
G01 X27.2 Y14.7 Z-0.1 F120
G01 X27.2 Y14.68 Z-0.1 F120
G01 X27.2 Y14.66 Z-0.1 F120
G01 X27.2 Y14.64 Z-0.1 F120
G01 X27.2 Y14.62 Z-0.1 F120
G01 X27.2 Y14.6 Z-0.1 F120
G01 X27.2 Y14.58 Z-0.1 F120
G01 X27.2 Y14.56 Z-0.1 F120
G01 X27.2 Y14.54 Z-0.1 F120
G01 X27.2 Y14.52 Z-0.1 F120
G01 X27.2 Y14.5 Z-0.1 F120
G01 X27.2 Y14.48 Z-0.1 F120
G01 X27.2 Y14.46 Z-0.1 F120
G01 X27.2 Y14.44 Z-0.1 F120
G01 X27.2 Y14.42 Z-0.1 F120
G01 X27.2 Y14.4 Z-0.1 F120
G01 X27.2 Y14.38 Z-0.1 F120
G01 X27.22 Y14.38 Z-0.1 F120
G01 X27.22 Y14.36 Z-0.1 F120
G01 X27.24 Y14.36 Z-0.1 F120
G01 X27.24 Y14.34 Z-0.1 F120
G01 X27.26 Y14.34 Z-0.1 F120
G01 X27.26 Y14.32 Z-0.1 F120
G01 X27.28 Y14.32 Z-0.1 F120
G01 X27.28 Y14.3 Z-0.1 F120
G01 X27.3 Y14.3 Z-0.1 F120
G01 X27.3 Y14.28 Z-0.1 F120
G01 X27.32 Y14.28 Z-0.1 F120
G01 X27.32 Y14.26 Z-0.1 F120
G01 X27.34 Y14.26 Z-0.1 F120
G01 X27.34 Y14.24 Z-0.1 F120
G01 X27.36 Y14.24 Z-0.1 F120
G01 X27.36 Y14.22 Z-0.1 F120
G01 X27.38 Y14.22 Z-0.1 F120
G01 X27.38 Y14.2 Z-0.1 F120
G01 X27.4 Y14.2 Z-0.1 F120
G01 X27.4 Y14.18 Z-0.1 F120
G01 X27.42 Y14.18 Z-0.1 F120
G01 X27.42 Y14.16 Z-0.1 F120
G01 X27.44 Y14.16 Z-0.1 F120
G01 X27.44 Y14.14 Z-0.1 F120
G01 X27.46 Y14.14 Z-0.1 F120
G01 X27.46 Y14.12 Z-0.1 F120
G01 X27.48 Y14.12 Z-0.1 F120
G01 X27.48 Y14.1 Z-0.1 F120
G01 X27.5 Y14.1 Z-0.1 F120
G01 X27.5 Y14.08 Z-0.1 F120
G01 X27.52 Y14.08 Z-0.1 F120
G01 X27.52 Y14.06 Z-0.1 F120
G01 X27.54 Y14.06 Z-0.1 F120
G01 X27.54 Y14.04 Z-0.1 F120
G01 X27.56 Y14.04 Z-0.1 F120
G01 X27.56 Y14.02 Z-0.1 F120
G01 X27.58 Y14.02 Z-0.1 F120
G01 X27.58 Y14.0 Z-0.1 F120
G01 X27.6 Y14.0 Z-0.1 F120
G01 X27.6 Y13.98 Z-0.1 F120
G01 X27.62 Y13.98 Z-0.1 F120
G01 X27.62 Y13.96 Z-0.1 F120
G01 X27.64 Y13.96 Z-0.1 F120
G01 X27.64 Y13.94 Z-0.1 F120
G01 X27.64 Y13.92 Z-0.1 F120
G01 X27.66 Y13.92 Z-0.1 F120
G01 X27.66 Y13.9 Z-0.1 F120
G01 X27.68 Y13.9 Z-0.1 F120
G01 X27.68 Y13.88 Z-0.1 F120
G01 X27.7 Y13.88 Z-0.1 F120
G01 X27.7 Y13.86 Z-0.1 F120
G01 X27.72 Y13.86 Z-0.1 F120
G01 X27.72 Y13.84 Z-0.1 F120
G01 X27.74 Y13.84 Z-0.1 F120
G01 X27.74 Y13.82 Z-0.1 F120
G01 X27.76 Y13.82 Z-0.1 F120
G01 X27.76 Y13.8 Z-0.1 F120
G01 X27.78 Y13.8 Z-0.1 F120
G01 X27.78 Y13.78 Z-0.1 F120
G01 X27.8 Y13.78 Z-0.1 F120
G01 X27.8 Y13.76 Z-0.1 F120
G01 X27.82 Y13.76 Z-0.1 F120
G01 X27.82 Y13.74 Z-0.1 F120
G01 X27.84 Y13.74 Z-0.1 F120
G01 X27.84 Y13.72 Z-0.1 F120
G01 X27.86 Y13.72 Z-0.1 F120
G01 X27.86 Y13.7 Z-0.1 F120
G01 X27.88 Y13.7 Z-0.1 F120
G01 X27.88 Y13.68 Z-0.1 F120
G01 X27.9 Y13.68 Z-0.1 F120
G01 X27.9 Y13.66 Z-0.1 F120
G01 X27.92 Y13.66 Z-0.1 F120
G01 X27.92 Y13.64 Z-0.1 F120
G01 X27.94 Y13.64 Z-0.1 F120
G01 X27.94 Y13.62 Z-0.1 F120
G01 X27.96 Y13.62 Z-0.1 F120
G01 X27.96 Y13.6 Z-0.1 F120
G01 X27.98 Y13.6 Z-0.1 F120
G01 X27.98 Y13.58 Z-0.1 F120
G01 X28.0 Y13.58 Z-0.1 F120
G01 X28.0 Y13.56 Z-0.1 F120
G01 X28.02 Y13.56 Z-0.1 F120
G01 X28.02 Y13.54 Z-0.1 F120
G01 X28.04 Y13.54 Z-0.1 F120
G01 X28.04 Y13.52 Z-0.1 F120
G01 X28.06 Y13.52 Z-0.1 F120
G01 X28.06 Y13.5 Z-0.1 F120
G01 X28.08 Y13.5 Z-0.1 F120
G01 X28.08 Y13.48 Z-0.1 F120
G01 X28.1 Y13.48 Z-0.1 F120
G01 X28.12 Y13.48 Z-0.1 F120
G01 X28.14 Y13.48 Z-0.1 F120
G01 X28.16 Y13.48 Z-0.1 F120
G01 X28.18 Y13.48 Z-0.1 F120
G01 X28.2 Y13.48 Z-0.1 F120
G01 X28.22 Y13.48 Z-0.1 F120
G01 X28.24 Y13.48 Z-0.1 F120
G01 X28.26 Y13.48 Z-0.1 F120
G01 X28.28 Y13.48 Z-0.1 F120
G01 X28.3 Y13.48 Z-0.1 F120
G01 X28.32 Y13.48 Z-0.1 F120
G01 X28.34 Y13.48 Z-0.1 F120
G01 X28.36 Y13.48 Z-0.1 F120
G01 X28.38 Y13.48 Z-0.1 F120
G01 X28.4 Y13.48 Z-0.1 F120
G01 X28.42 Y13.48 Z-0.1 F120
G01 X28.44 Y13.48 Z-0.1 F120
G01 X28.46 Y13.48 Z-0.1 F120
G01 X28.48 Y13.48 Z-0.1 F120
G01 X28.5 Y13.48 Z-0.1 F120
G01 X28.52 Y13.48 Z-0.1 F120
G01 X28.54 Y13.48 Z-0.1 F120
G01 X28.56 Y13.48 Z-0.1 F120
G01 X28.58 Y13.48 Z-0.1 F120
G01 X28.6 Y13.48 Z-0.1 F120
G01 X28.62 Y13.48 Z-0.1 F120
G01 X28.64 Y13.48 Z-0.1 F120
G01 X28.66 Y13.48 Z-0.1 F120
G01 X28.66 Y13.46 Z-0.1 F120
G01 X28.66 Y13.44 Z-0.1 F120
G01 X28.66 Y13.42 Z-0.1 F120
G01 X28.66 Y13.4 Z-0.1 F120
G01 X28.68 Y13.4 Z-0.1 F120
G01 X28.68 Y13.38 Z-0.1 F120
G01 X28.68 Y13.36 Z-0.1 F120
G01 X28.7 Y13.36 Z-0.1 F120
G01 X28.7 Y13.34 Z-0.1 F120
G01 X28.72 Y13.34 Z-0.1 F120
G01 X28.72 Y13.32 Z-0.1 F120
G01 X28.72 Y13.3 Z-0.1 F120
G01 X28.74 Y13.3 Z-0.1 F120
G01 X28.74 Y13.28 Z-0.1 F120
G01 X28.76 Y13.28 Z-0.1 F120
G01 X28.76 Y13.26 Z-0.1 F120
G01 X28.78 Y13.26 Z-0.1 F120
G01 X28.78 Y13.24 Z-0.1 F120
G01 X28.8 Y13.24 Z-0.1 F120
G01 X28.8 Y13.22 Z-0.1 F120
G01 X28.82 Y13.22 Z-0.1 F120
G01 X28.84 Y13.22 Z-0.1 F120
G01 X28.84 Y13.2 Z-0.1 F120
G01 X28.86 Y13.2 Z-0.1 F120
G01 X28.88 Y13.2 Z-0.1 F120
G01 X28.88 Y13.18 Z-0.1 F120
M05
G00 X28.88 Y13.18 Z3 F1500
G00 X29.32 Y14.76 Z3 F1500
M03 S18000
G01 X29.32 Y14.76 Z-0.1 F120
G01 X29.34 Y14.76 Z-0.1 F120
G01 X29.36 Y14.76 Z-0.1 F120
G01 X29.38 Y14.76 Z-0.1 F120
G01 X29.4 Y14.76 Z-0.1 F120
G01 X29.42 Y14.76 Z-0.1 F120
G01 X29.44 Y14.76 Z-0.1 F120
G01 X29.46 Y14.76 Z-0.1 F120
G01 X29.48 Y14.76 Z-0.1 F120
G01 X29.5 Y14.76 Z-0.1 F120
G01 X29.52 Y14.76 Z-0.1 F120
G01 X29.54 Y14.76 Z-0.1 F120
G01 X29.56 Y14.76 Z-0.1 F120
G01 X29.58 Y14.76 Z-0.1 F120
G01 X29.6 Y14.76 Z-0.1 F120
G01 X29.62 Y14.76 Z-0.1 F120
G01 X29.62 Y14.78 Z-0.1 F120
G01 X29.64 Y14.78 Z-0.1 F120
G01 X29.66 Y14.78 Z-0.1 F120
G01 X29.68 Y14.78 Z-0.1 F120
G01 X29.7 Y14.78 Z-0.1 F120
G01 X29.7 Y14.8 Z-0.1 F120
G01 X29.72 Y14.8 Z-0.1 F120
G01 X29.74 Y14.8 Z-0.1 F120
G01 X29.76 Y14.8 Z-0.1 F120
G01 X29.78 Y14.8 Z-0.1 F120
G01 X29.78 Y14.82 Z-0.1 F120
G01 X29.8 Y14.82 Z-0.1 F120
G01 X29.82 Y14.82 Z-0.1 F120
G01 X29.84 Y14.82 Z-0.1 F120
G01 X29.86 Y14.82 Z-0.1 F120
G01 X29.88 Y14.82 Z-0.1 F120
G01 X29.88 Y14.84 Z-0.1 F120
G01 X29.9 Y14.84 Z-0.1 F120
G01 X29.9 Y14.86 Z-0.1 F120
G01 X29.92 Y14.86 Z-0.1 F120
G01 X29.92 Y14.88 Z-0.1 F120
G01 X29.94 Y14.88 Z-0.1 F120
G01 X29.94 Y14.9 Z-0.1 F120
G01 X29.96 Y14.9 Z-0.1 F120
G01 X29.98 Y14.9 Z-0.1 F120
G01 X29.98 Y14.92 Z-0.1 F120
G01 X30.0 Y14.92 Z-0.1 F120
G01 X30.02 Y14.92 Z-0.1 F120
G01 X30.02 Y14.94 Z-0.1 F120
G01 X30.04 Y14.94 Z-0.1 F120
G01 X30.04 Y14.96 Z-0.1 F120
G01 X30.06 Y14.96 Z-0.1 F120
G01 X30.06 Y14.98 Z-0.1 F120
G01 X30.08 Y14.98 Z-0.1 F120
G01 X30.08 Y15.0 Z-0.1 F120
G01 X30.1 Y15.0 Z-0.1 F120
G01 X30.1 Y15.02 Z-0.1 F120
G01 X30.1 Y15.04 Z-0.1 F120
G01 X30.12 Y15.04 Z-0.1 F120
G01 X30.12 Y15.06 Z-0.1 F120
G01 X30.14 Y15.06 Z-0.1 F120
G01 X30.14 Y15.08 Z-0.1 F120
G01 X30.16 Y15.08 Z-0.1 F120
G01 X30.16 Y15.1 Z-0.1 F120
G01 X30.16 Y15.12 Z-0.1 F120
G01 X30.18 Y15.12 Z-0.1 F120
G01 X30.18 Y15.14 Z-0.1 F120
G01 X30.18 Y15.16 Z-0.1 F120
G01 X30.2 Y15.16 Z-0.1 F120
G01 X30.2 Y15.18 Z-0.1 F120
G01 X30.2 Y15.2 Z-0.1 F120
G01 X30.22 Y15.2 Z-0.1 F120
G01 X30.22 Y15.22 Z-0.1 F120
G01 X30.22 Y15.24 Z-0.1 F120
G01 X30.24 Y15.24 Z-0.1 F120
G01 X30.24 Y15.26 Z-0.1 F120
G01 X30.24 Y15.28 Z-0.1 F120
G01 X30.26 Y15.28 Z-0.1 F120
G01 X30.26 Y15.3 Z-0.1 F120
G01 X30.26 Y15.32 Z-0.1 F120
G01 X30.26 Y15.34 Z-0.1 F120
G01 X30.26 Y15.36 Z-0.1 F120
G01 X30.26 Y15.38 Z-0.1 F120
G01 X30.26 Y15.4 Z-0.1 F120
G01 X30.26 Y15.42 Z-0.1 F120
G01 X30.26 Y15.44 Z-0.1 F120
G01 X30.28 Y15.44 Z-0.1 F120
G01 X30.28 Y15.46 Z-0.1 F120
G01 X30.28 Y15.48 Z-0.1 F120
G01 X30.28 Y15.5 Z-0.1 F120
G01 X30.28 Y15.52 Z-0.1 F120
G01 X30.28 Y15.54 Z-0.1 F120
G01 X30.28 Y15.56 Z-0.1 F120
G01 X30.28 Y15.58 Z-0.1 F120
G01 X30.28 Y15.6 Z-0.1 F120
G01 X30.28 Y15.62 Z-0.1 F120
G01 X30.28 Y15.64 Z-0.1 F120
G01 X30.28 Y15.66 Z-0.1 F120
G01 X30.28 Y15.68 Z-0.1 F120
G01 X30.28 Y15.7 Z-0.1 F120
G01 X30.26 Y15.7 Z-0.1 F120
G01 X30.26 Y15.72 Z-0.1 F120
G01 X30.26 Y15.74 Z-0.1 F120
G01 X30.26 Y15.76 Z-0.1 F120
G01 X30.26 Y15.78 Z-0.1 F120
G01 X30.26 Y15.8 Z-0.1 F120
G01 X30.26 Y15.82 Z-0.1 F120
G01 X30.26 Y15.84 Z-0.1 F120
G01 X30.24 Y15.84 Z-0.1 F120
G01 X30.24 Y15.86 Z-0.1 F120
G01 X30.24 Y15.88 Z-0.1 F120
G01 X30.22 Y15.88 Z-0.1 F120
G01 X30.22 Y15.9 Z-0.1 F120
G01 X30.22 Y15.92 Z-0.1 F120
G01 X30.2 Y15.92 Z-0.1 F120
G01 X30.2 Y15.94 Z-0.1 F120
G01 X30.2 Y15.96 Z-0.1 F120
G01 X30.18 Y15.96 Z-0.1 F120
G01 X30.18 Y15.98 Z-0.1 F120
G01 X30.18 Y16.0 Z-0.1 F120
G01 X30.16 Y16.0 Z-0.1 F120
G01 X30.16 Y16.02 Z-0.1 F120
G01 X30.16 Y16.04 Z-0.1 F120
G01 X30.14 Y16.04 Z-0.1 F120
G01 X30.14 Y16.06 Z-0.1 F120
G01 X30.14 Y16.08 Z-0.1 F120
G01 X30.12 Y16.08 Z-0.1 F120
G01 X30.12 Y16.1 Z-0.1 F120
G01 X30.1 Y16.1 Z-0.1 F120
G01 X30.1 Y16.12 Z-0.1 F120
G01 X30.08 Y16.12 Z-0.1 F120
G01 X30.08 Y16.14 Z-0.1 F120
G01 X30.06 Y16.14 Z-0.1 F120
G01 X30.06 Y16.16 Z-0.1 F120
G01 X30.04 Y16.16 Z-0.1 F120
G01 X30.04 Y16.18 Z-0.1 F120
G01 X30.02 Y16.18 Z-0.1 F120
G01 X30.02 Y16.2 Z-0.1 F120
G01 X30.0 Y16.2 Z-0.1 F120
G01 X30.0 Y16.22 Z-0.1 F120
G01 X29.98 Y16.22 Z-0.1 F120
G01 X29.96 Y16.22 Z-0.1 F120
G01 X29.96 Y16.24 Z-0.1 F120
G01 X29.94 Y16.24 Z-0.1 F120
G01 X29.94 Y16.26 Z-0.1 F120
G01 X29.92 Y16.26 Z-0.1 F120
G01 X29.9 Y16.26 Z-0.1 F120
G01 X29.9 Y16.28 Z-0.1 F120
G01 X29.88 Y16.28 Z-0.1 F120
G01 X29.88 Y16.3 Z-0.1 F120
G01 X29.86 Y16.3 Z-0.1 F120
G01 X29.84 Y16.3 Z-0.1 F120
G01 X29.82 Y16.3 Z-0.1 F120
G01 X29.8 Y16.3 Z-0.1 F120
G01 X29.78 Y16.3 Z-0.1 F120
G01 X29.78 Y16.32 Z-0.1 F120
G01 X29.76 Y16.32 Z-0.1 F120
G01 X29.74 Y16.32 Z-0.1 F120
G01 X29.74 Y16.34 Z-0.1 F120
G01 X29.72 Y16.34 Z-0.1 F120
G01 X29.7 Y16.34 Z-0.1 F120
G01 X29.7 Y16.36 Z-0.1 F120
G01 X29.68 Y16.36 Z-0.1 F120
G01 X29.66 Y16.36 Z-0.1 F120
G01 X29.64 Y16.36 Z-0.1 F120
G01 X29.62 Y16.36 Z-0.1 F120
G01 X29.6 Y16.36 Z-0.1 F120
G01 X29.58 Y16.36 Z-0.1 F120
G01 X29.56 Y16.36 Z-0.1 F120
G01 X29.54 Y16.36 Z-0.1 F120
G01 X29.52 Y16.36 Z-0.1 F120
G01 X29.5 Y16.36 Z-0.1 F120
G01 X29.48 Y16.36 Z-0.1 F120
G01 X29.46 Y16.36 Z-0.1 F120
G01 X29.44 Y16.36 Z-0.1 F120
G01 X29.42 Y16.36 Z-0.1 F120
G01 X29.4 Y16.36 Z-0.1 F120
G01 X29.38 Y16.36 Z-0.1 F120
G01 X29.36 Y16.36 Z-0.1 F120
G01 X29.34 Y16.36 Z-0.1 F120
G01 X29.32 Y16.36 Z-0.1 F120
G01 X29.3 Y16.36 Z-0.1 F120
G01 X29.28 Y16.36 Z-0.1 F120
G01 X29.26 Y16.36 Z-0.1 F120
G01 X29.24 Y16.36 Z-0.1 F120
G01 X29.24 Y16.34 Z-0.1 F120
G01 X29.22 Y16.34 Z-0.1 F120
G01 X29.2 Y16.34 Z-0.1 F120
G01 X29.2 Y16.32 Z-0.1 F120
G01 X29.18 Y16.32 Z-0.1 F120
G01 X29.16 Y16.32 Z-0.1 F120
G01 X29.16 Y16.3 Z-0.1 F120
G01 X29.14 Y16.3 Z-0.1 F120
G01 X29.12 Y16.3 Z-0.1 F120
G01 X29.1 Y16.3 Z-0.1 F120
G01 X29.08 Y16.3 Z-0.1 F120
G01 X29.08 Y16.28 Z-0.1 F120
G01 X29.06 Y16.28 Z-0.1 F120
G01 X29.04 Y16.28 Z-0.1 F120
G01 X29.04 Y16.26 Z-0.1 F120
G01 X29.02 Y16.26 Z-0.1 F120
G01 X29.0 Y16.26 Z-0.1 F120
G01 X29.0 Y16.24 Z-0.1 F120
G01 X28.98 Y16.24 Z-0.1 F120
G01 X28.98 Y16.22 Z-0.1 F120
G01 X28.96 Y16.22 Z-0.1 F120
G01 X28.94 Y16.22 Z-0.1 F120
G01 X28.94 Y16.2 Z-0.1 F120
G01 X28.92 Y16.2 Z-0.1 F120
G01 X28.92 Y16.18 Z-0.1 F120
G01 X28.9 Y16.18 Z-0.1 F120
G01 X28.9 Y16.16 Z-0.1 F120
G01 X28.88 Y16.16 Z-0.1 F120
G01 X28.88 Y16.14 Z-0.1 F120
G01 X28.86 Y16.14 Z-0.1 F120
G01 X28.86 Y16.12 Z-0.1 F120
G01 X28.84 Y16.12 Z-0.1 F120
G01 X28.84 Y16.1 Z-0.1 F120
G01 X28.82 Y16.1 Z-0.1 F120
G01 X28.82 Y16.08 Z-0.1 F120
G01 X28.8 Y16.08 Z-0.1 F120
G01 X28.8 Y16.06 Z-0.1 F120
G01 X28.8 Y16.04 Z-0.1 F120
G01 X28.78 Y16.04 Z-0.1 F120
G01 X28.78 Y16.02 Z-0.1 F120
G01 X28.78 Y16.0 Z-0.1 F120
G01 X28.76 Y16.0 Z-0.1 F120
G01 X28.76 Y15.98 Z-0.1 F120
G01 X28.76 Y15.96 Z-0.1 F120
G01 X28.74 Y15.96 Z-0.1 F120
G01 X28.74 Y15.94 Z-0.1 F120
G01 X28.74 Y15.92 Z-0.1 F120
G01 X28.72 Y15.92 Z-0.1 F120
G01 X28.72 Y15.9 Z-0.1 F120
G01 X28.72 Y15.88 Z-0.1 F120
G01 X28.72 Y15.86 Z-0.1 F120
G01 X28.7 Y15.86 Z-0.1 F120
G01 X28.7 Y15.84 Z-0.1 F120
G01 X28.7 Y15.82 Z-0.1 F120
G01 X28.7 Y15.8 Z-0.1 F120
G01 X28.7 Y15.78 Z-0.1 F120
G01 X28.68 Y15.78 Z-0.1 F120
G01 X28.68 Y15.76 Z-0.1 F120
G01 X28.68 Y15.74 Z-0.1 F120
G01 X28.68 Y15.72 Z-0.1 F120
G01 X28.68 Y15.7 Z-0.1 F120
G01 X28.68 Y15.68 Z-0.1 F120
G01 X28.68 Y15.66 Z-0.1 F120
G01 X28.68 Y15.64 Z-0.1 F120
G01 X28.68 Y15.62 Z-0.1 F120
G01 X28.68 Y15.6 Z-0.1 F120
G01 X28.68 Y15.58 Z-0.1 F120
G01 X28.68 Y15.56 Z-0.1 F120
G01 X28.68 Y15.54 Z-0.1 F120
G01 X28.68 Y15.52 Z-0.1 F120
G01 X28.68 Y15.5 Z-0.1 F120
G01 X28.68 Y15.48 Z-0.1 F120
G01 X28.68 Y15.46 Z-0.1 F120
G01 X28.68 Y15.44 Z-0.1 F120
G01 X28.68 Y15.42 Z-0.1 F120
G01 X28.68 Y15.4 Z-0.1 F120
G01 X28.68 Y15.38 Z-0.1 F120
G01 X28.68 Y15.36 Z-0.1 F120
G01 X28.68 Y15.34 Z-0.1 F120
G01 X28.7 Y15.34 Z-0.1 F120
G01 X28.7 Y15.32 Z-0.1 F120
G01 X28.7 Y15.3 Z-0.1 F120
G01 X28.7 Y15.28 Z-0.1 F120
G01 X28.7 Y15.26 Z-0.1 F120
G01 X28.72 Y15.26 Z-0.1 F120
G01 X28.72 Y15.24 Z-0.1 F120
G01 X28.72 Y15.22 Z-0.1 F120
G01 X28.72 Y15.2 Z-0.1 F120
G01 X28.74 Y15.2 Z-0.1 F120
G01 X28.74 Y15.18 Z-0.1 F120
G01 X28.74 Y15.16 Z-0.1 F120
G01 X28.76 Y15.16 Z-0.1 F120
G01 X28.76 Y15.14 Z-0.1 F120
G01 X28.76 Y15.12 Z-0.1 F120
G01 X28.78 Y15.12 Z-0.1 F120
G01 X28.78 Y15.1 Z-0.1 F120
G01 X28.78 Y15.08 Z-0.1 F120
G01 X28.8 Y15.08 Z-0.1 F120
G01 X28.8 Y15.06 Z-0.1 F120
G01 X28.82 Y15.06 Z-0.1 F120
G01 X28.82 Y15.04 Z-0.1 F120
G01 X28.84 Y15.04 Z-0.1 F120
G01 X28.84 Y15.02 Z-0.1 F120
G01 X28.84 Y15.0 Z-0.1 F120
G01 X28.86 Y15.0 Z-0.1 F120
G01 X28.86 Y14.98 Z-0.1 F120
G01 X28.88 Y14.98 Z-0.1 F120
G01 X28.88 Y14.96 Z-0.1 F120
G01 X28.9 Y14.96 Z-0.1 F120
G01 X28.9 Y14.94 Z-0.1 F120
G01 X28.92 Y14.94 Z-0.1 F120
G01 X28.92 Y14.92 Z-0.1 F120
G01 X28.94 Y14.92 Z-0.1 F120
G01 X28.96 Y14.92 Z-0.1 F120
G01 X28.96 Y14.9 Z-0.1 F120
G01 X28.98 Y14.9 Z-0.1 F120
G01 X29.0 Y14.9 Z-0.1 F120
G01 X29.0 Y14.88 Z-0.1 F120
G01 X29.02 Y14.88 Z-0.1 F120
G01 X29.02 Y14.86 Z-0.1 F120
G01 X29.04 Y14.86 Z-0.1 F120
G01 X29.06 Y14.86 Z-0.1 F120
G01 X29.06 Y14.84 Z-0.1 F120
G01 X29.08 Y14.84 Z-0.1 F120
G01 X29.08 Y14.82 Z-0.1 F120
G01 X29.1 Y14.82 Z-0.1 F120
G01 X29.12 Y14.82 Z-0.1 F120
G01 X29.14 Y14.82 Z-0.1 F120
G01 X29.16 Y14.82 Z-0.1 F120
G01 X29.16 Y14.8 Z-0.1 F120
G01 X29.18 Y14.8 Z-0.1 F120
G01 X29.2 Y14.8 Z-0.1 F120
G01 X29.22 Y14.8 Z-0.1 F120
G01 X29.24 Y14.8 Z-0.1 F120
G01 X29.24 Y14.78 Z-0.1 F120
G01 X29.26 Y14.78 Z-0.1 F120
G01 X29.28 Y14.78 Z-0.1 F120
G01 X29.3 Y14.78 Z-0.1 F120
G01 X29.32 Y14.78 Z-0.1 F120
G01 X29.32 Y14.76 Z-0.1 F120
M05
G00 X29.32 Y14.76 Z3 F1500
G00 X33.32 Y14.76 Z3 F1500
M03 S18000
G01 X33.32 Y14.76 Z-0.1 F120
G01 X33.34 Y14.76 Z-0.1 F120
G01 X33.36 Y14.76 Z-0.1 F120
G01 X33.38 Y14.76 Z-0.1 F120
G01 X33.4 Y14.76 Z-0.1 F120
G01 X33.42 Y14.76 Z-0.1 F120
G01 X33.44 Y14.76 Z-0.1 F120
G01 X33.46 Y14.76 Z-0.1 F120
G01 X33.48 Y14.76 Z-0.1 F120
G01 X33.5 Y14.76 Z-0.1 F120
G01 X33.52 Y14.76 Z-0.1 F120
G01 X33.54 Y14.76 Z-0.1 F120
G01 X33.56 Y14.76 Z-0.1 F120
G01 X33.58 Y14.76 Z-0.1 F120
G01 X33.6 Y14.76 Z-0.1 F120
G01 X33.62 Y14.76 Z-0.1 F120
G01 X33.62 Y14.78 Z-0.1 F120
G01 X33.64 Y14.78 Z-0.1 F120
G01 X33.66 Y14.78 Z-0.1 F120
G01 X33.68 Y14.78 Z-0.1 F120
G01 X33.7 Y14.78 Z-0.1 F120
G01 X33.7 Y14.8 Z-0.1 F120
G01 X33.72 Y14.8 Z-0.1 F120
G01 X33.74 Y14.8 Z-0.1 F120
G01 X33.76 Y14.8 Z-0.1 F120
G01 X33.78 Y14.8 Z-0.1 F120
G01 X33.78 Y14.82 Z-0.1 F120
G01 X33.8 Y14.82 Z-0.1 F120
G01 X33.82 Y14.82 Z-0.1 F120
G01 X33.84 Y14.82 Z-0.1 F120
G01 X33.86 Y14.82 Z-0.1 F120
G01 X33.88 Y14.82 Z-0.1 F120
G01 X33.88 Y14.84 Z-0.1 F120
G01 X33.9 Y14.84 Z-0.1 F120
G01 X33.9 Y14.86 Z-0.1 F120
G01 X33.92 Y14.86 Z-0.1 F120
G01 X33.92 Y14.88 Z-0.1 F120
G01 X33.94 Y14.88 Z-0.1 F120
G01 X33.94 Y14.9 Z-0.1 F120
G01 X33.96 Y14.9 Z-0.1 F120
G01 X33.98 Y14.9 Z-0.1 F120
G01 X33.98 Y14.92 Z-0.1 F120
G01 X34.0 Y14.92 Z-0.1 F120
G01 X34.02 Y14.92 Z-0.1 F120
G01 X34.02 Y14.94 Z-0.1 F120
G01 X34.04 Y14.94 Z-0.1 F120
G01 X34.04 Y14.96 Z-0.1 F120
G01 X34.06 Y14.96 Z-0.1 F120
G01 X34.06 Y14.98 Z-0.1 F120
G01 X34.08 Y14.98 Z-0.1 F120
G01 X34.08 Y15.0 Z-0.1 F120
G01 X34.1 Y15.0 Z-0.1 F120
G01 X34.1 Y15.02 Z-0.1 F120
G01 X34.1 Y15.04 Z-0.1 F120
G01 X34.12 Y15.04 Z-0.1 F120
G01 X34.12 Y15.06 Z-0.1 F120
G01 X34.14 Y15.06 Z-0.1 F120
G01 X34.14 Y15.08 Z-0.1 F120
G01 X34.16 Y15.08 Z-0.1 F120
G01 X34.16 Y15.1 Z-0.1 F120
G01 X34.16 Y15.12 Z-0.1 F120
G01 X34.18 Y15.12 Z-0.1 F120
G01 X34.18 Y15.14 Z-0.1 F120
G01 X34.18 Y15.16 Z-0.1 F120
G01 X34.2 Y15.16 Z-0.1 F120
G01 X34.2 Y15.18 Z-0.1 F120
G01 X34.2 Y15.2 Z-0.1 F120
G01 X34.22 Y15.2 Z-0.1 F120
G01 X34.22 Y15.22 Z-0.1 F120
G01 X34.22 Y15.24 Z-0.1 F120
G01 X34.24 Y15.24 Z-0.1 F120
G01 X34.24 Y15.26 Z-0.1 F120
G01 X34.24 Y15.28 Z-0.1 F120
G01 X34.26 Y15.28 Z-0.1 F120
G01 X34.26 Y15.3 Z-0.1 F120
G01 X34.26 Y15.32 Z-0.1 F120
G01 X34.26 Y15.34 Z-0.1 F120
G01 X34.26 Y15.36 Z-0.1 F120
G01 X34.26 Y15.38 Z-0.1 F120
G01 X34.26 Y15.4 Z-0.1 F120
G01 X34.26 Y15.42 Z-0.1 F120
G01 X34.26 Y15.44 Z-0.1 F120
G01 X34.28 Y15.44 Z-0.1 F120
G01 X34.28 Y15.46 Z-0.1 F120
G01 X34.28 Y15.48 Z-0.1 F120
G01 X34.28 Y15.5 Z-0.1 F120
G01 X34.28 Y15.52 Z-0.1 F120
G01 X34.28 Y15.54 Z-0.1 F120
G01 X34.28 Y15.56 Z-0.1 F120
G01 X34.28 Y15.58 Z-0.1 F120
G01 X34.28 Y15.6 Z-0.1 F120
G01 X34.28 Y15.62 Z-0.1 F120
G01 X34.28 Y15.64 Z-0.1 F120
G01 X34.28 Y15.66 Z-0.1 F120
G01 X34.28 Y15.68 Z-0.1 F120
G01 X34.28 Y15.7 Z-0.1 F120
G01 X34.26 Y15.7 Z-0.1 F120
G01 X34.26 Y15.72 Z-0.1 F120
G01 X34.26 Y15.74 Z-0.1 F120
G01 X34.26 Y15.76 Z-0.1 F120
G01 X34.26 Y15.78 Z-0.1 F120
G01 X34.26 Y15.8 Z-0.1 F120
G01 X34.26 Y15.82 Z-0.1 F120
G01 X34.26 Y15.84 Z-0.1 F120
G01 X34.24 Y15.84 Z-0.1 F120
G01 X34.24 Y15.86 Z-0.1 F120
G01 X34.24 Y15.88 Z-0.1 F120
G01 X34.22 Y15.88 Z-0.1 F120
G01 X34.22 Y15.9 Z-0.1 F120
G01 X34.22 Y15.92 Z-0.1 F120
G01 X34.2 Y15.92 Z-0.1 F120
G01 X34.2 Y15.94 Z-0.1 F120
G01 X34.2 Y15.96 Z-0.1 F120
G01 X34.18 Y15.96 Z-0.1 F120
G01 X34.18 Y15.98 Z-0.1 F120
G01 X34.18 Y16.0 Z-0.1 F120
G01 X34.16 Y16.0 Z-0.1 F120
G01 X34.16 Y16.02 Z-0.1 F120
G01 X34.16 Y16.04 Z-0.1 F120
G01 X34.14 Y16.04 Z-0.1 F120
G01 X34.14 Y16.06 Z-0.1 F120
G01 X34.14 Y16.08 Z-0.1 F120
G01 X34.12 Y16.08 Z-0.1 F120
G01 X34.12 Y16.1 Z-0.1 F120
G01 X34.1 Y16.1 Z-0.1 F120
G01 X34.1 Y16.12 Z-0.1 F120
G01 X34.08 Y16.12 Z-0.1 F120
G01 X34.08 Y16.14 Z-0.1 F120
G01 X34.06 Y16.14 Z-0.1 F120
G01 X34.06 Y16.16 Z-0.1 F120
G01 X34.04 Y16.16 Z-0.1 F120
G01 X34.04 Y16.18 Z-0.1 F120
G01 X34.02 Y16.18 Z-0.1 F120
G01 X34.02 Y16.2 Z-0.1 F120
G01 X34.0 Y16.2 Z-0.1 F120
G01 X34.0 Y16.22 Z-0.1 F120
G01 X33.98 Y16.22 Z-0.1 F120
G01 X33.96 Y16.22 Z-0.1 F120
G01 X33.96 Y16.24 Z-0.1 F120
G01 X33.94 Y16.24 Z-0.1 F120
G01 X33.94 Y16.26 Z-0.1 F120
G01 X33.92 Y16.26 Z-0.1 F120
G01 X33.9 Y16.26 Z-0.1 F120
G01 X33.9 Y16.28 Z-0.1 F120
G01 X33.88 Y16.28 Z-0.1 F120
G01 X33.88 Y16.3 Z-0.1 F120
G01 X33.86 Y16.3 Z-0.1 F120
G01 X33.84 Y16.3 Z-0.1 F120
G01 X33.82 Y16.3 Z-0.1 F120
G01 X33.8 Y16.3 Z-0.1 F120
G01 X33.78 Y16.3 Z-0.1 F120
G01 X33.78 Y16.32 Z-0.1 F120
G01 X33.76 Y16.32 Z-0.1 F120
G01 X33.74 Y16.32 Z-0.1 F120
G01 X33.74 Y16.34 Z-0.1 F120
G01 X33.72 Y16.34 Z-0.1 F120
G01 X33.7 Y16.34 Z-0.1 F120
G01 X33.7 Y16.36 Z-0.1 F120
G01 X33.68 Y16.36 Z-0.1 F120
G01 X33.66 Y16.36 Z-0.1 F120
G01 X33.64 Y16.36 Z-0.1 F120
G01 X33.62 Y16.36 Z-0.1 F120
G01 X33.6 Y16.36 Z-0.1 F120
G01 X33.58 Y16.36 Z-0.1 F120
G01 X33.56 Y16.36 Z-0.1 F120
G01 X33.54 Y16.36 Z-0.1 F120
G01 X33.52 Y16.36 Z-0.1 F120
G01 X33.5 Y16.36 Z-0.1 F120
G01 X33.48 Y16.36 Z-0.1 F120
G01 X33.46 Y16.36 Z-0.1 F120
G01 X33.44 Y16.36 Z-0.1 F120
G01 X33.42 Y16.36 Z-0.1 F120
G01 X33.4 Y16.36 Z-0.1 F120
G01 X33.38 Y16.36 Z-0.1 F120
G01 X33.36 Y16.36 Z-0.1 F120
G01 X33.34 Y16.36 Z-0.1 F120
G01 X33.32 Y16.36 Z-0.1 F120
G01 X33.3 Y16.36 Z-0.1 F120
G01 X33.28 Y16.36 Z-0.1 F120
G01 X33.26 Y16.36 Z-0.1 F120
G01 X33.24 Y16.36 Z-0.1 F120
G01 X33.24 Y16.34 Z-0.1 F120
G01 X33.22 Y16.34 Z-0.1 F120
G01 X33.2 Y16.34 Z-0.1 F120
G01 X33.2 Y16.32 Z-0.1 F120
G01 X33.18 Y16.32 Z-0.1 F120
G01 X33.16 Y16.32 Z-0.1 F120
G01 X33.16 Y16.3 Z-0.1 F120
G01 X33.14 Y16.3 Z-0.1 F120
G01 X33.12 Y16.3 Z-0.1 F120
G01 X33.1 Y16.3 Z-0.1 F120
G01 X33.08 Y16.3 Z-0.1 F120
G01 X33.08 Y16.28 Z-0.1 F120
G01 X33.06 Y16.28 Z-0.1 F120
G01 X33.04 Y16.28 Z-0.1 F120
G01 X33.04 Y16.26 Z-0.1 F120
G01 X33.02 Y16.26 Z-0.1 F120
G01 X33.0 Y16.26 Z-0.1 F120
G01 X33.0 Y16.24 Z-0.1 F120
G01 X32.98 Y16.24 Z-0.1 F120
G01 X32.98 Y16.22 Z-0.1 F120
G01 X32.96 Y16.22 Z-0.1 F120
G01 X32.94 Y16.22 Z-0.1 F120
G01 X32.94 Y16.2 Z-0.1 F120
G01 X32.92 Y16.2 Z-0.1 F120
G01 X32.92 Y16.18 Z-0.1 F120
G01 X32.9 Y16.18 Z-0.1 F120
G01 X32.9 Y16.16 Z-0.1 F120
G01 X32.88 Y16.16 Z-0.1 F120
G01 X32.88 Y16.14 Z-0.1 F120
G01 X32.86 Y16.14 Z-0.1 F120
G01 X32.86 Y16.12 Z-0.1 F120
G01 X32.84 Y16.12 Z-0.1 F120
G01 X32.84 Y16.1 Z-0.1 F120
G01 X32.82 Y16.1 Z-0.1 F120
G01 X32.82 Y16.08 Z-0.1 F120
G01 X32.8 Y16.08 Z-0.1 F120
G01 X32.8 Y16.06 Z-0.1 F120
G01 X32.8 Y16.04 Z-0.1 F120
G01 X32.78 Y16.04 Z-0.1 F120
G01 X32.78 Y16.02 Z-0.1 F120
G01 X32.78 Y16.0 Z-0.1 F120
G01 X32.76 Y16.0 Z-0.1 F120
G01 X32.76 Y15.98 Z-0.1 F120
G01 X32.76 Y15.96 Z-0.1 F120
G01 X32.74 Y15.96 Z-0.1 F120
G01 X32.74 Y15.94 Z-0.1 F120
G01 X32.74 Y15.92 Z-0.1 F120
G01 X32.72 Y15.92 Z-0.1 F120
G01 X32.72 Y15.9 Z-0.1 F120
G01 X32.72 Y15.88 Z-0.1 F120
G01 X32.72 Y15.86 Z-0.1 F120
G01 X32.7 Y15.86 Z-0.1 F120
G01 X32.7 Y15.84 Z-0.1 F120
G01 X32.7 Y15.82 Z-0.1 F120
G01 X32.7 Y15.8 Z-0.1 F120
G01 X32.7 Y15.78 Z-0.1 F120
G01 X32.68 Y15.78 Z-0.1 F120
G01 X32.68 Y15.76 Z-0.1 F120
G01 X32.68 Y15.74 Z-0.1 F120
G01 X32.68 Y15.72 Z-0.1 F120
G01 X32.68 Y15.7 Z-0.1 F120
G01 X32.68 Y15.68 Z-0.1 F120
G01 X32.68 Y15.66 Z-0.1 F120
G01 X32.68 Y15.64 Z-0.1 F120
G01 X32.68 Y15.62 Z-0.1 F120
G01 X32.68 Y15.6 Z-0.1 F120
G01 X32.68 Y15.58 Z-0.1 F120
G01 X32.68 Y15.56 Z-0.1 F120
G01 X32.68 Y15.54 Z-0.1 F120
G01 X32.68 Y15.52 Z-0.1 F120
G01 X32.68 Y15.5 Z-0.1 F120
G01 X32.68 Y15.48 Z-0.1 F120
G01 X32.68 Y15.46 Z-0.1 F120
G01 X32.68 Y15.44 Z-0.1 F120
G01 X32.68 Y15.42 Z-0.1 F120
G01 X32.68 Y15.4 Z-0.1 F120
G01 X32.68 Y15.38 Z-0.1 F120
G01 X32.68 Y15.36 Z-0.1 F120
G01 X32.68 Y15.34 Z-0.1 F120
G01 X32.7 Y15.34 Z-0.1 F120
G01 X32.7 Y15.32 Z-0.1 F120
G01 X32.7 Y15.3 Z-0.1 F120
G01 X32.7 Y15.28 Z-0.1 F120
G01 X32.7 Y15.26 Z-0.1 F120
G01 X32.72 Y15.26 Z-0.1 F120
G01 X32.72 Y15.24 Z-0.1 F120
G01 X32.72 Y15.22 Z-0.1 F120
G01 X32.72 Y15.2 Z-0.1 F120
G01 X32.74 Y15.2 Z-0.1 F120
G01 X32.74 Y15.18 Z-0.1 F120
G01 X32.74 Y15.16 Z-0.1 F120
G01 X32.76 Y15.16 Z-0.1 F120
G01 X32.76 Y15.14 Z-0.1 F120
G01 X32.76 Y15.12 Z-0.1 F120
G01 X32.78 Y15.12 Z-0.1 F120
G01 X32.78 Y15.1 Z-0.1 F120
G01 X32.78 Y15.08 Z-0.1 F120
G01 X32.8 Y15.08 Z-0.1 F120
G01 X32.8 Y15.06 Z-0.1 F120
G01 X32.82 Y15.06 Z-0.1 F120
G01 X32.82 Y15.04 Z-0.1 F120
G01 X32.84 Y15.04 Z-0.1 F120
G01 X32.84 Y15.02 Z-0.1 F120
G01 X32.84 Y15.0 Z-0.1 F120
G01 X32.86 Y15.0 Z-0.1 F120
G01 X32.86 Y14.98 Z-0.1 F120
G01 X32.88 Y14.98 Z-0.1 F120
G01 X32.88 Y14.96 Z-0.1 F120
G01 X32.9 Y14.96 Z-0.1 F120
G01 X32.9 Y14.94 Z-0.1 F120
G01 X32.92 Y14.94 Z-0.1 F120
G01 X32.92 Y14.92 Z-0.1 F120
G01 X32.94 Y14.92 Z-0.1 F120
G01 X32.96 Y14.92 Z-0.1 F120
G01 X32.96 Y14.9 Z-0.1 F120
G01 X32.98 Y14.9 Z-0.1 F120
G01 X33.0 Y14.9 Z-0.1 F120
G01 X33.0 Y14.88 Z-0.1 F120
G01 X33.02 Y14.88 Z-0.1 F120
G01 X33.02 Y14.86 Z-0.1 F120
G01 X33.04 Y14.86 Z-0.1 F120
G01 X33.06 Y14.86 Z-0.1 F120
G01 X33.06 Y14.84 Z-0.1 F120
G01 X33.08 Y14.84 Z-0.1 F120
G01 X33.08 Y14.82 Z-0.1 F120
G01 X33.1 Y14.82 Z-0.1 F120
G01 X33.12 Y14.82 Z-0.1 F120
G01 X33.14 Y14.82 Z-0.1 F120
G01 X33.16 Y14.82 Z-0.1 F120
G01 X33.16 Y14.8 Z-0.1 F120
G01 X33.18 Y14.8 Z-0.1 F120
G01 X33.2 Y14.8 Z-0.1 F120
G01 X33.22 Y14.8 Z-0.1 F120
G01 X33.24 Y14.8 Z-0.1 F120
G01 X33.24 Y14.78 Z-0.1 F120
G01 X33.26 Y14.78 Z-0.1 F120
G01 X33.28 Y14.78 Z-0.1 F120
G01 X33.3 Y14.78 Z-0.1 F120
G01 X33.32 Y14.78 Z-0.1 F120
G01 X33.32 Y14.76 Z-0.1 F120
M05
G00 X33.32 Y14.76 Z3 F1500
G00 X37.92 Y15.08 Z3 F1500
M03 S18000
G01 X37.92 Y15.08 Z-0.1 F120
G01 X37.94 Y15.08 Z-0.1 F120
G01 X37.96 Y15.08 Z-0.1 F120
G01 X37.98 Y15.08 Z-0.1 F120
G01 X38.0 Y15.08 Z-0.1 F120
G01 X38.02 Y15.08 Z-0.1 F120
G01 X38.04 Y15.08 Z-0.1 F120
G01 X38.06 Y15.08 Z-0.1 F120
G01 X38.08 Y15.08 Z-0.1 F120
G01 X38.1 Y15.08 Z-0.1 F120
G01 X38.12 Y15.08 Z-0.1 F120
G01 X38.14 Y15.08 Z-0.1 F120
G01 X38.16 Y15.08 Z-0.1 F120
G01 X38.18 Y15.08 Z-0.1 F120
G01 X38.2 Y15.08 Z-0.1 F120
G01 X38.22 Y15.08 Z-0.1 F120
G01 X38.24 Y15.08 Z-0.1 F120
G01 X38.24 Y15.1 Z-0.1 F120
G01 X38.26 Y15.1 Z-0.1 F120
G01 X38.28 Y15.1 Z-0.1 F120
G01 X38.3 Y15.1 Z-0.1 F120
G01 X38.32 Y15.1 Z-0.1 F120
G01 X38.32 Y15.12 Z-0.1 F120
G01 X38.34 Y15.12 Z-0.1 F120
G01 X38.36 Y15.12 Z-0.1 F120
G01 X38.36 Y15.14 Z-0.1 F120
G01 X38.38 Y15.14 Z-0.1 F120
G01 X38.38 Y15.16 Z-0.1 F120
G01 X38.4 Y15.16 Z-0.1 F120
G01 X38.4 Y15.18 Z-0.1 F120
G01 X38.42 Y15.18 Z-0.1 F120
G01 X38.42 Y15.2 Z-0.1 F120
G01 X38.44 Y15.2 Z-0.1 F120
G01 X38.44 Y15.22 Z-0.1 F120
G01 X38.44 Y15.24 Z-0.1 F120
G01 X38.46 Y15.24 Z-0.1 F120
G01 X38.46 Y15.26 Z-0.1 F120
G01 X38.46 Y15.28 Z-0.1 F120
G01 X38.48 Y15.28 Z-0.1 F120
G01 X38.48 Y15.3 Z-0.1 F120
G01 X38.48 Y15.32 Z-0.1 F120
G01 X38.48 Y15.34 Z-0.1 F120
G01 X38.5 Y15.34 Z-0.1 F120
G01 X38.5 Y15.36 Z-0.1 F120
G01 X38.5 Y15.38 Z-0.1 F120
G01 X38.5 Y15.4 Z-0.1 F120
G01 X38.5 Y15.42 Z-0.1 F120
G01 X38.5 Y15.44 Z-0.1 F120
G01 X38.5 Y15.46 Z-0.1 F120
G01 X38.5 Y15.48 Z-0.1 F120
G01 X38.5 Y15.5 Z-0.1 F120
G01 X38.5 Y15.52 Z-0.1 F120
G01 X38.5 Y15.54 Z-0.1 F120
G01 X38.5 Y15.56 Z-0.1 F120
G01 X38.5 Y15.58 Z-0.1 F120
G01 X38.5 Y15.6 Z-0.1 F120
G01 X38.5 Y15.62 Z-0.1 F120
G01 X38.48 Y15.62 Z-0.1 F120
G01 X38.48 Y15.64 Z-0.1 F120
G01 X38.48 Y15.66 Z-0.1 F120
G01 X38.48 Y15.68 Z-0.1 F120
G01 X38.48 Y15.7 Z-0.1 F120
G01 X38.46 Y15.7 Z-0.1 F120
G01 X38.46 Y15.72 Z-0.1 F120
G01 X38.46 Y15.74 Z-0.1 F120
G01 X38.44 Y15.74 Z-0.1 F120
G01 X38.44 Y15.76 Z-0.1 F120
G01 X38.44 Y15.78 Z-0.1 F120
G01 X38.42 Y15.78 Z-0.1 F120
G01 X38.42 Y15.8 Z-0.1 F120
G01 X38.4 Y15.8 Z-0.1 F120
G01 X38.38 Y15.8 Z-0.1 F120
G01 X38.38 Y15.82 Z-0.1 F120
G01 X38.36 Y15.82 Z-0.1 F120
G01 X38.36 Y15.84 Z-0.1 F120
G01 X38.34 Y15.84 Z-0.1 F120
G01 X38.32 Y15.84 Z-0.1 F120
G01 X38.32 Y15.86 Z-0.1 F120
G01 X38.3 Y15.86 Z-0.1 F120
G01 X38.28 Y15.86 Z-0.1 F120
G01 X38.28 Y15.88 Z-0.1 F120
G01 X38.26 Y15.88 Z-0.1 F120
G01 X38.24 Y15.88 Z-0.1 F120
G01 X38.24 Y15.9 Z-0.1 F120
G01 X38.22 Y15.9 Z-0.1 F120
G01 X38.2 Y15.9 Z-0.1 F120
G01 X38.18 Y15.9 Z-0.1 F120
G01 X38.16 Y15.9 Z-0.1 F120
G01 X38.14 Y15.9 Z-0.1 F120
G01 X38.12 Y15.9 Z-0.1 F120
G01 X38.1 Y15.9 Z-0.1 F120
G01 X38.08 Y15.9 Z-0.1 F120
G01 X38.06 Y15.9 Z-0.1 F120
G01 X38.06 Y15.92 Z-0.1 F120
G01 X38.06 Y15.94 Z-0.1 F120
G01 X38.06 Y15.96 Z-0.1 F120
G01 X38.06 Y15.98 Z-0.1 F120
G01 X38.06 Y16.0 Z-0.1 F120
G01 X38.06 Y16.02 Z-0.1 F120
G01 X38.06 Y16.04 Z-0.1 F120
G01 X38.06 Y16.06 Z-0.1 F120
G01 X38.06 Y16.08 Z-0.1 F120
G01 X38.06 Y16.1 Z-0.1 F120
G01 X38.06 Y16.12 Z-0.1 F120
G01 X38.06 Y16.14 Z-0.1 F120
G01 X38.06 Y16.16 Z-0.1 F120
G01 X38.06 Y16.18 Z-0.1 F120
G01 X38.06 Y16.2 Z-0.1 F120
G01 X38.06 Y16.22 Z-0.1 F120
G01 X38.06 Y16.24 Z-0.1 F120
G01 X38.06 Y16.26 Z-0.1 F120
G01 X38.06 Y16.28 Z-0.1 F120
G01 X38.06 Y16.3 Z-0.1 F120
G01 X38.06 Y16.32 Z-0.1 F120
G01 X38.06 Y16.34 Z-0.1 F120
G01 X38.06 Y16.36 Z-0.1 F120
G01 X38.06 Y16.38 Z-0.1 F120
G01 X38.06 Y16.4 Z-0.1 F120
G01 X38.06 Y16.42 Z-0.1 F120
G01 X38.06 Y16.44 Z-0.1 F120
G01 X38.06 Y16.46 Z-0.1 F120
G01 X38.06 Y16.48 Z-0.1 F120
G01 X38.06 Y16.5 Z-0.1 F120
G01 X38.06 Y16.52 Z-0.1 F120
G01 X38.06 Y16.54 Z-0.1 F120
G01 X38.06 Y16.56 Z-0.1 F120
G01 X38.06 Y16.58 Z-0.1 F120
G01 X38.06 Y16.6 Z-0.1 F120
G01 X38.06 Y16.62 Z-0.1 F120
G01 X38.06 Y16.64 Z-0.1 F120
G01 X38.06 Y16.66 Z-0.1 F120
G01 X38.06 Y16.68 Z-0.1 F120
G01 X38.06 Y16.7 Z-0.1 F120
G01 X38.06 Y16.72 Z-0.1 F120
G01 X38.06 Y16.74 Z-0.1 F120
G01 X38.06 Y16.76 Z-0.1 F120
G01 X38.06 Y16.78 Z-0.1 F120
G01 X38.06 Y16.8 Z-0.1 F120
G01 X38.06 Y16.82 Z-0.1 F120
G01 X38.06 Y16.84 Z-0.1 F120
G01 X38.06 Y16.86 Z-0.1 F120
G01 X38.06 Y16.88 Z-0.1 F120
G01 X38.06 Y16.9 Z-0.1 F120
G01 X38.06 Y16.92 Z-0.1 F120
G01 X38.06 Y16.94 Z-0.1 F120
G01 X38.06 Y16.96 Z-0.1 F120
G01 X38.06 Y16.98 Z-0.1 F120
G01 X38.06 Y17.0 Z-0.1 F120
G01 X38.06 Y17.02 Z-0.1 F120
G01 X38.06 Y17.04 Z-0.1 F120
G01 X38.06 Y17.06 Z-0.1 F120
G01 X38.06 Y17.08 Z-0.1 F120
G01 X38.06 Y17.1 Z-0.1 F120
G01 X38.06 Y17.12 Z-0.1 F120
G01 X38.06 Y17.14 Z-0.1 F120
G01 X38.06 Y17.16 Z-0.1 F120
G01 X38.06 Y17.18 Z-0.1 F120
G01 X38.06 Y17.2 Z-0.1 F120
G01 X38.06 Y17.22 Z-0.1 F120
G01 X38.06 Y17.24 Z-0.1 F120
G01 X38.06 Y17.26 Z-0.1 F120
G01 X38.06 Y17.28 Z-0.1 F120
G01 X38.06 Y17.3 Z-0.1 F120
G01 X38.06 Y17.32 Z-0.1 F120
G01 X38.06 Y17.34 Z-0.1 F120
G01 X38.06 Y17.36 Z-0.1 F120
G01 X38.08 Y17.36 Z-0.1 F120
G01 X38.1 Y17.36 Z-0.1 F120
G01 X38.12 Y17.36 Z-0.1 F120
G01 X38.12 Y17.38 Z-0.1 F120
G01 X38.14 Y17.38 Z-0.1 F120
G01 X38.16 Y17.38 Z-0.1 F120
G01 X38.16 Y17.4 Z-0.1 F120
G01 X38.18 Y17.4 Z-0.1 F120
G01 X38.2 Y17.4 Z-0.1 F120
G01 X38.2 Y17.42 Z-0.1 F120
G01 X38.22 Y17.42 Z-0.1 F120
G01 X38.22 Y17.44 Z-0.1 F120
G01 X38.24 Y17.44 Z-0.1 F120
G01 X38.26 Y17.44 Z-0.1 F120
G01 X38.26 Y17.46 Z-0.1 F120
G01 X38.28 Y17.46 Z-0.1 F120
G01 X38.28 Y17.48 Z-0.1 F120
G01 X38.28 Y17.5 Z-0.1 F120
G01 X38.3 Y17.5 Z-0.1 F120
G01 X38.3 Y17.52 Z-0.1 F120
G01 X38.32 Y17.52 Z-0.1 F120
G01 X38.32 Y17.54 Z-0.1 F120
G01 X38.32 Y17.56 Z-0.1 F120
G01 X38.34 Y17.56 Z-0.1 F120
G01 X38.34 Y17.58 Z-0.1 F120
G01 X38.34 Y17.6 Z-0.1 F120
G01 X38.36 Y17.6 Z-0.1 F120
G01 X38.36 Y17.62 Z-0.1 F120
G01 X38.36 Y17.64 Z-0.1 F120
G01 X38.36 Y17.66 Z-0.1 F120
G01 X38.36 Y17.68 Z-0.1 F120
G01 X38.36 Y17.7 Z-0.1 F120
G01 X38.36 Y17.72 Z-0.1 F120
G01 X38.36 Y17.74 Z-0.1 F120
G01 X38.36 Y17.76 Z-0.1 F120
G01 X38.36 Y17.78 Z-0.1 F120
G01 X38.36 Y17.8 Z-0.1 F120
G01 X38.36 Y17.82 Z-0.1 F120
G01 X38.36 Y17.84 Z-0.1 F120
G01 X38.36 Y17.86 Z-0.1 F120
G01 X38.36 Y17.88 Z-0.1 F120
G01 X38.36 Y17.9 Z-0.1 F120
G01 X38.36 Y17.92 Z-0.1 F120
G01 X38.36 Y17.94 Z-0.1 F120
G01 X38.36 Y17.96 Z-0.1 F120
G01 X38.34 Y17.96 Z-0.1 F120
G01 X38.34 Y17.98 Z-0.1 F120
G01 X38.32 Y17.98 Z-0.1 F120
G01 X38.32 Y18.0 Z-0.1 F120
G01 X38.32 Y18.02 Z-0.1 F120
G01 X38.3 Y18.02 Z-0.1 F120
G01 X38.3 Y18.04 Z-0.1 F120
G01 X38.3 Y18.06 Z-0.1 F120
G01 X38.28 Y18.06 Z-0.1 F120
G01 X38.28 Y18.08 Z-0.1 F120
G01 X38.26 Y18.08 Z-0.1 F120
G01 X38.26 Y18.1 Z-0.1 F120
G01 X38.26 Y18.12 Z-0.1 F120
G01 X38.24 Y18.12 Z-0.1 F120
G01 X38.22 Y18.12 Z-0.1 F120
G01 X38.22 Y18.14 Z-0.1 F120
G01 X38.2 Y18.14 Z-0.1 F120
G01 X38.2 Y18.16 Z-0.1 F120
G01 X38.18 Y18.16 Z-0.1 F120
G01 X38.16 Y18.16 Z-0.1 F120
G01 X38.14 Y18.16 Z-0.1 F120
G01 X38.12 Y18.16 Z-0.1 F120
G01 X38.12 Y18.18 Z-0.1 F120
G01 X38.1 Y18.18 Z-0.1 F120
G01 X38.08 Y18.18 Z-0.1 F120
G01 X38.06 Y18.18 Z-0.1 F120
G01 X38.04 Y18.18 Z-0.1 F120
G01 X38.02 Y18.18 Z-0.1 F120
G01 X38.0 Y18.18 Z-0.1 F120
G01 X37.98 Y18.18 Z-0.1 F120
G01 X37.96 Y18.18 Z-0.1 F120
G01 X37.94 Y18.18 Z-0.1 F120
G01 X37.92 Y18.18 Z-0.1 F120
G01 X37.9 Y18.18 Z-0.1 F120
G01 X37.88 Y18.18 Z-0.1 F120
G01 X37.86 Y18.18 Z-0.1 F120
G01 X37.84 Y18.18 Z-0.1 F120
G01 X37.82 Y18.18 Z-0.1 F120
G01 X37.8 Y18.18 Z-0.1 F120
G01 X37.8 Y18.16 Z-0.1 F120
G01 X37.78 Y18.16 Z-0.1 F120
G01 X37.76 Y18.16 Z-0.1 F120
G01 X37.74 Y18.16 Z-0.1 F120
G01 X37.72 Y18.16 Z-0.1 F120
G01 X37.72 Y18.14 Z-0.1 F120
G01 X37.7 Y18.14 Z-0.1 F120
G01 X37.7 Y18.12 Z-0.1 F120
G01 X37.68 Y18.12 Z-0.1 F120
G01 X37.66 Y18.12 Z-0.1 F120
G01 X37.66 Y18.1 Z-0.1 F120
G01 X37.66 Y18.08 Z-0.1 F120
G01 X37.64 Y18.08 Z-0.1 F120
G01 X37.64 Y18.06 Z-0.1 F120
G01 X37.62 Y18.06 Z-0.1 F120
G01 X37.6 Y18.06 Z-0.1 F120
G01 X37.6 Y18.04 Z-0.1 F120
G01 X37.6 Y18.02 Z-0.1 F120
G01 X37.58 Y18.02 Z-0.1 F120
G01 X37.58 Y18.0 Z-0.1 F120
G01 X37.58 Y17.98 Z-0.1 F120
G01 X37.56 Y17.98 Z-0.1 F120
G01 X37.56 Y17.96 Z-0.1 F120
G01 X37.56 Y17.94 Z-0.1 F120
G01 X37.56 Y17.92 Z-0.1 F120
G01 X37.56 Y17.9 Z-0.1 F120
G01 X37.56 Y17.88 Z-0.1 F120
G01 X37.54 Y17.88 Z-0.1 F120
G01 X37.54 Y17.86 Z-0.1 F120
G01 X37.54 Y17.84 Z-0.1 F120
G01 X37.54 Y17.82 Z-0.1 F120
G01 X37.54 Y17.8 Z-0.1 F120
G01 X37.54 Y17.78 Z-0.1 F120
G01 X37.54 Y17.76 Z-0.1 F120
G01 X37.54 Y17.74 Z-0.1 F120
G01 X37.54 Y17.72 Z-0.1 F120
G01 X37.54 Y17.7 Z-0.1 F120
G01 X37.54 Y17.68 Z-0.1 F120
G01 X37.56 Y17.68 Z-0.1 F120
G01 X37.56 Y17.66 Z-0.1 F120
G01 X37.56 Y17.64 Z-0.1 F120
G01 X37.56 Y17.62 Z-0.1 F120
G01 X37.56 Y17.6 Z-0.1 F120
G01 X37.56 Y17.58 Z-0.1 F120
G01 X37.56 Y17.56 Z-0.1 F120
G01 X37.58 Y17.56 Z-0.1 F120
G01 X37.58 Y17.54 Z-0.1 F120
G01 X37.58 Y17.52 Z-0.1 F120
G01 X37.6 Y17.52 Z-0.1 F120
G01 X37.6 Y17.5 Z-0.1 F120
G01 X37.62 Y17.5 Z-0.1 F120
G01 X37.62 Y17.48 Z-0.1 F120
G01 X37.64 Y17.48 Z-0.1 F120
G01 X37.64 Y17.46 Z-0.1 F120
G01 X37.66 Y17.46 Z-0.1 F120
G01 X37.66 Y17.44 Z-0.1 F120
G01 X37.68 Y17.44 Z-0.1 F120
G01 X37.7 Y17.44 Z-0.1 F120
G01 X37.7 Y17.42 Z-0.1 F120
G01 X37.72 Y17.42 Z-0.1 F120
G01 X37.72 Y17.4 Z-0.1 F120
G01 X37.74 Y17.4 Z-0.1 F120
G01 X37.76 Y17.4 Z-0.1 F120
G01 X37.76 Y17.38 Z-0.1 F120
G01 X37.78 Y17.38 Z-0.1 F120
G01 X37.8 Y17.38 Z-0.1 F120
G01 X37.8 Y17.36 Z-0.1 F120
G01 X37.82 Y17.36 Z-0.1 F120
G01 X37.84 Y17.36 Z-0.1 F120
G01 X37.86 Y17.36 Z-0.1 F120
G01 X37.86 Y17.34 Z-0.1 F120
G01 X37.86 Y17.32 Z-0.1 F120
G01 X37.86 Y17.3 Z-0.1 F120
G01 X37.86 Y17.28 Z-0.1 F120
G01 X37.86 Y17.26 Z-0.1 F120
G01 X37.86 Y17.24 Z-0.1 F120
G01 X37.86 Y17.22 Z-0.1 F120
G01 X37.86 Y17.2 Z-0.1 F120
G01 X37.86 Y17.18 Z-0.1 F120
G01 X37.86 Y17.16 Z-0.1 F120
G01 X37.86 Y17.14 Z-0.1 F120
G01 X37.86 Y17.12 Z-0.1 F120
G01 X37.86 Y17.1 Z-0.1 F120
G01 X37.86 Y17.08 Z-0.1 F120
G01 X37.86 Y17.06 Z-0.1 F120
G01 X37.86 Y17.04 Z-0.1 F120
G01 X37.86 Y17.02 Z-0.1 F120
G01 X37.86 Y17.0 Z-0.1 F120
G01 X37.86 Y16.98 Z-0.1 F120
G01 X37.86 Y16.96 Z-0.1 F120
G01 X37.86 Y16.94 Z-0.1 F120
G01 X37.86 Y16.92 Z-0.1 F120
G01 X37.86 Y16.9 Z-0.1 F120
G01 X37.86 Y16.88 Z-0.1 F120
G01 X37.86 Y16.86 Z-0.1 F120
G01 X37.86 Y16.84 Z-0.1 F120
G01 X37.86 Y16.82 Z-0.1 F120
G01 X37.86 Y16.8 Z-0.1 F120
G01 X37.86 Y16.78 Z-0.1 F120
G01 X37.86 Y16.76 Z-0.1 F120
G01 X37.86 Y16.74 Z-0.1 F120
G01 X37.86 Y16.72 Z-0.1 F120
G01 X37.86 Y16.7 Z-0.1 F120
G01 X37.86 Y16.68 Z-0.1 F120
G01 X37.86 Y16.66 Z-0.1 F120
G01 X37.86 Y16.64 Z-0.1 F120
G01 X37.86 Y16.62 Z-0.1 F120
G01 X37.86 Y16.6 Z-0.1 F120
G01 X37.86 Y16.58 Z-0.1 F120
G01 X37.86 Y16.56 Z-0.1 F120
G01 X37.86 Y16.54 Z-0.1 F120
G01 X37.86 Y16.52 Z-0.1 F120
G01 X37.86 Y16.5 Z-0.1 F120
G01 X37.86 Y16.48 Z-0.1 F120
G01 X37.86 Y16.46 Z-0.1 F120
G01 X37.86 Y16.44 Z-0.1 F120
G01 X37.86 Y16.42 Z-0.1 F120
G01 X37.86 Y16.4 Z-0.1 F120
G01 X37.86 Y16.38 Z-0.1 F120
G01 X37.86 Y16.36 Z-0.1 F120
G01 X37.86 Y16.34 Z-0.1 F120
G01 X37.86 Y16.32 Z-0.1 F120
G01 X37.86 Y16.3 Z-0.1 F120
G01 X37.86 Y16.28 Z-0.1 F120
G01 X37.86 Y16.26 Z-0.1 F120
G01 X37.86 Y16.24 Z-0.1 F120
G01 X37.86 Y16.22 Z-0.1 F120
G01 X37.86 Y16.2 Z-0.1 F120
G01 X37.86 Y16.18 Z-0.1 F120
G01 X37.86 Y16.16 Z-0.1 F120
G01 X37.86 Y16.14 Z-0.1 F120
G01 X37.86 Y16.12 Z-0.1 F120
G01 X37.86 Y16.1 Z-0.1 F120
G01 X37.86 Y16.08 Z-0.1 F120
G01 X37.86 Y16.06 Z-0.1 F120
G01 X37.86 Y16.04 Z-0.1 F120
G01 X37.86 Y16.02 Z-0.1 F120
G01 X37.86 Y16.0 Z-0.1 F120
G01 X37.86 Y15.98 Z-0.1 F120
G01 X37.86 Y15.96 Z-0.1 F120
G01 X37.86 Y15.94 Z-0.1 F120
G01 X37.86 Y15.92 Z-0.1 F120
G01 X37.86 Y15.9 Z-0.1 F120
G01 X37.86 Y15.88 Z-0.1 F120
G01 X37.86 Y15.86 Z-0.1 F120
G01 X37.86 Y15.84 Z-0.1 F120
G01 X37.84 Y15.84 Z-0.1 F120
G01 X37.82 Y15.84 Z-0.1 F120
G01 X37.82 Y15.82 Z-0.1 F120
G01 X37.8 Y15.82 Z-0.1 F120
G01 X37.78 Y15.82 Z-0.1 F120
G01 X37.78 Y15.8 Z-0.1 F120
G01 X37.76 Y15.8 Z-0.1 F120
G01 X37.76 Y15.78 Z-0.1 F120
G01 X37.74 Y15.78 Z-0.1 F120
G01 X37.74 Y15.76 Z-0.1 F120
G01 X37.74 Y15.74 Z-0.1 F120
G01 X37.72 Y15.74 Z-0.1 F120
G01 X37.72 Y15.72 Z-0.1 F120
G01 X37.72 Y15.7 Z-0.1 F120
G01 X37.7 Y15.7 Z-0.1 F120
G01 X37.7 Y15.68 Z-0.1 F120
G01 X37.7 Y15.66 Z-0.1 F120
G01 X37.68 Y15.66 Z-0.1 F120
G01 X37.68 Y15.64 Z-0.1 F120
G01 X37.68 Y15.62 Z-0.1 F120
G01 X37.68 Y15.6 Z-0.1 F120
G01 X37.68 Y15.58 Z-0.1 F120
G01 X37.68 Y15.56 Z-0.1 F120
G01 X37.68 Y15.54 Z-0.1 F120
G01 X37.68 Y15.52 Z-0.1 F120
G01 X37.68 Y15.5 Z-0.1 F120
G01 X37.68 Y15.48 Z-0.1 F120
G01 X37.68 Y15.46 Z-0.1 F120
G01 X37.68 Y15.44 Z-0.1 F120
G01 X37.68 Y15.42 Z-0.1 F120
G01 X37.68 Y15.4 Z-0.1 F120
G01 X37.68 Y15.38 Z-0.1 F120
G01 X37.68 Y15.36 Z-0.1 F120
G01 X37.68 Y15.34 Z-0.1 F120
G01 X37.68 Y15.32 Z-0.1 F120
G01 X37.7 Y15.32 Z-0.1 F120
G01 X37.7 Y15.3 Z-0.1 F120
G01 X37.7 Y15.28 Z-0.1 F120
G01 X37.72 Y15.28 Z-0.1 F120
G01 X37.72 Y15.26 Z-0.1 F120
G01 X37.72 Y15.24 Z-0.1 F120
G01 X37.74 Y15.24 Z-0.1 F120
G01 X37.74 Y15.22 Z-0.1 F120
G01 X37.74 Y15.2 Z-0.1 F120
G01 X37.76 Y15.2 Z-0.1 F120
G01 X37.76 Y15.18 Z-0.1 F120
G01 X37.78 Y15.18 Z-0.1 F120
G01 X37.78 Y15.16 Z-0.1 F120
G01 X37.78 Y15.14 Z-0.1 F120
G01 X37.8 Y15.14 Z-0.1 F120
G01 X37.82 Y15.14 Z-0.1 F120
G01 X37.82 Y15.12 Z-0.1 F120
G01 X37.84 Y15.12 Z-0.1 F120
G01 X37.86 Y15.12 Z-0.1 F120
G01 X37.86 Y15.1 Z-0.1 F120
G01 X37.88 Y15.1 Z-0.1 F120
G01 X37.9 Y15.1 Z-0.1 F120
G01 X37.92 Y15.1 Z-0.1 F120
G01 X37.92 Y15.08 Z-0.1 F120
M05
G00 X37.92 Y15.08 Z3 F1500
G00 X36.96 Y14.76 Z3 F1500
M03 S18000
G01 X36.96 Y14.76 Z-0.1 F120
G01 X36.98 Y14.76 Z-0.1 F120
G01 X37.0 Y14.76 Z-0.1 F120
G01 X37.02 Y14.76 Z-0.1 F120
G01 X37.04 Y14.76 Z-0.1 F120
G01 X37.06 Y14.76 Z-0.1 F120
G01 X37.08 Y14.76 Z-0.1 F120
G01 X37.1 Y14.76 Z-0.1 F120
G01 X37.12 Y14.76 Z-0.1 F120
G01 X37.14 Y14.76 Z-0.1 F120
G01 X37.16 Y14.76 Z-0.1 F120
G01 X37.18 Y14.76 Z-0.1 F120
G01 X37.2 Y14.76 Z-0.1 F120
G01 X37.22 Y14.76 Z-0.1 F120
G01 X37.24 Y14.76 Z-0.1 F120
G01 X37.26 Y14.76 Z-0.1 F120
G01 X37.28 Y14.76 Z-0.1 F120
G01 X37.3 Y14.76 Z-0.1 F120
G01 X37.32 Y14.76 Z-0.1 F120
G01 X37.34 Y14.76 Z-0.1 F120
G01 X37.36 Y14.76 Z-0.1 F120
G01 X37.38 Y14.76 Z-0.1 F120
G01 X37.4 Y14.76 Z-0.1 F120
G01 X37.42 Y14.76 Z-0.1 F120
G01 X37.44 Y14.76 Z-0.1 F120
G01 X37.46 Y14.76 Z-0.1 F120
G01 X37.48 Y14.76 Z-0.1 F120
G01 X37.5 Y14.76 Z-0.1 F120
G01 X37.52 Y14.76 Z-0.1 F120
G01 X37.54 Y14.76 Z-0.1 F120
G01 X37.56 Y14.76 Z-0.1 F120
G01 X37.58 Y14.76 Z-0.1 F120
G01 X37.6 Y14.76 Z-0.1 F120
G01 X37.62 Y14.76 Z-0.1 F120
G01 X37.64 Y14.76 Z-0.1 F120
G01 X37.66 Y14.76 Z-0.1 F120
G01 X37.68 Y14.76 Z-0.1 F120
G01 X37.7 Y14.76 Z-0.1 F120
G01 X37.72 Y14.76 Z-0.1 F120
G01 X37.74 Y14.76 Z-0.1 F120
G01 X37.76 Y14.76 Z-0.1 F120
G01 X37.78 Y14.76 Z-0.1 F120
G01 X37.8 Y14.76 Z-0.1 F120
G01 X37.82 Y14.76 Z-0.1 F120
G01 X37.84 Y14.76 Z-0.1 F120
G01 X37.86 Y14.76 Z-0.1 F120
G01 X37.88 Y14.76 Z-0.1 F120
G01 X37.9 Y14.76 Z-0.1 F120
G01 X37.92 Y14.76 Z-0.1 F120
G01 X37.94 Y14.76 Z-0.1 F120
G01 X37.96 Y14.76 Z-0.1 F120
G01 X37.98 Y14.76 Z-0.1 F120
G01 X38.0 Y14.76 Z-0.1 F120
G01 X38.02 Y14.76 Z-0.1 F120
G01 X38.04 Y14.76 Z-0.1 F120
G01 X38.06 Y14.76 Z-0.1 F120
G01 X38.08 Y14.76 Z-0.1 F120
G01 X38.1 Y14.76 Z-0.1 F120
G01 X38.12 Y14.76 Z-0.1 F120
G01 X38.14 Y14.76 Z-0.1 F120
G01 X38.16 Y14.76 Z-0.1 F120
G01 X38.18 Y14.76 Z-0.1 F120
G01 X38.2 Y14.76 Z-0.1 F120
G01 X38.22 Y14.76 Z-0.1 F120
G01 X38.24 Y14.76 Z-0.1 F120
G01 X38.26 Y14.76 Z-0.1 F120
G01 X38.28 Y14.76 Z-0.1 F120
G01 X38.3 Y14.76 Z-0.1 F120
G01 X38.32 Y14.76 Z-0.1 F120
G01 X38.34 Y14.76 Z-0.1 F120
G01 X38.36 Y14.76 Z-0.1 F120
G01 X38.38 Y14.76 Z-0.1 F120
G01 X38.4 Y14.76 Z-0.1 F120
G01 X38.42 Y14.76 Z-0.1 F120
G01 X38.44 Y14.76 Z-0.1 F120
G01 X38.46 Y14.76 Z-0.1 F120
G01 X38.48 Y14.76 Z-0.1 F120
G01 X38.5 Y14.76 Z-0.1 F120
G01 X38.52 Y14.76 Z-0.1 F120
G01 X38.54 Y14.76 Z-0.1 F120
G01 X38.56 Y14.76 Z-0.1 F120
G01 X38.58 Y14.76 Z-0.1 F120
G01 X38.6 Y14.76 Z-0.1 F120
G01 X38.62 Y14.76 Z-0.1 F120
G01 X38.64 Y14.76 Z-0.1 F120
G01 X38.66 Y14.76 Z-0.1 F120
G01 X38.68 Y14.76 Z-0.1 F120
G01 X38.7 Y14.76 Z-0.1 F120
G01 X38.72 Y14.76 Z-0.1 F120
G01 X38.74 Y14.76 Z-0.1 F120
G01 X38.76 Y14.76 Z-0.1 F120
G01 X38.78 Y14.76 Z-0.1 F120
G01 X38.8 Y14.76 Z-0.1 F120
G01 X38.82 Y14.76 Z-0.1 F120
G01 X38.84 Y14.76 Z-0.1 F120
G01 X38.86 Y14.76 Z-0.1 F120
G01 X38.88 Y14.76 Z-0.1 F120
G01 X38.9 Y14.76 Z-0.1 F120
G01 X38.92 Y14.76 Z-0.1 F120
G01 X38.94 Y14.76 Z-0.1 F120
G01 X38.96 Y14.76 Z-0.1 F120
G01 X38.98 Y14.76 Z-0.1 F120
G01 X39.0 Y14.76 Z-0.1 F120
G01 X39.02 Y14.76 Z-0.1 F120
G01 X39.04 Y14.76 Z-0.1 F120
G01 X39.06 Y14.76 Z-0.1 F120
G01 X39.08 Y14.76 Z-0.1 F120
G01 X39.1 Y14.76 Z-0.1 F120
G01 X39.12 Y14.76 Z-0.1 F120
G01 X39.14 Y14.76 Z-0.1 F120
G01 X39.16 Y14.76 Z-0.1 F120
G01 X39.18 Y14.76 Z-0.1 F120
G01 X39.2 Y14.76 Z-0.1 F120
G01 X39.22 Y14.76 Z-0.1 F120
G01 X39.24 Y14.76 Z-0.1 F120
G01 X39.26 Y14.76 Z-0.1 F120
G01 X39.28 Y14.76 Z-0.1 F120
G01 X39.3 Y14.76 Z-0.1 F120
G01 X39.32 Y14.76 Z-0.1 F120
G01 X39.34 Y14.76 Z-0.1 F120
G01 X39.36 Y14.76 Z-0.1 F120
G01 X39.38 Y14.76 Z-0.1 F120
G01 X39.4 Y14.76 Z-0.1 F120
G01 X39.42 Y14.76 Z-0.1 F120
G01 X39.44 Y14.76 Z-0.1 F120
G01 X39.46 Y14.76 Z-0.1 F120
G01 X39.48 Y14.76 Z-0.1 F120
G01 X39.5 Y14.76 Z-0.1 F120
G01 X39.52 Y14.76 Z-0.1 F120
G01 X39.54 Y14.76 Z-0.1 F120
G01 X39.56 Y14.76 Z-0.1 F120
G01 X39.58 Y14.76 Z-0.1 F120
G01 X39.6 Y14.76 Z-0.1 F120
G01 X39.62 Y14.76 Z-0.1 F120
G01 X39.64 Y14.76 Z-0.1 F120
G01 X39.66 Y14.76 Z-0.1 F120
G01 X39.68 Y14.76 Z-0.1 F120
G01 X39.7 Y14.76 Z-0.1 F120
G01 X39.72 Y14.76 Z-0.1 F120
G01 X39.74 Y14.76 Z-0.1 F120
G01 X39.76 Y14.76 Z-0.1 F120
G01 X39.78 Y14.76 Z-0.1 F120
G01 X39.8 Y14.76 Z-0.1 F120
G01 X39.82 Y14.76 Z-0.1 F120
G01 X39.84 Y14.76 Z-0.1 F120
G01 X39.86 Y14.76 Z-0.1 F120
G01 X39.88 Y14.76 Z-0.1 F120
G01 X39.9 Y14.76 Z-0.1 F120
G01 X39.92 Y14.76 Z-0.1 F120
G01 X39.94 Y14.76 Z-0.1 F120
G01 X39.96 Y14.76 Z-0.1 F120
G01 X39.98 Y14.76 Z-0.1 F120
G01 X40.0 Y14.76 Z-0.1 F120
G01 X40.02 Y14.76 Z-0.1 F120
G01 X40.04 Y14.76 Z-0.1 F120
G01 X40.06 Y14.76 Z-0.1 F120
G01 X40.08 Y14.76 Z-0.1 F120
G01 X40.1 Y14.76 Z-0.1 F120
G01 X40.12 Y14.76 Z-0.1 F120
G01 X40.14 Y14.76 Z-0.1 F120
G01 X40.16 Y14.76 Z-0.1 F120
G01 X40.18 Y14.76 Z-0.1 F120
G01 X40.2 Y14.76 Z-0.1 F120
G01 X40.22 Y14.76 Z-0.1 F120
G01 X40.24 Y14.76 Z-0.1 F120
G01 X40.26 Y14.76 Z-0.1 F120
G01 X40.28 Y14.76 Z-0.1 F120
G01 X40.3 Y14.76 Z-0.1 F120
G01 X40.32 Y14.76 Z-0.1 F120
G01 X40.34 Y14.76 Z-0.1 F120
G01 X40.36 Y14.76 Z-0.1 F120
G01 X40.38 Y14.76 Z-0.1 F120
G01 X40.4 Y14.76 Z-0.1 F120
G01 X40.42 Y14.76 Z-0.1 F120
G01 X40.44 Y14.76 Z-0.1 F120
G01 X40.46 Y14.76 Z-0.1 F120
G01 X40.48 Y14.76 Z-0.1 F120
G01 X40.5 Y14.76 Z-0.1 F120
G01 X40.52 Y14.76 Z-0.1 F120
G01 X40.54 Y14.76 Z-0.1 F120
G01 X40.56 Y14.76 Z-0.1 F120
G01 X40.58 Y14.76 Z-0.1 F120
G01 X40.6 Y14.76 Z-0.1 F120
G01 X40.62 Y14.76 Z-0.1 F120
G01 X40.64 Y14.76 Z-0.1 F120
G01 X40.66 Y14.76 Z-0.1 F120
G01 X40.68 Y14.76 Z-0.1 F120
G01 X40.7 Y14.76 Z-0.1 F120
G01 X40.72 Y14.76 Z-0.1 F120
G01 X40.74 Y14.76 Z-0.1 F120
G01 X40.76 Y14.76 Z-0.1 F120
G01 X40.78 Y14.76 Z-0.1 F120
G01 X40.8 Y14.76 Z-0.1 F120
G01 X40.82 Y14.76 Z-0.1 F120
G01 X40.84 Y14.76 Z-0.1 F120
G01 X40.86 Y14.76 Z-0.1 F120
G01 X40.88 Y14.76 Z-0.1 F120
G01 X40.9 Y14.76 Z-0.1 F120
G01 X40.92 Y14.76 Z-0.1 F120
G01 X40.94 Y14.76 Z-0.1 F120
G01 X40.96 Y14.76 Z-0.1 F120
G01 X40.98 Y14.76 Z-0.1 F120
G01 X40.98 Y14.78 Z-0.1 F120
G01 X40.98 Y14.8 Z-0.1 F120
G01 X40.98 Y14.82 Z-0.1 F120
G01 X40.98 Y14.84 Z-0.1 F120
G01 X40.98 Y14.86 Z-0.1 F120
G01 X40.98 Y14.88 Z-0.1 F120
G01 X40.98 Y14.9 Z-0.1 F120
G01 X40.98 Y14.92 Z-0.1 F120
G01 X40.98 Y14.94 Z-0.1 F120
G01 X40.98 Y14.96 Z-0.1 F120
G01 X40.98 Y14.98 Z-0.1 F120
G01 X40.98 Y15.0 Z-0.1 F120
G01 X40.98 Y15.02 Z-0.1 F120
G01 X40.98 Y15.04 Z-0.1 F120
G01 X40.98 Y15.06 Z-0.1 F120
G01 X40.98 Y15.08 Z-0.1 F120
G01 X40.98 Y15.1 Z-0.1 F120
G01 X40.98 Y15.12 Z-0.1 F120
G01 X40.98 Y15.14 Z-0.1 F120
G01 X40.98 Y15.16 Z-0.1 F120
G01 X40.98 Y15.18 Z-0.1 F120
G01 X40.98 Y15.2 Z-0.1 F120
G01 X40.98 Y15.22 Z-0.1 F120
G01 X40.98 Y15.24 Z-0.1 F120
G01 X40.98 Y15.26 Z-0.1 F120
G01 X40.98 Y15.28 Z-0.1 F120
G01 X40.98 Y15.3 Z-0.1 F120
G01 X40.98 Y15.32 Z-0.1 F120
G01 X40.98 Y15.34 Z-0.1 F120
G01 X40.98 Y15.36 Z-0.1 F120
G01 X40.98 Y15.38 Z-0.1 F120
G01 X40.98 Y15.4 Z-0.1 F120
G01 X40.98 Y15.42 Z-0.1 F120
G01 X40.98 Y15.44 Z-0.1 F120
G01 X40.98 Y15.46 Z-0.1 F120
G01 X40.98 Y15.48 Z-0.1 F120
G01 X40.98 Y15.5 Z-0.1 F120
G01 X40.98 Y15.52 Z-0.1 F120
G01 X40.98 Y15.54 Z-0.1 F120
G01 X40.98 Y15.56 Z-0.1 F120
G01 X40.98 Y15.58 Z-0.1 F120
G01 X40.98 Y15.6 Z-0.1 F120
G01 X40.98 Y15.62 Z-0.1 F120
G01 X40.98 Y15.64 Z-0.1 F120
G01 X40.98 Y15.66 Z-0.1 F120
G01 X40.98 Y15.68 Z-0.1 F120
G01 X40.98 Y15.7 Z-0.1 F120
G01 X40.98 Y15.72 Z-0.1 F120
G01 X41.0 Y15.72 Z-0.1 F120
G01 X41.0 Y15.74 Z-0.1 F120
G01 X41.0 Y15.76 Z-0.1 F120
G01 X41.0 Y15.78 Z-0.1 F120
G01 X41.0 Y15.8 Z-0.1 F120
G01 X41.0 Y15.82 Z-0.1 F120
G01 X41.0 Y15.84 Z-0.1 F120
G01 X41.0 Y15.86 Z-0.1 F120
G01 X41.0 Y15.88 Z-0.1 F120
G01 X41.0 Y15.9 Z-0.1 F120
G01 X41.0 Y15.92 Z-0.1 F120
G01 X41.0 Y15.94 Z-0.1 F120
G01 X41.0 Y15.96 Z-0.1 F120
G01 X41.0 Y15.98 Z-0.1 F120
G01 X41.0 Y16.0 Z-0.1 F120
G01 X41.0 Y16.02 Z-0.1 F120
G01 X41.0 Y16.04 Z-0.1 F120
G01 X41.0 Y16.06 Z-0.1 F120
G01 X41.0 Y16.08 Z-0.1 F120
G01 X41.0 Y16.1 Z-0.1 F120
G01 X41.0 Y16.12 Z-0.1 F120
G01 X41.0 Y16.14 Z-0.1 F120
G01 X41.0 Y16.16 Z-0.1 F120
G01 X41.0 Y16.18 Z-0.1 F120
G01 X41.0 Y16.2 Z-0.1 F120
G01 X41.0 Y16.22 Z-0.1 F120
G01 X41.0 Y16.24 Z-0.1 F120
G01 X41.0 Y16.26 Z-0.1 F120
G01 X41.0 Y16.28 Z-0.1 F120
G01 X41.0 Y16.3 Z-0.1 F120
G01 X41.0 Y16.32 Z-0.1 F120
G01 X41.0 Y16.34 Z-0.1 F120
G01 X41.0 Y16.36 Z-0.1 F120
G01 X41.0 Y16.38 Z-0.1 F120
G01 X41.0 Y16.4 Z-0.1 F120
G01 X41.0 Y16.42 Z-0.1 F120
G01 X41.0 Y16.44 Z-0.1 F120
G01 X41.0 Y16.46 Z-0.1 F120
G01 X41.0 Y16.48 Z-0.1 F120
G01 X41.0 Y16.5 Z-0.1 F120
G01 X41.0 Y16.52 Z-0.1 F120
G01 X41.0 Y16.54 Z-0.1 F120
G01 X41.0 Y16.56 Z-0.1 F120
G01 X41.0 Y16.58 Z-0.1 F120
G01 X41.0 Y16.6 Z-0.1 F120
G01 X41.0 Y16.62 Z-0.1 F120
G01 X41.0 Y16.64 Z-0.1 F120
G01 X41.0 Y16.66 Z-0.1 F120
G01 X41.0 Y16.68 Z-0.1 F120
G01 X41.0 Y16.7 Z-0.1 F120
G01 X41.0 Y16.72 Z-0.1 F120
G01 X41.0 Y16.74 Z-0.1 F120
G01 X41.0 Y16.76 Z-0.1 F120
G01 X41.0 Y16.78 Z-0.1 F120
G01 X41.0 Y16.8 Z-0.1 F120
G01 X41.0 Y16.82 Z-0.1 F120
G01 X41.0 Y16.84 Z-0.1 F120
G01 X41.0 Y16.86 Z-0.1 F120
G01 X41.0 Y16.88 Z-0.1 F120
G01 X41.0 Y16.9 Z-0.1 F120
G01 X41.0 Y16.92 Z-0.1 F120
G01 X41.0 Y16.94 Z-0.1 F120
G01 X41.0 Y16.96 Z-0.1 F120
G01 X41.0 Y16.98 Z-0.1 F120
G01 X41.0 Y17.0 Z-0.1 F120
G01 X41.0 Y17.02 Z-0.1 F120
G01 X41.0 Y17.04 Z-0.1 F120
G01 X41.0 Y17.06 Z-0.1 F120
G01 X41.0 Y17.08 Z-0.1 F120
G01 X41.0 Y17.1 Z-0.1 F120
G01 X41.0 Y17.12 Z-0.1 F120
G01 X41.0 Y17.14 Z-0.1 F120
G01 X41.0 Y17.16 Z-0.1 F120
G01 X41.0 Y17.18 Z-0.1 F120
G01 X41.0 Y17.2 Z-0.1 F120
G01 X41.0 Y17.22 Z-0.1 F120
G01 X41.0 Y17.24 Z-0.1 F120
G01 X41.0 Y17.26 Z-0.1 F120
G01 X41.0 Y17.28 Z-0.1 F120
G01 X41.0 Y17.3 Z-0.1 F120
G01 X41.0 Y17.32 Z-0.1 F120
G01 X41.0 Y17.34 Z-0.1 F120
G01 X41.0 Y17.36 Z-0.1 F120
G01 X41.0 Y17.38 Z-0.1 F120
G01 X41.0 Y17.4 Z-0.1 F120
G01 X41.0 Y17.42 Z-0.1 F120
G01 X41.0 Y17.44 Z-0.1 F120
G01 X41.0 Y17.46 Z-0.1 F120
G01 X41.0 Y17.48 Z-0.1 F120
G01 X41.0 Y17.5 Z-0.1 F120
G01 X41.0 Y17.52 Z-0.1 F120
G01 X41.0 Y17.54 Z-0.1 F120
