
    ;Header Start
    ;header_type: cnc
    ;tool_head: levelTwoCNCToolheadForSM2
    ;machine: A400
    ;gcode_flavor: marlin
    ;renderMethod: line
    ;max_power: (255,)
    ;file_total_lines: FILE_TOTAL_LINE_COUNT
    ;estimated_time(s): ESTIMATED_TIME
    ;is_rotate: false
    ;diameter: 0
    ;max_x(mm): 66.12686
    ;max_y(mm): 96.12679999999999
    ;max_z(mm): 80
    ;max_b(mm): 0
    ;min_x(mm): 6.87298
    ;min_y(mm): 56.872879999999995
    ;min_b(mm): 0
    ;min_z(mm): -3.5
    ;work_speed(mm/minute): 120
    ;jog_speed(mm/minute): 1500
    ;power(%): 0
    ;work_size_x: 400
    ;work_size_y: 400
    ;origin: bottom-left
    ;Header End
    ;PCB_To_CNC v2
    ; Made by Daniel Dobromylskyj (https://www.github.com/DanielDobromylskyj)
    ; G-code START <<<
G00 X50.784 Y-39.080580000000005 Z3 F1500
M03 S18000
G00 X50.784 Y-39.080580000000005 Z1 F1500
G01 X50.784 Y-39.080580000000005 Z0 F120
G00 X50.784 Y-39.080580000000005 Z1 F1500
G01 X50.784 Y-39.080580000000005 Z-1 F120
G00 X50.784 Y-39.080580000000005 Z1 F1500
G01 X50.784 Y-39.080580000000005 Z-2 F120
G00 X50.784 Y-39.080580000000005 Z1 F1500
M05
G00 X50.784 Y-39.080580000000005 Z3 F1500
G00 X50.784 Y-40.080580000000005 Z3 F1500
M03 S18000
G00 X50.784 Y-40.080580000000005 Z1 F1500
G01 X50.784 Y-40.080580000000005 Z0 F120
G00 X50.784 Y-40.080580000000005 Z1 F1500
G01 X50.784 Y-40.080580000000005 Z-1 F120
G00 X50.784 Y-40.080580000000005 Z1 F1500
G01 X50.784 Y-40.080580000000005 Z-2 F120
G00 X50.784 Y-40.080580000000005 Z1 F1500
M05
G00 X50.784 Y-40.080580000000005 Z3 F1500
G00 X48.785 Y-39.080580000000005 Z3 F1500
M03 S18000
G00 X48.785 Y-39.080580000000005 Z1 F1500
G01 X48.785 Y-39.080580000000005 Z0 F120
G00 X48.785 Y-39.080580000000005 Z1 F1500
G01 X48.785 Y-39.080580000000005 Z-1 F120
G00 X48.785 Y-39.080580000000005 Z1 F1500
G01 X48.785 Y-39.080580000000005 Z-2 F120
G00 X48.785 Y-39.080580000000005 Z1 F1500
M05
G00 X48.785 Y-39.080580000000005 Z3 F1500
G00 X48.785 Y-40.080580000000005 Z3 F1500
M03 S18000
G00 X48.785 Y-40.080580000000005 Z1 F1500
G01 X48.785 Y-40.080580000000005 Z0 F120
G00 X48.785 Y-40.080580000000005 Z1 F1500
G01 X48.785 Y-40.080580000000005 Z-1 F120
G00 X48.785 Y-40.080580000000005 Z1 F1500
G01 X48.785 Y-40.080580000000005 Z-2 F120
G00 X48.785 Y-40.080580000000005 Z1 F1500
M05
G00 X48.785 Y-40.080580000000005 Z3 F1500
G00 X50.784 Y-38.080580000000005 Z3 F1500
M03 S18000
G00 X50.784 Y-38.080580000000005 Z1 F1500
G01 X50.784 Y-38.080580000000005 Z0 F120
G00 X50.784 Y-38.080580000000005 Z1 F1500
G01 X50.784 Y-38.080580000000005 Z-1 F120
G00 X50.784 Y-38.080580000000005 Z1 F1500
G01 X50.784 Y-38.080580000000005 Z-2 F120
G00 X50.784 Y-38.080580000000005 Z1 F1500
M05
G00 X50.784 Y-38.080580000000005 Z3 F1500
G00 X48.784 Y-38.080580000000005 Z3 F1500
M03 S18000
G00 X48.784 Y-38.080580000000005 Z1 F1500
G01 X48.784 Y-38.080580000000005 Z0 F120
G00 X48.784 Y-38.080580000000005 Z1 F1500
G01 X48.784 Y-38.080580000000005 Z-1 F120
G00 X48.784 Y-38.080580000000005 Z1 F1500
G01 X48.784 Y-38.080580000000005 Z-2 F120
G00 X48.784 Y-38.080580000000005 Z1 F1500
M05
G00 X48.784 Y-38.080580000000005 Z3 F1500
G00 X49.784 Y-39.080580000000005 Z3 F1500
M03 S18000
G00 X49.784 Y-39.080580000000005 Z1 F1500
G01 X49.784 Y-39.080580000000005 Z0 F120
G00 X49.784 Y-39.080580000000005 Z1 F1500
G01 X49.784 Y-39.080580000000005 Z-1 F120
G00 X49.784 Y-39.080580000000005 Z1 F1500
G01 X49.784 Y-39.080580000000005 Z-2 F120
G00 X49.784 Y-39.080580000000005 Z1 F1500
M05
G00 X49.784 Y-39.080580000000005 Z3 F1500
G00 X49.785 Y-38.080580000000005 Z3 F1500
M03 S18000
G00 X49.785 Y-38.080580000000005 Z1 F1500
G01 X49.785 Y-38.080580000000005 Z0 F120
G00 X49.785 Y-38.080580000000005 Z1 F1500
G01 X49.785 Y-38.080580000000005 Z-1 F120
G00 X49.785 Y-38.080580000000005 Z1 F1500
G01 X49.785 Y-38.080580000000005 Z-2 F120
G00 X49.785 Y-38.080580000000005 Z1 F1500
M05
G00 X49.785 Y-38.080580000000005 Z3 F1500
G00 X49.784 Y-40.080580000000005 Z3 F1500
M03 S18000
G00 X49.784 Y-40.080580000000005 Z1 F1500
G01 X49.784 Y-40.080580000000005 Z0 F120
G00 X49.784 Y-40.080580000000005 Z1 F1500
G01 X49.784 Y-40.080580000000005 Z-1 F120
G00 X49.784 Y-40.080580000000005 Z1 F1500
G01 X49.784 Y-40.080580000000005 Z-2 F120
G00 X49.784 Y-40.080580000000005 Z1 F1500
M05
G00 X49.784 Y-40.080580000000005 Z3 F1500
G00 X52.143 Y-44.38958 Z3 F1500
M03 S18000
G00 X52.143 Y-44.38958 Z1 F1500
G01 X52.143 Y-44.38958 Z0 F120
G00 X52.143 Y-44.38958 Z1 F1500
G01 X52.143 Y-44.38958 Z-1 F120
G00 X52.143 Y-44.38958 Z1 F1500
G01 X52.143 Y-44.38958 Z-2 F120
G00 X52.143 Y-44.38958 Z1 F1500
M05
G00 X52.143 Y-44.38958 Z3 F1500
G00 X54.94 Y-34.866580000000006 Z3 F1500
M03 S18000
G00 X54.94 Y-34.866580000000006 Z1 F1500
G01 X54.94 Y-34.866580000000006 Z0 F120
G00 X54.94 Y-34.866580000000006 Z1 F1500
G01 X54.94 Y-34.866580000000006 Z-1 F120
G00 X54.94 Y-34.866580000000006 Z1 F1500
G01 X54.94 Y-34.866580000000006 Z-2 F120
G00 X54.94 Y-34.866580000000006 Z1 F1500
M05
G00 X54.94 Y-34.866580000000006 Z3 F1500
G00 X62.213 Y-46.46658 Z3 F1500
M03 S18000
G00 X62.213 Y-46.46658 Z1 F1500
G01 X62.213 Y-46.46658 Z0 F120
G00 X62.213 Y-46.46658 Z1 F1500
G01 X62.213 Y-46.46658 Z-1 F120
G00 X62.213 Y-46.46658 Z1 F1500
G01 X62.213 Y-46.46658 Z-2 F120
G00 X62.213 Y-46.46658 Z1 F1500
M05
G00 X62.213 Y-46.46658 Z3 F1500
G00 X47.61 Y-36.616580000000006 Z3 F1500
M03 S18000
G00 X47.61 Y-36.616580000000006 Z1 F1500
G01 X47.61 Y-36.616580000000006 Z0 F120
G00 X47.61 Y-36.616580000000006 Z1 F1500
G01 X47.61 Y-36.616580000000006 Z-1 F120
G00 X47.61 Y-36.616580000000006 Z1 F1500
G01 X47.61 Y-36.616580000000006 Z-2 F120
G00 X47.61 Y-36.616580000000006 Z1 F1500
M05
G00 X47.61 Y-36.616580000000006 Z3 F1500
G00 X27.755 Y-36.08458000000001 Z3 F1500
M03 S18000
G00 X27.755 Y-36.08458000000001 Z1 F1500
G01 X27.755 Y-36.08458000000001 Z0 F120
G00 X27.755 Y-36.08458000000001 Z1 F1500
G01 X27.755 Y-36.08458000000001 Z-1 F120
G00 X27.755 Y-36.08458000000001 Z1 F1500
G01 X27.755 Y-36.08458000000001 Z-2 F120
G00 X27.755 Y-36.08458000000001 Z1 F1500
M05
G00 X27.755 Y-36.08458000000001 Z3 F1500
G00 X44.297 Y-36.11158000000001 Z3 F1500
M03 S18000
G00 X44.297 Y-36.11158000000001 Z1 F1500
G01 X44.297 Y-36.11158000000001 Z0 F120
G00 X44.297 Y-36.11158000000001 Z1 F1500
G01 X44.297 Y-36.11158000000001 Z-1 F120
G00 X44.297 Y-36.11158000000001 Z1 F1500
G01 X44.297 Y-36.11158000000001 Z-2 F120
G00 X44.297 Y-36.11158000000001 Z1 F1500
M05
G00 X44.297 Y-36.11158000000001 Z3 F1500
G00 X43.942 Y-39.58858 Z3 F1500
M03 S18000
G00 X43.942 Y-39.58858 Z1 F1500
G01 X43.942 Y-39.58858 Z0 F120
G00 X43.942 Y-39.58858 Z1 F1500
G01 X43.942 Y-39.58858 Z-1 F120
G00 X43.942 Y-39.58858 Z1 F1500
G01 X43.942 Y-39.58858 Z-2 F120
G00 X43.942 Y-39.58858 Z1 F1500
M05
G00 X43.942 Y-39.58858 Z3 F1500
G00 X52.321 Y-40.580580000000005 Z3 F1500
M03 S18000
G00 X52.321 Y-40.580580000000005 Z1 F1500
G01 X52.321 Y-40.580580000000005 Z0 F120
G00 X52.321 Y-40.580580000000005 Z1 F1500
G01 X52.321 Y-40.580580000000005 Z-1 F120
G00 X52.321 Y-40.580580000000005 Z1 F1500
G01 X52.321 Y-40.580580000000005 Z-2 F120
G00 X52.321 Y-40.580580000000005 Z1 F1500
M05
G00 X52.321 Y-40.580580000000005 Z3 F1500
G00 X47.181999999999995 Y-38.080580000000005 Z3 F1500
M03 S18000
G00 X47.181999999999995 Y-38.080580000000005 Z1 F1500
G01 X47.181999999999995 Y-38.080580000000005 Z0 F120
G00 X47.181999999999995 Y-38.080580000000005 Z1 F1500
G01 X47.181999999999995 Y-38.080580000000005 Z-1 F120
G00 X47.181999999999995 Y-38.080580000000005 Z1 F1500
G01 X47.181999999999995 Y-38.080580000000005 Z-2 F120
G00 X47.181999999999995 Y-38.080580000000005 Z1 F1500
M05
G00 X47.181999999999995 Y-38.080580000000005 Z3 F1500
G00 X56.56100000000001 Y-30.722580000000004 Z3 F1500
M03 S18000
G00 X56.56100000000001 Y-30.722580000000004 Z1 F1500
G01 X56.56100000000001 Y-30.722580000000004 Z0 F120
G00 X56.56100000000001 Y-30.722580000000004 Z1 F1500
G01 X56.56100000000001 Y-30.722580000000004 Z-1 F120
G00 X56.56100000000001 Y-30.722580000000004 Z1 F1500
G01 X56.56100000000001 Y-30.722580000000004 Z-2 F120
G00 X56.56100000000001 Y-30.722580000000004 Z1 F1500
M05
G00 X56.56100000000001 Y-30.722580000000004 Z3 F1500
G00 X50.73400000000001 Y-29.66858 Z3 F1500
M03 S18000
G00 X50.73400000000001 Y-29.66858 Z1 F1500
G01 X50.73400000000001 Y-29.66858 Z0 F120
G00 X50.73400000000001 Y-29.66858 Z1 F1500
G01 X50.73400000000001 Y-29.66858 Z-1 F120
G00 X50.73400000000001 Y-29.66858 Z1 F1500
G01 X50.73400000000001 Y-29.66858 Z-2 F120
G00 X50.73400000000001 Y-29.66858 Z1 F1500
M05
G00 X50.73400000000001 Y-29.66858 Z3 F1500
G00 X59.473 Y-30.262580000000007 Z3 F1500
M03 S18000
G00 X59.473 Y-30.262580000000007 Z1 F1500
G01 X59.473 Y-30.262580000000007 Z0 F120
G00 X59.473 Y-30.262580000000007 Z1 F1500
G01 X59.473 Y-30.262580000000007 Z-1 F120
G00 X59.473 Y-30.262580000000007 Z1 F1500
G01 X59.473 Y-30.262580000000007 Z-2 F120
G00 X59.473 Y-30.262580000000007 Z1 F1500
M05
G00 X59.473 Y-30.262580000000007 Z3 F1500
G00 X47.758 Y-26.012580000000007 Z3 F1500
M03 S18000
G00 X47.758 Y-26.012580000000007 Z1 F1500
G01 X47.758 Y-26.012580000000007 Z0 F120
G00 X47.758 Y-26.012580000000007 Z1 F1500
G01 X47.758 Y-26.012580000000007 Z-1 F120
G00 X47.758 Y-26.012580000000007 Z1 F1500
G01 X47.758 Y-26.012580000000007 Z-2 F120
G00 X47.758 Y-26.012580000000007 Z1 F1500
M05
G00 X47.758 Y-26.012580000000007 Z3 F1500
G00 X65.226 Y-32.556580000000004 Z3 F1500
M03 S18000
G00 X65.226 Y-32.556580000000004 Z1 F1500
G01 X65.226 Y-32.556580000000004 Z0 F120
G00 X65.226 Y-32.556580000000004 Z1 F1500
G01 X65.226 Y-32.556580000000004 Z-1 F120
G00 X65.226 Y-32.556580000000004 Z1 F1500
G01 X65.226 Y-32.556580000000004 Z-2 F120
G00 X65.226 Y-32.556580000000004 Z1 F1500
M05
G00 X65.226 Y-32.556580000000004 Z3 F1500
G00 X63.335 Y-49.92058000000001 Z3 F1500
M03 S18000
G00 X63.335 Y-49.92058000000001 Z1 F1500
G01 X63.335 Y-49.92058000000001 Z0 F120
G00 X63.335 Y-49.92058000000001 Z1 F1500
G01 X63.335 Y-49.92058000000001 Z-1 F120
G00 X63.335 Y-49.92058000000001 Z1 F1500
G01 X63.335 Y-49.92058000000001 Z-2 F120
G00 X63.335 Y-49.92058000000001 Z1 F1500
M05
G00 X63.335 Y-49.92058000000001 Z3 F1500
G00 X37.211 Y-31.587580000000013 Z3 F1500
M03 S18000
G00 X37.211 Y-31.587580000000013 Z1 F1500
G01 X37.211 Y-31.587580000000013 Z0 F120
G00 X37.211 Y-31.587580000000013 Z1 F1500
G01 X37.211 Y-31.587580000000013 Z-1 F120
G00 X37.211 Y-31.587580000000013 Z1 F1500
G01 X37.211 Y-31.587580000000013 Z-2 F120
G00 X37.211 Y-31.587580000000013 Z1 F1500
M05
G00 X37.211 Y-31.587580000000013 Z3 F1500
G00 X43.815 Y-38.19158000000001 Z3 F1500
M03 S18000
G00 X43.815 Y-38.19158000000001 Z1 F1500
G01 X43.815 Y-38.19158000000001 Z0 F120
G00 X43.815 Y-38.19158000000001 Z1 F1500
G01 X43.815 Y-38.19158000000001 Z-1 F120
G00 X43.815 Y-38.19158000000001 Z1 F1500
G01 X43.815 Y-38.19158000000001 Z-2 F120
G00 X43.815 Y-38.19158000000001 Z1 F1500
M05
G00 X43.815 Y-38.19158000000001 Z3 F1500
G00 X44.831 Y-39.20758 Z3 F1500
M03 S18000
G00 X44.831 Y-39.20758 Z1 F1500
G01 X44.831 Y-39.20758 Z0 F120
G00 X44.831 Y-39.20758 Z1 F1500
G01 X44.831 Y-39.20758 Z-1 F120
G00 X44.831 Y-39.20758 Z1 F1500
G01 X44.831 Y-39.20758 Z-2 F120
G00 X44.831 Y-39.20758 Z1 F1500
M05
G00 X44.831 Y-39.20758 Z3 F1500
G00 X44.958 Y-41.49358 Z3 F1500
M03 S18000
G00 X44.958 Y-41.49358 Z1 F1500
G01 X44.958 Y-41.49358 Z0 F120
G00 X44.958 Y-41.49358 Z1 F1500
G01 X44.958 Y-41.49358 Z-1 F120
G00 X44.958 Y-41.49358 Z1 F1500
G01 X44.958 Y-41.49358 Z-2 F120
G00 X44.958 Y-41.49358 Z1 F1500
M05
G00 X44.958 Y-41.49358 Z3 F1500
G00 X35.941 Y-43.39858 Z3 F1500
M03 S18000
G00 X35.941 Y-43.39858 Z1 F1500
G01 X35.941 Y-43.39858 Z0 F120
G00 X35.941 Y-43.39858 Z1 F1500
G01 X35.941 Y-43.39858 Z-1 F120
G00 X35.941 Y-43.39858 Z1 F1500
G01 X35.941 Y-43.39858 Z-2 F120
G00 X35.941 Y-43.39858 Z1 F1500
M05
G00 X35.941 Y-43.39858 Z3 F1500
G00 X57.363 Y-48.99058 Z3 F1500
M03 S18000
G00 X57.363 Y-48.99058 Z1 F1500
G01 X57.363 Y-48.99058 Z0 F120
G01 X57.363 Y-48.99058 Z0 F120
G01 X57.363 Y-48.99058 Z0 F120
G01 X57.363 Y-48.99058 Z0 F120
G01 X57.363 Y-48.99058 Z0 F120
G01 X57.363 Y-48.99058 Z0 F120
G01 X57.363 Y-48.99058 Z0 F120
G01 X57.363 Y-48.99058 Z0 F120
G01 X57.363 Y-48.99058 Z0 F120
G01 X57.363 Y-48.99058 Z0 F120
G01 X57.363 Y-48.99058 Z0 F120
G01 X57.363 Y-48.99058 Z0 F120
G01 X57.363 Y-48.99058 Z0 F120
G01 X57.363 Y-48.99058 Z0 F120
G01 X57.363 Y-48.99058 Z0 F120
G01 X57.363 Y-48.99058 Z0 F120
G01 X57.363 Y-48.99058 Z0 F120
G01 X57.363 Y-48.99058 Z0 F120
G01 X57.363 Y-48.99058 Z0 F120
G01 X57.363 Y-48.99058 Z0 F120
G01 X57.563 Y-48.99058 Z0 F120
G01 X57.55321130325903 Y-48.92877660112501 Z0 F120
G01 X57.524803398874994 Y-48.87302294954151 Z0 F120
G01 X57.48055705045849 Y-48.82877660112501 Z0 F120
G01 X57.42480339887499 Y-48.80036869674097 Z0 F120
G01 X57.363 Y-48.79058 Z0 F120
G01 X57.301196601125014 Y-48.80036869674097 Z0 F120
G01 X57.24544294954151 Y-48.82877660112501 Z0 F120
G01 X57.20119660112501 Y-48.87302294954151 Z0 F120
G01 X57.17278869674097 Y-48.92877660112501 Z0 F120
G01 X57.163000000000004 Y-48.99058 Z0 F120
G01 X57.17278869674097 Y-49.05238339887499 Z0 F120
G01 X57.20119660112501 Y-49.10813705045849 Z0 F120
G01 X57.24544294954151 Y-49.15238339887499 Z0 F120
G01 X57.301196601125014 Y-49.18079130325903 Z0 F120
G01 X57.363 Y-49.19058 Z0 F120
G01 X57.42480339887499 Y-49.18079130325903 Z0 F120
G01 X57.48055705045849 Y-49.15238339887499 Z0 F120
G01 X57.524803398874994 Y-49.10813705045849 Z0 F120
G01 X57.55321130325903 Y-49.05238339887499 Z0 F120
G01 X57.858900000000006 Y-48.99058 Z0 F120
G01 X57.83462892643077 Y-48.83733847248946 Z0 F120
G01 X57.76419152751054 Y-48.69909729338816 Z0 F120
G01 X57.654482706611844 Y-48.58938847248946 Z0 F120
G01 X57.51624152751054 Y-48.518951073569234 Z0 F120
G01 X57.363 Y-48.494679999999995 Z0 F120
G01 X57.20975847248947 Y-48.518951073569234 Z0 F120
G01 X57.07151729338816 Y-48.58938847248946 Z0 F120
G01 X56.961808472489466 Y-48.69909729338816 Z0 F120
G01 X56.89137107356923 Y-48.83733847248946 Z0 F120
G01 X56.8671 Y-48.99058 Z0 F120
G01 X56.89137107356923 Y-49.14382152751054 Z0 F120
G01 X56.961808472489466 Y-49.28206270661184 Z0 F120
G01 X57.07151729338816 Y-49.391771527510535 Z0 F120
G01 X57.20975847248947 Y-49.46220892643077 Z0 F120
G01 X57.363 Y-49.48648 Z0 F120
G01 X57.51624152751054 Y-49.46220892643077 Z0 F120
G01 X57.654482706611844 Y-49.391771527510535 Z0 F120
G01 X57.76419152751054 Y-49.28206270661184 Z0 F120
G01 X57.83462892643077 Y-49.14382152751054 Z0 F120
G01 X57.363 Y-48.99058 Z-1 F120
G01 X57.363 Y-48.99058 Z-1 F120
G01 X57.363 Y-48.99058 Z-1 F120
G01 X57.363 Y-48.99058 Z-1 F120
G01 X57.363 Y-48.99058 Z-1 F120
G01 X57.363 Y-48.99058 Z-1 F120
G01 X57.363 Y-48.99058 Z-1 F120
G01 X57.363 Y-48.99058 Z-1 F120
G01 X57.363 Y-48.99058 Z-1 F120
G01 X57.363 Y-48.99058 Z-1 F120
G01 X57.363 Y-48.99058 Z-1 F120
G01 X57.363 Y-48.99058 Z-1 F120
G01 X57.363 Y-48.99058 Z-1 F120
G01 X57.363 Y-48.99058 Z-1 F120
G01 X57.363 Y-48.99058 Z-1 F120
G01 X57.363 Y-48.99058 Z-1 F120
G01 X57.363 Y-48.99058 Z-1 F120
G01 X57.363 Y-48.99058 Z-1 F120
G01 X57.363 Y-48.99058 Z-1 F120
G01 X57.363 Y-48.99058 Z-1 F120
G01 X57.563 Y-48.99058 Z-1 F120
G01 X57.55321130325903 Y-48.92877660112501 Z-1 F120
G01 X57.524803398874994 Y-48.87302294954151 Z-1 F120
G01 X57.48055705045849 Y-48.82877660112501 Z-1 F120
G01 X57.42480339887499 Y-48.80036869674097 Z-1 F120
G01 X57.363 Y-48.79058 Z-1 F120
G01 X57.301196601125014 Y-48.80036869674097 Z-1 F120
G01 X57.24544294954151 Y-48.82877660112501 Z-1 F120
G01 X57.20119660112501 Y-48.87302294954151 Z-1 F120
G01 X57.17278869674097 Y-48.92877660112501 Z-1 F120
G01 X57.163000000000004 Y-48.99058 Z-1 F120
G01 X57.17278869674097 Y-49.05238339887499 Z-1 F120
G01 X57.20119660112501 Y-49.10813705045849 Z-1 F120
G01 X57.24544294954151 Y-49.15238339887499 Z-1 F120
G01 X57.301196601125014 Y-49.18079130325903 Z-1 F120
G01 X57.363 Y-49.19058 Z-1 F120
G01 X57.42480339887499 Y-49.18079130325903 Z-1 F120
G01 X57.48055705045849 Y-49.15238339887499 Z-1 F120
G01 X57.524803398874994 Y-49.10813705045849 Z-1 F120
G01 X57.55321130325903 Y-49.05238339887499 Z-1 F120
G01 X57.858900000000006 Y-48.99058 Z-1 F120
G01 X57.83462892643077 Y-48.83733847248946 Z-1 F120
G01 X57.76419152751054 Y-48.69909729338816 Z-1 F120
G01 X57.654482706611844 Y-48.58938847248946 Z-1 F120
G01 X57.51624152751054 Y-48.518951073569234 Z-1 F120
G01 X57.363 Y-48.494679999999995 Z-1 F120
G01 X57.20975847248947 Y-48.518951073569234 Z-1 F120
G01 X57.07151729338816 Y-48.58938847248946 Z-1 F120
G01 X56.961808472489466 Y-48.69909729338816 Z-1 F120
G01 X56.89137107356923 Y-48.83733847248946 Z-1 F120
G01 X56.8671 Y-48.99058 Z-1 F120
G01 X56.89137107356923 Y-49.14382152751054 Z-1 F120
G01 X56.961808472489466 Y-49.28206270661184 Z-1 F120
G01 X57.07151729338816 Y-49.391771527510535 Z-1 F120
G01 X57.20975847248947 Y-49.46220892643077 Z-1 F120
G01 X57.363 Y-49.48648 Z-1 F120
G01 X57.51624152751054 Y-49.46220892643077 Z-1 F120
G01 X57.654482706611844 Y-49.391771527510535 Z-1 F120
G01 X57.76419152751054 Y-49.28206270661184 Z-1 F120
G01 X57.83462892643077 Y-49.14382152751054 Z-1 F120
G01 X57.363 Y-48.99058 Z-2 F120
G01 X57.363 Y-48.99058 Z-2 F120
G01 X57.363 Y-48.99058 Z-2 F120
G01 X57.363 Y-48.99058 Z-2 F120
G01 X57.363 Y-48.99058 Z-2 F120
G01 X57.363 Y-48.99058 Z-2 F120
G01 X57.363 Y-48.99058 Z-2 F120
G01 X57.363 Y-48.99058 Z-2 F120
G01 X57.363 Y-48.99058 Z-2 F120
G01 X57.363 Y-48.99058 Z-2 F120
G01 X57.363 Y-48.99058 Z-2 F120
G01 X57.363 Y-48.99058 Z-2 F120
G01 X57.363 Y-48.99058 Z-2 F120
G01 X57.363 Y-48.99058 Z-2 F120
G01 X57.363 Y-48.99058 Z-2 F120
G01 X57.363 Y-48.99058 Z-2 F120
G01 X57.363 Y-48.99058 Z-2 F120
G01 X57.363 Y-48.99058 Z-2 F120
G01 X57.363 Y-48.99058 Z-2 F120
G01 X57.363 Y-48.99058 Z-2 F120
G01 X57.563 Y-48.99058 Z-2 F120
G01 X57.55321130325903 Y-48.92877660112501 Z-2 F120
G01 X57.524803398874994 Y-48.87302294954151 Z-2 F120
G01 X57.48055705045849 Y-48.82877660112501 Z-2 F120
G01 X57.42480339887499 Y-48.80036869674097 Z-2 F120
G01 X57.363 Y-48.79058 Z-2 F120
G01 X57.301196601125014 Y-48.80036869674097 Z-2 F120
G01 X57.24544294954151 Y-48.82877660112501 Z-2 F120
G01 X57.20119660112501 Y-48.87302294954151 Z-2 F120
G01 X57.17278869674097 Y-48.92877660112501 Z-2 F120
G01 X57.163000000000004 Y-48.99058 Z-2 F120
G01 X57.17278869674097 Y-49.05238339887499 Z-2 F120
G01 X57.20119660112501 Y-49.10813705045849 Z-2 F120
G01 X57.24544294954151 Y-49.15238339887499 Z-2 F120
G01 X57.301196601125014 Y-49.18079130325903 Z-2 F120
G01 X57.363 Y-49.19058 Z-2 F120
G01 X57.42480339887499 Y-49.18079130325903 Z-2 F120
G01 X57.48055705045849 Y-49.15238339887499 Z-2 F120
G01 X57.524803398874994 Y-49.10813705045849 Z-2 F120
G01 X57.55321130325903 Y-49.05238339887499 Z-2 F120
G01 X57.858900000000006 Y-48.99058 Z-2 F120
G01 X57.83462892643077 Y-48.83733847248946 Z-2 F120
G01 X57.76419152751054 Y-48.69909729338816 Z-2 F120
G01 X57.654482706611844 Y-48.58938847248946 Z-2 F120
G01 X57.51624152751054 Y-48.518951073569234 Z-2 F120
G01 X57.363 Y-48.494679999999995 Z-2 F120
G01 X57.20975847248947 Y-48.518951073569234 Z-2 F120
G01 X57.07151729338816 Y-48.58938847248946 Z-2 F120
G01 X56.961808472489466 Y-48.69909729338816 Z-2 F120
G01 X56.89137107356923 Y-48.83733847248946 Z-2 F120
G01 X56.8671 Y-48.99058 Z-2 F120
G01 X56.89137107356923 Y-49.14382152751054 Z-2 F120
G01 X56.961808472489466 Y-49.28206270661184 Z-2 F120
G01 X57.07151729338816 Y-49.391771527510535 Z-2 F120
G01 X57.20975847248947 Y-49.46220892643077 Z-2 F120
G01 X57.363 Y-49.48648 Z-2 F120
G01 X57.51624152751054 Y-49.46220892643077 Z-2 F120
G01 X57.654482706611844 Y-49.391771527510535 Z-2 F120
G01 X57.76419152751054 Y-49.28206270661184 Z-2 F120
G01 X57.83462892643077 Y-49.14382152751054 Z-2 F120
M05
G00 X57.363 Y-48.99058 Z3 F1500
G00 X61.763000000000005 Y-48.99058 Z3 F1500
M03 S18000
G00 X61.763000000000005 Y-48.99058 Z1 F1500
G01 X61.763000000000005 Y-48.99058 Z0 F120
G01 X61.763000000000005 Y-48.99058 Z0 F120
G01 X61.763000000000005 Y-48.99058 Z0 F120
G01 X61.763000000000005 Y-48.99058 Z0 F120
G01 X61.763000000000005 Y-48.99058 Z0 F120
G01 X61.763000000000005 Y-48.99058 Z0 F120
G01 X61.763000000000005 Y-48.99058 Z0 F120
G01 X61.763000000000005 Y-48.99058 Z0 F120
G01 X61.763000000000005 Y-48.99058 Z0 F120
G01 X61.763000000000005 Y-48.99058 Z0 F120
G01 X61.763000000000005 Y-48.99058 Z0 F120
G01 X61.763000000000005 Y-48.99058 Z0 F120
G01 X61.763000000000005 Y-48.99058 Z0 F120
G01 X61.763000000000005 Y-48.99058 Z0 F120
G01 X61.763000000000005 Y-48.99058 Z0 F120
G01 X61.763000000000005 Y-48.99058 Z0 F120
G01 X61.763000000000005 Y-48.99058 Z0 F120
G01 X61.763000000000005 Y-48.99058 Z0 F120
G01 X61.763000000000005 Y-48.99058 Z0 F120
G01 X61.763000000000005 Y-48.99058 Z0 F120
G01 X61.963 Y-48.99058 Z0 F120
G01 X61.95321130325903 Y-48.92877660112501 Z0 F120
G01 X61.92480339887499 Y-48.87302294954151 Z0 F120
G01 X61.88055705045849 Y-48.82877660112501 Z0 F120
G01 X61.82480339887499 Y-48.80036869674097 Z0 F120
G01 X61.763000000000005 Y-48.79058 Z0 F120
G01 X61.70119660112501 Y-48.80036869674097 Z0 F120
G01 X61.64544294954151 Y-48.82877660112501 Z0 F120
G01 X61.60119660112501 Y-48.87302294954151 Z0 F120
G01 X61.57278869674097 Y-48.92877660112501 Z0 F120
G01 X61.563 Y-48.99058 Z0 F120
G01 X61.57278869674097 Y-49.05238339887499 Z0 F120
G01 X61.60119660112501 Y-49.10813705045849 Z0 F120
G01 X61.64544294954151 Y-49.15238339887499 Z0 F120
G01 X61.70119660112501 Y-49.18079130325903 Z0 F120
G01 X61.763000000000005 Y-49.19058 Z0 F120
G01 X61.82480339887499 Y-49.18079130325903 Z0 F120
G01 X61.88055705045849 Y-49.15238339887499 Z0 F120
G01 X61.92480339887499 Y-49.10813705045849 Z0 F120
G01 X61.95321130325903 Y-49.05238339887499 Z0 F120
G01 X62.258900000000004 Y-48.99058 Z0 F120
G01 X62.234628926430766 Y-48.83733847248946 Z0 F120
G01 X62.16419152751054 Y-48.69909729338816 Z0 F120
G01 X62.05448270661184 Y-48.58938847248946 Z0 F120
G01 X61.916241527510536 Y-48.518951073569234 Z0 F120
G01 X61.763000000000005 Y-48.494679999999995 Z0 F120
G01 X61.60975847248947 Y-48.518951073569234 Z0 F120
G01 X61.47151729338816 Y-48.58938847248946 Z0 F120
G01 X61.361808472489464 Y-48.69909729338816 Z0 F120
G01 X61.29137107356924 Y-48.83733847248946 Z0 F120
G01 X61.2671 Y-48.99058 Z0 F120
G01 X61.29137107356924 Y-49.14382152751054 Z0 F120
G01 X61.361808472489464 Y-49.28206270661184 Z0 F120
G01 X61.47151729338816 Y-49.391771527510535 Z0 F120
G01 X61.60975847248947 Y-49.46220892643077 Z0 F120
G01 X61.763000000000005 Y-49.48648 Z0 F120
G01 X61.916241527510536 Y-49.46220892643077 Z0 F120
G01 X62.05448270661184 Y-49.391771527510535 Z0 F120
G01 X62.16419152751054 Y-49.28206270661184 Z0 F120
G01 X62.234628926430766 Y-49.14382152751054 Z0 F120
G01 X61.763000000000005 Y-48.99058 Z-1 F120
G01 X61.763000000000005 Y-48.99058 Z-1 F120
G01 X61.763000000000005 Y-48.99058 Z-1 F120
G01 X61.763000000000005 Y-48.99058 Z-1 F120
G01 X61.763000000000005 Y-48.99058 Z-1 F120
G01 X61.763000000000005 Y-48.99058 Z-1 F120
G01 X61.763000000000005 Y-48.99058 Z-1 F120
G01 X61.763000000000005 Y-48.99058 Z-1 F120
G01 X61.763000000000005 Y-48.99058 Z-1 F120
G01 X61.763000000000005 Y-48.99058 Z-1 F120
G01 X61.763000000000005 Y-48.99058 Z-1 F120
G01 X61.763000000000005 Y-48.99058 Z-1 F120
G01 X61.763000000000005 Y-48.99058 Z-1 F120
G01 X61.763000000000005 Y-48.99058 Z-1 F120
G01 X61.763000000000005 Y-48.99058 Z-1 F120
G01 X61.763000000000005 Y-48.99058 Z-1 F120
G01 X61.763000000000005 Y-48.99058 Z-1 F120
G01 X61.763000000000005 Y-48.99058 Z-1 F120
G01 X61.763000000000005 Y-48.99058 Z-1 F120
G01 X61.763000000000005 Y-48.99058 Z-1 F120
G01 X61.963 Y-48.99058 Z-1 F120
G01 X61.95321130325903 Y-48.92877660112501 Z-1 F120
G01 X61.92480339887499 Y-48.87302294954151 Z-1 F120
G01 X61.88055705045849 Y-48.82877660112501 Z-1 F120
G01 X61.82480339887499 Y-48.80036869674097 Z-1 F120
G01 X61.763000000000005 Y-48.79058 Z-1 F120
G01 X61.70119660112501 Y-48.80036869674097 Z-1 F120
G01 X61.64544294954151 Y-48.82877660112501 Z-1 F120
G01 X61.60119660112501 Y-48.87302294954151 Z-1 F120
G01 X61.57278869674097 Y-48.92877660112501 Z-1 F120
G01 X61.563 Y-48.99058 Z-1 F120
G01 X61.57278869674097 Y-49.05238339887499 Z-1 F120
G01 X61.60119660112501 Y-49.10813705045849 Z-1 F120
G01 X61.64544294954151 Y-49.15238339887499 Z-1 F120
G01 X61.70119660112501 Y-49.18079130325903 Z-1 F120
G01 X61.763000000000005 Y-49.19058 Z-1 F120
G01 X61.82480339887499 Y-49.18079130325903 Z-1 F120
G01 X61.88055705045849 Y-49.15238339887499 Z-1 F120
G01 X61.92480339887499 Y-49.10813705045849 Z-1 F120
G01 X61.95321130325903 Y-49.05238339887499 Z-1 F120
G01 X62.258900000000004 Y-48.99058 Z-1 F120
G01 X62.234628926430766 Y-48.83733847248946 Z-1 F120
G01 X62.16419152751054 Y-48.69909729338816 Z-1 F120
G01 X62.05448270661184 Y-48.58938847248946 Z-1 F120
G01 X61.916241527510536 Y-48.518951073569234 Z-1 F120
G01 X61.763000000000005 Y-48.494679999999995 Z-1 F120
G01 X61.60975847248947 Y-48.518951073569234 Z-1 F120
G01 X61.47151729338816 Y-48.58938847248946 Z-1 F120
G01 X61.361808472489464 Y-48.69909729338816 Z-1 F120
G01 X61.29137107356924 Y-48.83733847248946 Z-1 F120
G01 X61.2671 Y-48.99058 Z-1 F120
G01 X61.29137107356924 Y-49.14382152751054 Z-1 F120
G01 X61.361808472489464 Y-49.28206270661184 Z-1 F120
G01 X61.47151729338816 Y-49.391771527510535 Z-1 F120
G01 X61.60975847248947 Y-49.46220892643077 Z-1 F120
G01 X61.763000000000005 Y-49.48648 Z-1 F120
G01 X61.916241527510536 Y-49.46220892643077 Z-1 F120
G01 X62.05448270661184 Y-49.391771527510535 Z-1 F120
G01 X62.16419152751054 Y-49.28206270661184 Z-1 F120
G01 X62.234628926430766 Y-49.14382152751054 Z-1 F120
G01 X61.763000000000005 Y-48.99058 Z-2 F120
G01 X61.763000000000005 Y-48.99058 Z-2 F120
G01 X61.763000000000005 Y-48.99058 Z-2 F120
G01 X61.763000000000005 Y-48.99058 Z-2 F120
G01 X61.763000000000005 Y-48.99058 Z-2 F120
G01 X61.763000000000005 Y-48.99058 Z-2 F120
G01 X61.763000000000005 Y-48.99058 Z-2 F120
G01 X61.763000000000005 Y-48.99058 Z-2 F120
G01 X61.763000000000005 Y-48.99058 Z-2 F120
G01 X61.763000000000005 Y-48.99058 Z-2 F120
G01 X61.763000000000005 Y-48.99058 Z-2 F120
G01 X61.763000000000005 Y-48.99058 Z-2 F120
G01 X61.763000000000005 Y-48.99058 Z-2 F120
G01 X61.763000000000005 Y-48.99058 Z-2 F120
G01 X61.763000000000005 Y-48.99058 Z-2 F120
G01 X61.763000000000005 Y-48.99058 Z-2 F120
G01 X61.763000000000005 Y-48.99058 Z-2 F120
G01 X61.763000000000005 Y-48.99058 Z-2 F120
G01 X61.763000000000005 Y-48.99058 Z-2 F120
G01 X61.763000000000005 Y-48.99058 Z-2 F120
G01 X61.963 Y-48.99058 Z-2 F120
G01 X61.95321130325903 Y-48.92877660112501 Z-2 F120
G01 X61.92480339887499 Y-48.87302294954151 Z-2 F120
G01 X61.88055705045849 Y-48.82877660112501 Z-2 F120
G01 X61.82480339887499 Y-48.80036869674097 Z-2 F120
G01 X61.763000000000005 Y-48.79058 Z-2 F120
G01 X61.70119660112501 Y-48.80036869674097 Z-2 F120
G01 X61.64544294954151 Y-48.82877660112501 Z-2 F120
G01 X61.60119660112501 Y-48.87302294954151 Z-2 F120
G01 X61.57278869674097 Y-48.92877660112501 Z-2 F120
G01 X61.563 Y-48.99058 Z-2 F120
G01 X61.57278869674097 Y-49.05238339887499 Z-2 F120
G01 X61.60119660112501 Y-49.10813705045849 Z-2 F120
G01 X61.64544294954151 Y-49.15238339887499 Z-2 F120
G01 X61.70119660112501 Y-49.18079130325903 Z-2 F120
G01 X61.763000000000005 Y-49.19058 Z-2 F120
G01 X61.82480339887499 Y-49.18079130325903 Z-2 F120
G01 X61.88055705045849 Y-49.15238339887499 Z-2 F120
G01 X61.92480339887499 Y-49.10813705045849 Z-2 F120
G01 X61.95321130325903 Y-49.05238339887499 Z-2 F120
G01 X62.258900000000004 Y-48.99058 Z-2 F120
G01 X62.234628926430766 Y-48.83733847248946 Z-2 F120
G01 X62.16419152751054 Y-48.69909729338816 Z-2 F120
G01 X62.05448270661184 Y-48.58938847248946 Z-2 F120
G01 X61.916241527510536 Y-48.518951073569234 Z-2 F120
G01 X61.763000000000005 Y-48.494679999999995 Z-2 F120
G01 X61.60975847248947 Y-48.518951073569234 Z-2 F120
G01 X61.47151729338816 Y-48.58938847248946 Z-2 F120
G01 X61.361808472489464 Y-48.69909729338816 Z-2 F120
G01 X61.29137107356924 Y-48.83733847248946 Z-2 F120
G01 X61.2671 Y-48.99058 Z-2 F120
G01 X61.29137107356924 Y-49.14382152751054 Z-2 F120
G01 X61.361808472489464 Y-49.28206270661184 Z-2 F120
G01 X61.47151729338816 Y-49.391771527510535 Z-2 F120
G01 X61.60975847248947 Y-49.46220892643077 Z-2 F120
G01 X61.763000000000005 Y-49.48648 Z-2 F120
G01 X61.916241527510536 Y-49.46220892643077 Z-2 F120
G01 X62.05448270661184 Y-49.391771527510535 Z-2 F120
G01 X62.16419152751054 Y-49.28206270661184 Z-2 F120
G01 X62.234628926430766 Y-49.14382152751054 Z-2 F120
M05
G00 X61.763000000000005 Y-48.99058 Z3 F1500
G00 X36.816 Y-35.14358000000001 Z3 F1500
M03 S18000
G00 X36.816 Y-35.14358000000001 Z1 F1500
G01 X36.816 Y-35.14358000000001 Z0 F120
G01 X36.816 Y-35.14358000000001 Z0 F120
G01 X36.816 Y-35.14358000000001 Z0 F120
G01 X36.816 Y-35.14358000000001 Z0 F120
G01 X36.816 Y-35.14358000000001 Z0 F120
G01 X36.816 Y-35.14358000000001 Z0 F120
G01 X36.816 Y-35.14358000000001 Z0 F120
G01 X36.816 Y-35.14358000000001 Z0 F120
G01 X36.816 Y-35.14358000000001 Z0 F120
G01 X36.816 Y-35.14358000000001 Z0 F120
G01 X36.816 Y-35.14358000000001 Z0 F120
G01 X36.816 Y-35.14358000000001 Z0 F120
G01 X36.816 Y-35.14358000000001 Z0 F120
G01 X36.816 Y-35.14358000000001 Z0 F120
G01 X36.816 Y-35.14358000000001 Z0 F120
G01 X36.816 Y-35.14358000000001 Z0 F120
G01 X36.816 Y-35.14358000000001 Z0 F120
G01 X36.816 Y-35.14358000000001 Z0 F120
G01 X36.816 Y-35.14358000000001 Z0 F120
G01 X36.816 Y-35.14358000000001 Z0 F120
G01 X37.016000000000005 Y-35.14358000000001 Z0 F120
G01 X37.006211303259036 Y-35.081776601125014 Z0 F120
G01 X36.977803398875 Y-35.02602294954151 Z0 F120
G01 X36.9335570504585 Y-34.98177660112501 Z0 F120
G01 X36.877803398874995 Y-34.953368696740974 Z0 F120
G01 X36.816 Y-34.943580000000004 Z0 F120
G01 X36.75419660112502 Y-34.953368696740974 Z0 F120
G01 X36.69844294954151 Y-34.98177660112501 Z0 F120
G01 X36.654196601125015 Y-35.02602294954151 Z0 F120
G01 X36.625788696740976 Y-35.081776601125014 Z0 F120
G01 X36.61600000000001 Y-35.14358000000001 Z0 F120
G01 X36.625788696740976 Y-35.205383398875 Z0 F120
G01 X36.654196601125015 Y-35.2611370504585 Z0 F120
G01 X36.69844294954151 Y-35.305383398874994 Z0 F120
G01 X36.75419660112502 Y-35.333791303259034 Z0 F120
G01 X36.816 Y-35.34358 Z0 F120
G01 X36.877803398874995 Y-35.333791303259034 Z0 F120
G01 X36.9335570504585 Y-35.305383398874994 Z0 F120
G01 X36.977803398875 Y-35.2611370504585 Z0 F120
G01 X37.006211303259036 Y-35.205383398875 Z0 F120
G01 X37.216 Y-35.14358000000001 Z0 F120
G01 X37.19642260651806 Y-35.01997320225003 Z0 F120
G01 X37.139606797749984 Y-34.90846589908302 Z0 F120
G01 X37.05111410091699 Y-34.819973202250026 Z0 F120
G01 X36.93960679774998 Y-34.76315739348195 Z0 F120
G01 X36.816 Y-34.74358000000001 Z0 F120
G01 X36.692393202250024 Y-34.76315739348194 Z0 F120
G01 X36.580885899083015 Y-34.819973202250026 Z0 F120
G01 X36.49239320225002 Y-34.90846589908302 Z0 F120
G01 X36.43557739348194 Y-35.01997320225003 Z0 F120
G01 X36.416000000000004 Y-35.14358000000001 Z0 F120
G01 X36.43557739348194 Y-35.267186797749986 Z0 F120
G01 X36.49239320225002 Y-35.378694100916995 Z0 F120
G01 X36.580885899083015 Y-35.46718679774999 Z0 F120
G01 X36.692393202250024 Y-35.52400260651807 Z0 F120
G01 X36.816 Y-35.543580000000006 Z0 F120
G01 X36.93960679774998 Y-35.52400260651807 Z0 F120
G01 X37.05111410091699 Y-35.46718679774999 Z0 F120
G01 X37.139606797749984 Y-35.378694100916995 Z0 F120
G01 X37.19642260651806 Y-35.267186797749986 Z0 F120
G01 X37.416000000000004 Y-35.14358000000001 Z0 F120
G01 X37.386633909777096 Y-34.95816980337504 Z0 F120
G01 X37.30141019662497 Y-34.790908848624525 Z0 F120
G01 X37.16867115137549 Y-34.65816980337504 Z0 F120
G01 X37.00141019662497 Y-34.57294609022291 Z0 F120
G01 X36.816 Y-34.543580000000006 Z0 F120
G01 X36.63058980337504 Y-34.57294609022291 Z0 F120
G01 X36.46332884862452 Y-34.65816980337504 Z0 F120
G01 X36.330589803375034 Y-34.790908848624525 Z0 F120
G01 X36.24536609022291 Y-34.95816980337504 Z0 F120
G01 X36.216 Y-35.14358000000001 Z0 F120
G01 X36.24536609022291 Y-35.32899019662497 Z0 F120
G01 X36.330589803375034 Y-35.49625115137549 Z0 F120
G01 X36.46332884862452 Y-35.628990196624976 Z0 F120
G01 X36.63058980337504 Y-35.7142139097771 Z0 F120
G01 X36.816 Y-35.74358000000001 Z0 F120
G01 X37.00141019662497 Y-35.7142139097771 Z0 F120
G01 X37.16867115137549 Y-35.628990196624976 Z0 F120
G01 X37.30141019662497 Y-35.49625115137549 Z0 F120
G01 X37.386633909777096 Y-35.32899019662497 Z0 F120
G01 X37.61600000000001 Y-35.14358000000001 Z0 F120
G01 X37.57684521303613 Y-34.89636640450005 Z0 F120
G01 X37.46321359549996 Y-34.673351798166024 Z0 F120
G01 X37.286228201833985 Y-34.49636640450005 Z0 F120
G01 X37.06321359549996 Y-34.38273478696388 Z0 F120
G01 X36.816 Y-34.34358 Z0 F120
G01 X36.568786404500045 Y-34.38273478696388 Z0 F120
G01 X36.34577179816603 Y-34.49636640450005 Z0 F120
G01 X36.16878640450005 Y-34.673351798166024 Z0 F120
G01 X36.05515478696388 Y-34.89636640450005 Z0 F120
G01 X36.016000000000005 Y-35.14358000000001 Z0 F120
G01 X36.05515478696388 Y-35.390793595499964 Z0 F120
G01 X36.16878640450005 Y-35.61380820183398 Z0 F120
G01 X36.34577179816603 Y-35.79079359549996 Z0 F120
G01 X36.568786404500045 Y-35.90442521303613 Z0 F120
G01 X36.816 Y-35.943580000000004 Z0 F120
G01 X37.06321359549996 Y-35.90442521303613 Z0 F120
G01 X37.286228201833985 Y-35.79079359549996 Z0 F120
G01 X37.46321359549996 Y-35.61380820183398 Z0 F120
G01 X37.57684521303613 Y-35.390793595499964 Z0 F120
G01 X37.816 Y-35.14358000000001 Z0 F120
G01 X37.767056516295156 Y-34.83456300562506 Z0 F120
G01 X37.62501699437495 Y-34.55579474770753 Z0 F120
G01 X37.40378525229248 Y-34.33456300562506 Z0 F120
G01 X37.12501699437495 Y-34.19252348370485 Z0 F120
G01 X36.816 Y-34.14358000000001 Z0 F120
G01 X36.50698300562506 Y-34.19252348370485 Z0 F120
G01 X36.22821474770753 Y-34.33456300562506 Z0 F120
G01 X36.00698300562506 Y-34.55579474770753 Z0 F120
G01 X35.86494348370485 Y-34.83456300562506 Z0 F120
G01 X35.816 Y-35.14358000000001 Z0 F120
G01 X35.86494348370485 Y-35.45259699437495 Z0 F120
G01 X36.00698300562506 Y-35.73136525229248 Z0 F120
G01 X36.22821474770753 Y-35.95259699437495 Z0 F120
G01 X36.50698300562506 Y-36.09463651629516 Z0 F120
G01 X36.816 Y-36.14358000000001 Z0 F120
G01 X37.12501699437495 Y-36.09463651629516 Z0 F120
G01 X37.40378525229248 Y-35.95259699437495 Z0 F120
G01 X37.62501699437495 Y-35.73136525229248 Z0 F120
G01 X37.767056516295156 Y-35.45259699437495 Z0 F120
G01 X38.016000000000005 Y-35.14358000000001 Z0 F120
G01 X37.95726781955418 Y-34.77275960675007 Z0 F120
G01 X37.78682039324994 Y-34.438237697249036 Z0 F120
G01 X37.52134230275097 Y-34.17275960675007 Z0 F120
G01 X37.18682039324994 Y-34.00231218044583 Z0 F120
G01 X36.816 Y-33.943580000000004 Z0 F120
G01 X36.44517960675007 Y-34.00231218044583 Z0 F120
G01 X36.11065769724903 Y-34.17275960675007 Z0 F120
G01 X35.845179606750065 Y-34.438237697249036 Z0 F120
G01 X35.67473218044582 Y-34.77275960675007 Z0 F120
G01 X35.61600000000001 Y-35.14358000000001 Z0 F120
G01 X35.674732180445815 Y-35.51440039324994 Z0 F120
G01 X35.845179606750065 Y-35.84892230275098 Z0 F120
G01 X36.11065769724903 Y-36.114400393249944 Z0 F120
G01 X36.44517960675007 Y-36.28484781955419 Z0 F120
G01 X36.816 Y-36.34358 Z0 F120
G01 X37.18682039324994 Y-36.28484781955419 Z0 F120
G01 X37.52134230275097 Y-36.114400393249944 Z0 F120
G01 X37.78682039324994 Y-35.84892230275098 Z0 F120
G01 X37.95726781955418 Y-35.51440039324994 Z0 F120
G01 X38.216 Y-35.14358000000001 Z0 F120
G01 X38.14747912281322 Y-34.71095620787508 Z0 F120
G01 X37.948623792124934 Y-34.32068064679054 Z0 F120
G01 X37.63889935320947 Y-34.010956207875076 Z0 F120
G01 X37.24862379212493 Y-33.81210087718679 Z0 F120
G01 X36.816 Y-33.74358000000001 Z0 F120
G01 X36.383376207875074 Y-33.81210087718679 Z0 F120
G01 X35.99310064679054 Y-34.010956207875076 Z0 F120
G01 X35.68337620787508 Y-34.32068064679054 Z0 F120
G01 X35.48452087718679 Y-34.71095620787508 Z0 F120
G01 X35.416000000000004 Y-35.14358000000001 Z0 F120
G01 X35.48452087718679 Y-35.576203792124936 Z0 F120
G01 X35.68337620787508 Y-35.96647935320947 Z0 F120
G01 X35.99310064679054 Y-36.27620379212493 Z0 F120
G01 X36.383376207875074 Y-36.47505912281322 Z0 F120
G01 X36.816 Y-36.543580000000006 Z0 F120
G01 X37.24862379212493 Y-36.47505912281322 Z0 F120
G01 X37.63889935320947 Y-36.27620379212493 Z0 F120
G01 X37.948623792124934 Y-35.96647935320947 Z0 F120
G01 X38.14747912281322 Y-35.576203792124936 Z0 F120
G01 X38.416000000000004 Y-35.14358000000001 Z0 F120
G01 X38.33769042607225 Y-34.649152809000086 Z0 F120
G01 X38.11042719099992 Y-34.20312359633205 Z0 F120
G01 X37.75645640366796 Y-33.84915280900009 Z0 F120
G01 X37.310427190999924 Y-33.62188957392776 Z0 F120
G01 X36.816 Y-33.543580000000006 Z0 F120
G01 X36.32157280900009 Y-33.62188957392776 Z0 F120
G01 X35.875543596332044 Y-33.84915280900009 Z0 F120
G01 X35.52157280900009 Y-34.20312359633205 Z0 F120
G01 X35.294309573927755 Y-34.649152809000086 Z0 F120
G01 X35.216 Y-35.14358000000001 Z0 F120
G01 X35.294309573927755 Y-35.63800719099992 Z0 F120
G01 X35.521572809000084 Y-36.084036403667966 Z0 F120
G01 X35.875543596332044 Y-36.438007190999926 Z0 F120
G01 X36.32157280900009 Y-36.665270426072254 Z0 F120
G01 X36.816 Y-36.74358000000001 Z0 F120
G01 X37.31042719099992 Y-36.665270426072254 Z0 F120
G01 X37.75645640366796 Y-36.438007190999926 Z0 F120
G01 X38.110427190999914 Y-36.084036403667966 Z0 F120
G01 X38.33769042607225 Y-35.63800719099992 Z0 F120
G01 X38.61600000000001 Y-35.14358000000001 Z0 F120
G01 X38.527901729331276 Y-34.5873494101251 Z0 F120
G01 X38.27223058987491 Y-34.085566545873554 Z0 F120
G01 X37.874013454126455 Y-33.6873494101251 Z0 F120
G01 X37.37223058987491 Y-33.43167827066873 Z0 F120
G01 X36.816 Y-33.34358 Z0 F120
G01 X36.2597694101251 Y-33.43167827066873 Z0 F120
G01 X35.75798654587355 Y-33.6873494101251 Z0 F120
G01 X35.3597694101251 Y-34.085566545873554 Z0 F120
G01 X35.10409827066873 Y-34.5873494101251 Z0 F120
G01 X35.016000000000005 Y-35.14358000000001 Z0 F120
G01 X35.10409827066873 Y-35.69981058987491 Z0 F120
G01 X35.3597694101251 Y-36.20159345412646 Z0 F120
G01 X35.75798654587355 Y-36.59981058987491 Z0 F120
G01 X36.2597694101251 Y-36.85548172933128 Z0 F120
G01 X36.816 Y-36.943580000000004 Z0 F120
G01 X37.37223058987491 Y-36.85548172933128 Z0 F120
G01 X37.874013454126455 Y-36.59981058987491 Z0 F120
G01 X38.27223058987491 Y-36.20159345412646 Z0 F120
G01 X38.527901729331276 Y-35.69981058987491 Z0 F120
G01 X38.9624 Y-35.14358000000001 Z0 F120
G01 X38.85734770657592 Y-34.48030592327362 Z0 F120
G01 X38.55247407672639 Y-33.88195773447944 Z0 F120
G01 X38.07762226552057 Y-33.40710592327362 Z0 F120
G01 X37.47927407672639 Y-33.10223229342409 Z0 F120
G01 X36.816 Y-32.99718000000001 Z0 F120
G01 X36.152725923273614 Y-33.10223229342409 Z0 F120
G01 X35.55437773447944 Y-33.40710592327362 Z0 F120
G01 X35.07952592327362 Y-33.88195773447944 Z0 F120
G01 X34.77465229342409 Y-34.48030592327362 Z0 F120
G01 X34.6696 Y-35.14358000000001 Z0 F120
G01 X34.77465229342409 Y-35.806854076726395 Z0 F120
G01 X35.07952592327362 Y-36.40520226552057 Z0 F120
G01 X35.55437773447944 Y-36.880054076726395 Z0 F120
G01 X36.152725923273614 Y-37.18492770657592 Z0 F120
G01 X36.816 Y-37.28998000000001 Z0 F120
G01 X37.47927407672639 Y-37.18492770657592 Z0 F120
G01 X38.07762226552057 Y-36.880054076726395 Z0 F120
G01 X38.55247407672639 Y-36.40520226552057 Z0 F120
G01 X38.85734770657592 Y-35.806854076726395 Z0 F120
G01 X36.816 Y-35.14358000000001 Z-1 F120
G01 X36.816 Y-35.14358000000001 Z-1 F120
G01 X36.816 Y-35.14358000000001 Z-1 F120
G01 X36.816 Y-35.14358000000001 Z-1 F120
G01 X36.816 Y-35.14358000000001 Z-1 F120
G01 X36.816 Y-35.14358000000001 Z-1 F120
G01 X36.816 Y-35.14358000000001 Z-1 F120
G01 X36.816 Y-35.14358000000001 Z-1 F120
G01 X36.816 Y-35.14358000000001 Z-1 F120
G01 X36.816 Y-35.14358000000001 Z-1 F120
G01 X36.816 Y-35.14358000000001 Z-1 F120
G01 X36.816 Y-35.14358000000001 Z-1 F120
G01 X36.816 Y-35.14358000000001 Z-1 F120
G01 X36.816 Y-35.14358000000001 Z-1 F120
G01 X36.816 Y-35.14358000000001 Z-1 F120
G01 X36.816 Y-35.14358000000001 Z-1 F120
G01 X36.816 Y-35.14358000000001 Z-1 F120
G01 X36.816 Y-35.14358000000001 Z-1 F120
G01 X36.816 Y-35.14358000000001 Z-1 F120
G01 X36.816 Y-35.14358000000001 Z-1 F120
G01 X37.016000000000005 Y-35.14358000000001 Z-1 F120
G01 X37.006211303259036 Y-35.081776601125014 Z-1 F120
G01 X36.977803398875 Y-35.02602294954151 Z-1 F120
G01 X36.9335570504585 Y-34.98177660112501 Z-1 F120
G01 X36.877803398874995 Y-34.953368696740974 Z-1 F120
G01 X36.816 Y-34.943580000000004 Z-1 F120
G01 X36.75419660112502 Y-34.953368696740974 Z-1 F120
G01 X36.69844294954151 Y-34.98177660112501 Z-1 F120
G01 X36.654196601125015 Y-35.02602294954151 Z-1 F120
G01 X36.625788696740976 Y-35.081776601125014 Z-1 F120
G01 X36.61600000000001 Y-35.14358000000001 Z-1 F120
G01 X36.625788696740976 Y-35.205383398875 Z-1 F120
G01 X36.654196601125015 Y-35.2611370504585 Z-1 F120
G01 X36.69844294954151 Y-35.305383398874994 Z-1 F120
G01 X36.75419660112502 Y-35.333791303259034 Z-1 F120
G01 X36.816 Y-35.34358 Z-1 F120
G01 X36.877803398874995 Y-35.333791303259034 Z-1 F120
G01 X36.9335570504585 Y-35.305383398874994 Z-1 F120
G01 X36.977803398875 Y-35.2611370504585 Z-1 F120
G01 X37.006211303259036 Y-35.205383398875 Z-1 F120
G01 X37.216 Y-35.14358000000001 Z-1 F120
G01 X37.19642260651806 Y-35.01997320225003 Z-1 F120
G01 X37.139606797749984 Y-34.90846589908302 Z-1 F120
G01 X37.05111410091699 Y-34.819973202250026 Z-1 F120
G01 X36.93960679774998 Y-34.76315739348195 Z-1 F120
G01 X36.816 Y-34.74358000000001 Z-1 F120
G01 X36.692393202250024 Y-34.76315739348194 Z-1 F120
G01 X36.580885899083015 Y-34.819973202250026 Z-1 F120
G01 X36.49239320225002 Y-34.90846589908302 Z-1 F120
G01 X36.43557739348194 Y-35.01997320225003 Z-1 F120
G01 X36.416000000000004 Y-35.14358000000001 Z-1 F120
G01 X36.43557739348194 Y-35.267186797749986 Z-1 F120
G01 X36.49239320225002 Y-35.378694100916995 Z-1 F120
G01 X36.580885899083015 Y-35.46718679774999 Z-1 F120
G01 X36.692393202250024 Y-35.52400260651807 Z-1 F120
G01 X36.816 Y-35.543580000000006 Z-1 F120
G01 X36.93960679774998 Y-35.52400260651807 Z-1 F120
G01 X37.05111410091699 Y-35.46718679774999 Z-1 F120
G01 X37.139606797749984 Y-35.378694100916995 Z-1 F120
G01 X37.19642260651806 Y-35.267186797749986 Z-1 F120
G01 X37.416000000000004 Y-35.14358000000001 Z-1 F120
G01 X37.386633909777096 Y-34.95816980337504 Z-1 F120
G01 X37.30141019662497 Y-34.790908848624525 Z-1 F120
G01 X37.16867115137549 Y-34.65816980337504 Z-1 F120
G01 X37.00141019662497 Y-34.57294609022291 Z-1 F120
G01 X36.816 Y-34.543580000000006 Z-1 F120
G01 X36.63058980337504 Y-34.57294609022291 Z-1 F120
G01 X36.46332884862452 Y-34.65816980337504 Z-1 F120
G01 X36.330589803375034 Y-34.790908848624525 Z-1 F120
G01 X36.24536609022291 Y-34.95816980337504 Z-1 F120
G01 X36.216 Y-35.14358000000001 Z-1 F120
G01 X36.24536609022291 Y-35.32899019662497 Z-1 F120
G01 X36.330589803375034 Y-35.49625115137549 Z-1 F120
G01 X36.46332884862452 Y-35.628990196624976 Z-1 F120
G01 X36.63058980337504 Y-35.7142139097771 Z-1 F120
G01 X36.816 Y-35.74358000000001 Z-1 F120
G01 X37.00141019662497 Y-35.7142139097771 Z-1 F120
G01 X37.16867115137549 Y-35.628990196624976 Z-1 F120
G01 X37.30141019662497 Y-35.49625115137549 Z-1 F120
G01 X37.386633909777096 Y-35.32899019662497 Z-1 F120
G01 X37.61600000000001 Y-35.14358000000001 Z-1 F120
G01 X37.57684521303613 Y-34.89636640450005 Z-1 F120
G01 X37.46321359549996 Y-34.673351798166024 Z-1 F120
G01 X37.286228201833985 Y-34.49636640450005 Z-1 F120
G01 X37.06321359549996 Y-34.38273478696388 Z-1 F120
G01 X36.816 Y-34.34358 Z-1 F120
G01 X36.568786404500045 Y-34.38273478696388 Z-1 F120
G01 X36.34577179816603 Y-34.49636640450005 Z-1 F120
G01 X36.16878640450005 Y-34.673351798166024 Z-1 F120
G01 X36.05515478696388 Y-34.89636640450005 Z-1 F120
G01 X36.016000000000005 Y-35.14358000000001 Z-1 F120
G01 X36.05515478696388 Y-35.390793595499964 Z-1 F120
G01 X36.16878640450005 Y-35.61380820183398 Z-1 F120
G01 X36.34577179816603 Y-35.79079359549996 Z-1 F120
G01 X36.568786404500045 Y-35.90442521303613 Z-1 F120
G01 X36.816 Y-35.943580000000004 Z-1 F120
G01 X37.06321359549996 Y-35.90442521303613 Z-1 F120
G01 X37.286228201833985 Y-35.79079359549996 Z-1 F120
G01 X37.46321359549996 Y-35.61380820183398 Z-1 F120
G01 X37.57684521303613 Y-35.390793595499964 Z-1 F120
G01 X37.816 Y-35.14358000000001 Z-1 F120
G01 X37.767056516295156 Y-34.83456300562506 Z-1 F120
G01 X37.62501699437495 Y-34.55579474770753 Z-1 F120
G01 X37.40378525229248 Y-34.33456300562506 Z-1 F120
G01 X37.12501699437495 Y-34.19252348370485 Z-1 F120
G01 X36.816 Y-34.14358000000001 Z-1 F120
G01 X36.50698300562506 Y-34.19252348370485 Z-1 F120
G01 X36.22821474770753 Y-34.33456300562506 Z-1 F120
G01 X36.00698300562506 Y-34.55579474770753 Z-1 F120
G01 X35.86494348370485 Y-34.83456300562506 Z-1 F120
G01 X35.816 Y-35.14358000000001 Z-1 F120
G01 X35.86494348370485 Y-35.45259699437495 Z-1 F120
G01 X36.00698300562506 Y-35.73136525229248 Z-1 F120
G01 X36.22821474770753 Y-35.95259699437495 Z-1 F120
G01 X36.50698300562506 Y-36.09463651629516 Z-1 F120
G01 X36.816 Y-36.14358000000001 Z-1 F120
G01 X37.12501699437495 Y-36.09463651629516 Z-1 F120
G01 X37.40378525229248 Y-35.95259699437495 Z-1 F120
G01 X37.62501699437495 Y-35.73136525229248 Z-1 F120
G01 X37.767056516295156 Y-35.45259699437495 Z-1 F120
G01 X38.016000000000005 Y-35.14358000000001 Z-1 F120
G01 X37.95726781955418 Y-34.77275960675007 Z-1 F120
G01 X37.78682039324994 Y-34.438237697249036 Z-1 F120
G01 X37.52134230275097 Y-34.17275960675007 Z-1 F120
G01 X37.18682039324994 Y-34.00231218044583 Z-1 F120
G01 X36.816 Y-33.943580000000004 Z-1 F120
G01 X36.44517960675007 Y-34.00231218044583 Z-1 F120
G01 X36.11065769724903 Y-34.17275960675007 Z-1 F120
G01 X35.845179606750065 Y-34.438237697249036 Z-1 F120
G01 X35.67473218044582 Y-34.77275960675007 Z-1 F120
G01 X35.61600000000001 Y-35.14358000000001 Z-1 F120
G01 X35.674732180445815 Y-35.51440039324994 Z-1 F120
G01 X35.845179606750065 Y-35.84892230275098 Z-1 F120
G01 X36.11065769724903 Y-36.114400393249944 Z-1 F120
G01 X36.44517960675007 Y-36.28484781955419 Z-1 F120
G01 X36.816 Y-36.34358 Z-1 F120
G01 X37.18682039324994 Y-36.28484781955419 Z-1 F120
G01 X37.52134230275097 Y-36.114400393249944 Z-1 F120
G01 X37.78682039324994 Y-35.84892230275098 Z-1 F120
G01 X37.95726781955418 Y-35.51440039324994 Z-1 F120
G01 X38.216 Y-35.14358000000001 Z-1 F120
G01 X38.14747912281322 Y-34.71095620787508 Z-1 F120
G01 X37.948623792124934 Y-34.32068064679054 Z-1 F120
G01 X37.63889935320947 Y-34.010956207875076 Z-1 F120
G01 X37.24862379212493 Y-33.81210087718679 Z-1 F120
G01 X36.816 Y-33.74358000000001 Z-1 F120
G01 X36.383376207875074 Y-33.81210087718679 Z-1 F120
G01 X35.99310064679054 Y-34.010956207875076 Z-1 F120
G01 X35.68337620787508 Y-34.32068064679054 Z-1 F120
G01 X35.48452087718679 Y-34.71095620787508 Z-1 F120
G01 X35.416000000000004 Y-35.14358000000001 Z-1 F120
G01 X35.48452087718679 Y-35.576203792124936 Z-1 F120
G01 X35.68337620787508 Y-35.96647935320947 Z-1 F120
G01 X35.99310064679054 Y-36.27620379212493 Z-1 F120
G01 X36.383376207875074 Y-36.47505912281322 Z-1 F120
G01 X36.816 Y-36.543580000000006 Z-1 F120
G01 X37.24862379212493 Y-36.47505912281322 Z-1 F120
G01 X37.63889935320947 Y-36.27620379212493 Z-1 F120
G01 X37.948623792124934 Y-35.96647935320947 Z-1 F120
G01 X38.14747912281322 Y-35.576203792124936 Z-1 F120
G01 X38.416000000000004 Y-35.14358000000001 Z-1 F120
G01 X38.33769042607225 Y-34.649152809000086 Z-1 F120
G01 X38.11042719099992 Y-34.20312359633205 Z-1 F120
G01 X37.75645640366796 Y-33.84915280900009 Z-1 F120
G01 X37.310427190999924 Y-33.62188957392776 Z-1 F120
G01 X36.816 Y-33.543580000000006 Z-1 F120
G01 X36.32157280900009 Y-33.62188957392776 Z-1 F120
G01 X35.875543596332044 Y-33.84915280900009 Z-1 F120
G01 X35.52157280900009 Y-34.20312359633205 Z-1 F120
G01 X35.294309573927755 Y-34.649152809000086 Z-1 F120
G01 X35.216 Y-35.14358000000001 Z-1 F120
G01 X35.294309573927755 Y-35.63800719099992 Z-1 F120
G01 X35.521572809000084 Y-36.084036403667966 Z-1 F120
G01 X35.875543596332044 Y-36.438007190999926 Z-1 F120
G01 X36.32157280900009 Y-36.665270426072254 Z-1 F120
G01 X36.816 Y-36.74358000000001 Z-1 F120
G01 X37.31042719099992 Y-36.665270426072254 Z-1 F120
G01 X37.75645640366796 Y-36.438007190999926 Z-1 F120
G01 X38.110427190999914 Y-36.084036403667966 Z-1 F120
G01 X38.33769042607225 Y-35.63800719099992 Z-1 F120
G01 X38.61600000000001 Y-35.14358000000001 Z-1 F120
G01 X38.527901729331276 Y-34.5873494101251 Z-1 F120
G01 X38.27223058987491 Y-34.085566545873554 Z-1 F120
G01 X37.874013454126455 Y-33.6873494101251 Z-1 F120
G01 X37.37223058987491 Y-33.43167827066873 Z-1 F120
G01 X36.816 Y-33.34358 Z-1 F120
G01 X36.2597694101251 Y-33.43167827066873 Z-1 F120
G01 X35.75798654587355 Y-33.6873494101251 Z-1 F120
G01 X35.3597694101251 Y-34.085566545873554 Z-1 F120
G01 X35.10409827066873 Y-34.5873494101251 Z-1 F120
G01 X35.016000000000005 Y-35.14358000000001 Z-1 F120
G01 X35.10409827066873 Y-35.69981058987491 Z-1 F120
G01 X35.3597694101251 Y-36.20159345412646 Z-1 F120
G01 X35.75798654587355 Y-36.59981058987491 Z-1 F120
G01 X36.2597694101251 Y-36.85548172933128 Z-1 F120
G01 X36.816 Y-36.943580000000004 Z-1 F120
G01 X37.37223058987491 Y-36.85548172933128 Z-1 F120
G01 X37.874013454126455 Y-36.59981058987491 Z-1 F120
G01 X38.27223058987491 Y-36.20159345412646 Z-1 F120
G01 X38.527901729331276 Y-35.69981058987491 Z-1 F120
G01 X38.9624 Y-35.14358000000001 Z-1 F120
G01 X38.85734770657592 Y-34.48030592327362 Z-1 F120
G01 X38.55247407672639 Y-33.88195773447944 Z-1 F120
G01 X38.07762226552057 Y-33.40710592327362 Z-1 F120
G01 X37.47927407672639 Y-33.10223229342409 Z-1 F120
G01 X36.816 Y-32.99718000000001 Z-1 F120
G01 X36.152725923273614 Y-33.10223229342409 Z-1 F120
G01 X35.55437773447944 Y-33.40710592327362 Z-1 F120
G01 X35.07952592327362 Y-33.88195773447944 Z-1 F120
G01 X34.77465229342409 Y-34.48030592327362 Z-1 F120
G01 X34.6696 Y-35.14358000000001 Z-1 F120
G01 X34.77465229342409 Y-35.806854076726395 Z-1 F120
G01 X35.07952592327362 Y-36.40520226552057 Z-1 F120
G01 X35.55437773447944 Y-36.880054076726395 Z-1 F120
G01 X36.152725923273614 Y-37.18492770657592 Z-1 F120
G01 X36.816 Y-37.28998000000001 Z-1 F120
G01 X37.47927407672639 Y-37.18492770657592 Z-1 F120
G01 X38.07762226552057 Y-36.880054076726395 Z-1 F120
G01 X38.55247407672639 Y-36.40520226552057 Z-1 F120
G01 X38.85734770657592 Y-35.806854076726395 Z-1 F120
G01 X36.816 Y-35.14358000000001 Z-2 F120
G01 X36.816 Y-35.14358000000001 Z-2 F120
G01 X36.816 Y-35.14358000000001 Z-2 F120
G01 X36.816 Y-35.14358000000001 Z-2 F120
G01 X36.816 Y-35.14358000000001 Z-2 F120
G01 X36.816 Y-35.14358000000001 Z-2 F120
G01 X36.816 Y-35.14358000000001 Z-2 F120
G01 X36.816 Y-35.14358000000001 Z-2 F120
G01 X36.816 Y-35.14358000000001 Z-2 F120
G01 X36.816 Y-35.14358000000001 Z-2 F120
G01 X36.816 Y-35.14358000000001 Z-2 F120
G01 X36.816 Y-35.14358000000001 Z-2 F120
G01 X36.816 Y-35.14358000000001 Z-2 F120
G01 X36.816 Y-35.14358000000001 Z-2 F120
G01 X36.816 Y-35.14358000000001 Z-2 F120
G01 X36.816 Y-35.14358000000001 Z-2 F120
G01 X36.816 Y-35.14358000000001 Z-2 F120
G01 X36.816 Y-35.14358000000001 Z-2 F120
G01 X36.816 Y-35.14358000000001 Z-2 F120
G01 X36.816 Y-35.14358000000001 Z-2 F120
G01 X37.016000000000005 Y-35.14358000000001 Z-2 F120
G01 X37.006211303259036 Y-35.081776601125014 Z-2 F120
G01 X36.977803398875 Y-35.02602294954151 Z-2 F120
G01 X36.9335570504585 Y-34.98177660112501 Z-2 F120
G01 X36.877803398874995 Y-34.953368696740974 Z-2 F120
G01 X36.816 Y-34.943580000000004 Z-2 F120
G01 X36.75419660112502 Y-34.953368696740974 Z-2 F120
G01 X36.69844294954151 Y-34.98177660112501 Z-2 F120
G01 X36.654196601125015 Y-35.02602294954151 Z-2 F120
G01 X36.625788696740976 Y-35.081776601125014 Z-2 F120
G01 X36.61600000000001 Y-35.14358000000001 Z-2 F120
G01 X36.625788696740976 Y-35.205383398875 Z-2 F120
G01 X36.654196601125015 Y-35.2611370504585 Z-2 F120
G01 X36.69844294954151 Y-35.305383398874994 Z-2 F120
G01 X36.75419660112502 Y-35.333791303259034 Z-2 F120
G01 X36.816 Y-35.34358 Z-2 F120
G01 X36.877803398874995 Y-35.333791303259034 Z-2 F120
G01 X36.9335570504585 Y-35.305383398874994 Z-2 F120
G01 X36.977803398875 Y-35.2611370504585 Z-2 F120
G01 X37.006211303259036 Y-35.205383398875 Z-2 F120
G01 X37.216 Y-35.14358000000001 Z-2 F120
G01 X37.19642260651806 Y-35.01997320225003 Z-2 F120
G01 X37.139606797749984 Y-34.90846589908302 Z-2 F120
G01 X37.05111410091699 Y-34.819973202250026 Z-2 F120
G01 X36.93960679774998 Y-34.76315739348195 Z-2 F120
G01 X36.816 Y-34.74358000000001 Z-2 F120
G01 X36.692393202250024 Y-34.76315739348194 Z-2 F120
G01 X36.580885899083015 Y-34.819973202250026 Z-2 F120
G01 X36.49239320225002 Y-34.90846589908302 Z-2 F120
G01 X36.43557739348194 Y-35.01997320225003 Z-2 F120
G01 X36.416000000000004 Y-35.14358000000001 Z-2 F120
G01 X36.43557739348194 Y-35.267186797749986 Z-2 F120
G01 X36.49239320225002 Y-35.378694100916995 Z-2 F120
G01 X36.580885899083015 Y-35.46718679774999 Z-2 F120
G01 X36.692393202250024 Y-35.52400260651807 Z-2 F120
G01 X36.816 Y-35.543580000000006 Z-2 F120
G01 X36.93960679774998 Y-35.52400260651807 Z-2 F120
G01 X37.05111410091699 Y-35.46718679774999 Z-2 F120
G01 X37.139606797749984 Y-35.378694100916995 Z-2 F120
G01 X37.19642260651806 Y-35.267186797749986 Z-2 F120
G01 X37.416000000000004 Y-35.14358000000001 Z-2 F120
G01 X37.386633909777096 Y-34.95816980337504 Z-2 F120
G01 X37.30141019662497 Y-34.790908848624525 Z-2 F120
G01 X37.16867115137549 Y-34.65816980337504 Z-2 F120
G01 X37.00141019662497 Y-34.57294609022291 Z-2 F120
G01 X36.816 Y-34.543580000000006 Z-2 F120
G01 X36.63058980337504 Y-34.57294609022291 Z-2 F120
G01 X36.46332884862452 Y-34.65816980337504 Z-2 F120
G01 X36.330589803375034 Y-34.790908848624525 Z-2 F120
G01 X36.24536609022291 Y-34.95816980337504 Z-2 F120
G01 X36.216 Y-35.14358000000001 Z-2 F120
G01 X36.24536609022291 Y-35.32899019662497 Z-2 F120
G01 X36.330589803375034 Y-35.49625115137549 Z-2 F120
G01 X36.46332884862452 Y-35.628990196624976 Z-2 F120
G01 X36.63058980337504 Y-35.7142139097771 Z-2 F120
G01 X36.816 Y-35.74358000000001 Z-2 F120
G01 X37.00141019662497 Y-35.7142139097771 Z-2 F120
G01 X37.16867115137549 Y-35.628990196624976 Z-2 F120
G01 X37.30141019662497 Y-35.49625115137549 Z-2 F120
G01 X37.386633909777096 Y-35.32899019662497 Z-2 F120
G01 X37.61600000000001 Y-35.14358000000001 Z-2 F120
G01 X37.57684521303613 Y-34.89636640450005 Z-2 F120
G01 X37.46321359549996 Y-34.673351798166024 Z-2 F120
G01 X37.286228201833985 Y-34.49636640450005 Z-2 F120
G01 X37.06321359549996 Y-34.38273478696388 Z-2 F120
G01 X36.816 Y-34.34358 Z-2 F120
G01 X36.568786404500045 Y-34.38273478696388 Z-2 F120
G01 X36.34577179816603 Y-34.49636640450005 Z-2 F120
G01 X36.16878640450005 Y-34.673351798166024 Z-2 F120
G01 X36.05515478696388 Y-34.89636640450005 Z-2 F120
G01 X36.016000000000005 Y-35.14358000000001 Z-2 F120
G01 X36.05515478696388 Y-35.390793595499964 Z-2 F120
G01 X36.16878640450005 Y-35.61380820183398 Z-2 F120
G01 X36.34577179816603 Y-35.79079359549996 Z-2 F120
G01 X36.568786404500045 Y-35.90442521303613 Z-2 F120
G01 X36.816 Y-35.943580000000004 Z-2 F120
G01 X37.06321359549996 Y-35.90442521303613 Z-2 F120
G01 X37.286228201833985 Y-35.79079359549996 Z-2 F120
G01 X37.46321359549996 Y-35.61380820183398 Z-2 F120
G01 X37.57684521303613 Y-35.390793595499964 Z-2 F120
G01 X37.816 Y-35.14358000000001 Z-2 F120
G01 X37.767056516295156 Y-34.83456300562506 Z-2 F120
G01 X37.62501699437495 Y-34.55579474770753 Z-2 F120
G01 X37.40378525229248 Y-34.33456300562506 Z-2 F120
G01 X37.12501699437495 Y-34.19252348370485 Z-2 F120
G01 X36.816 Y-34.14358000000001 Z-2 F120
G01 X36.50698300562506 Y-34.19252348370485 Z-2 F120
G01 X36.22821474770753 Y-34.33456300562506 Z-2 F120
G01 X36.00698300562506 Y-34.55579474770753 Z-2 F120
G01 X35.86494348370485 Y-34.83456300562506 Z-2 F120
G01 X35.816 Y-35.14358000000001 Z-2 F120
G01 X35.86494348370485 Y-35.45259699437495 Z-2 F120
G01 X36.00698300562506 Y-35.73136525229248 Z-2 F120
G01 X36.22821474770753 Y-35.95259699437495 Z-2 F120
G01 X36.50698300562506 Y-36.09463651629516 Z-2 F120
G01 X36.816 Y-36.14358000000001 Z-2 F120
G01 X37.12501699437495 Y-36.09463651629516 Z-2 F120
G01 X37.40378525229248 Y-35.95259699437495 Z-2 F120
G01 X37.62501699437495 Y-35.73136525229248 Z-2 F120
G01 X37.767056516295156 Y-35.45259699437495 Z-2 F120
G01 X38.016000000000005 Y-35.14358000000001 Z-2 F120
G01 X37.95726781955418 Y-34.77275960675007 Z-2 F120
G01 X37.78682039324994 Y-34.438237697249036 Z-2 F120
G01 X37.52134230275097 Y-34.17275960675007 Z-2 F120
G01 X37.18682039324994 Y-34.00231218044583 Z-2 F120
G01 X36.816 Y-33.943580000000004 Z-2 F120
G01 X36.44517960675007 Y-34.00231218044583 Z-2 F120
G01 X36.11065769724903 Y-34.17275960675007 Z-2 F120
G01 X35.845179606750065 Y-34.438237697249036 Z-2 F120
G01 X35.67473218044582 Y-34.77275960675007 Z-2 F120
G01 X35.61600000000001 Y-35.14358000000001 Z-2 F120
G01 X35.674732180445815 Y-35.51440039324994 Z-2 F120
G01 X35.845179606750065 Y-35.84892230275098 Z-2 F120
G01 X36.11065769724903 Y-36.114400393249944 Z-2 F120
G01 X36.44517960675007 Y-36.28484781955419 Z-2 F120
G01 X36.816 Y-36.34358 Z-2 F120
G01 X37.18682039324994 Y-36.28484781955419 Z-2 F120
G01 X37.52134230275097 Y-36.114400393249944 Z-2 F120
G01 X37.78682039324994 Y-35.84892230275098 Z-2 F120
G01 X37.95726781955418 Y-35.51440039324994 Z-2 F120
G01 X38.216 Y-35.14358000000001 Z-2 F120
G01 X38.14747912281322 Y-34.71095620787508 Z-2 F120
G01 X37.948623792124934 Y-34.32068064679054 Z-2 F120
G01 X37.63889935320947 Y-34.010956207875076 Z-2 F120
G01 X37.24862379212493 Y-33.81210087718679 Z-2 F120
G01 X36.816 Y-33.74358000000001 Z-2 F120
G01 X36.383376207875074 Y-33.81210087718679 Z-2 F120
G01 X35.99310064679054 Y-34.010956207875076 Z-2 F120
G01 X35.68337620787508 Y-34.32068064679054 Z-2 F120
G01 X35.48452087718679 Y-34.71095620787508 Z-2 F120
G01 X35.416000000000004 Y-35.14358000000001 Z-2 F120
G01 X35.48452087718679 Y-35.576203792124936 Z-2 F120
G01 X35.68337620787508 Y-35.96647935320947 Z-2 F120
G01 X35.99310064679054 Y-36.27620379212493 Z-2 F120
G01 X36.383376207875074 Y-36.47505912281322 Z-2 F120
G01 X36.816 Y-36.543580000000006 Z-2 F120
G01 X37.24862379212493 Y-36.47505912281322 Z-2 F120
G01 X37.63889935320947 Y-36.27620379212493 Z-2 F120
G01 X37.948623792124934 Y-35.96647935320947 Z-2 F120
G01 X38.14747912281322 Y-35.576203792124936 Z-2 F120
G01 X38.416000000000004 Y-35.14358000000001 Z-2 F120
G01 X38.33769042607225 Y-34.649152809000086 Z-2 F120
G01 X38.11042719099992 Y-34.20312359633205 Z-2 F120
G01 X37.75645640366796 Y-33.84915280900009 Z-2 F120
G01 X37.310427190999924 Y-33.62188957392776 Z-2 F120
G01 X36.816 Y-33.543580000000006 Z-2 F120
G01 X36.32157280900009 Y-33.62188957392776 Z-2 F120
G01 X35.875543596332044 Y-33.84915280900009 Z-2 F120
G01 X35.52157280900009 Y-34.20312359633205 Z-2 F120
G01 X35.294309573927755 Y-34.649152809000086 Z-2 F120
G01 X35.216 Y-35.14358000000001 Z-2 F120
G01 X35.294309573927755 Y-35.63800719099992 Z-2 F120
G01 X35.521572809000084 Y-36.084036403667966 Z-2 F120
G01 X35.875543596332044 Y-36.438007190999926 Z-2 F120
G01 X36.32157280900009 Y-36.665270426072254 Z-2 F120
G01 X36.816 Y-36.74358000000001 Z-2 F120
G01 X37.31042719099992 Y-36.665270426072254 Z-2 F120
G01 X37.75645640366796 Y-36.438007190999926 Z-2 F120
G01 X38.110427190999914 Y-36.084036403667966 Z-2 F120
G01 X38.33769042607225 Y-35.63800719099992 Z-2 F120
G01 X38.61600000000001 Y-35.14358000000001 Z-2 F120
G01 X38.527901729331276 Y-34.5873494101251 Z-2 F120
G01 X38.27223058987491 Y-34.085566545873554 Z-2 F120
G01 X37.874013454126455 Y-33.6873494101251 Z-2 F120
G01 X37.37223058987491 Y-33.43167827066873 Z-2 F120
G01 X36.816 Y-33.34358 Z-2 F120
G01 X36.2597694101251 Y-33.43167827066873 Z-2 F120
G01 X35.75798654587355 Y-33.6873494101251 Z-2 F120
G01 X35.3597694101251 Y-34.085566545873554 Z-2 F120
G01 X35.10409827066873 Y-34.5873494101251 Z-2 F120
G01 X35.016000000000005 Y-35.14358000000001 Z-2 F120
G01 X35.10409827066873 Y-35.69981058987491 Z-2 F120
G01 X35.3597694101251 Y-36.20159345412646 Z-2 F120
G01 X35.75798654587355 Y-36.59981058987491 Z-2 F120
G01 X36.2597694101251 Y-36.85548172933128 Z-2 F120
G01 X36.816 Y-36.943580000000004 Z-2 F120
G01 X37.37223058987491 Y-36.85548172933128 Z-2 F120
G01 X37.874013454126455 Y-36.59981058987491 Z-2 F120
G01 X38.27223058987491 Y-36.20159345412646 Z-2 F120
G01 X38.527901729331276 Y-35.69981058987491 Z-2 F120
G01 X38.9624 Y-35.14358000000001 Z-2 F120
G01 X38.85734770657592 Y-34.48030592327362 Z-2 F120
G01 X38.55247407672639 Y-33.88195773447944 Z-2 F120
G01 X38.07762226552057 Y-33.40710592327362 Z-2 F120
G01 X37.47927407672639 Y-33.10223229342409 Z-2 F120
G01 X36.816 Y-32.99718000000001 Z-2 F120
G01 X36.152725923273614 Y-33.10223229342409 Z-2 F120
G01 X35.55437773447944 Y-33.40710592327362 Z-2 F120
G01 X35.07952592327362 Y-33.88195773447944 Z-2 F120
G01 X34.77465229342409 Y-34.48030592327362 Z-2 F120
G01 X34.6696 Y-35.14358000000001 Z-2 F120
G01 X34.77465229342409 Y-35.806854076726395 Z-2 F120
G01 X35.07952592327362 Y-36.40520226552057 Z-2 F120
G01 X35.55437773447944 Y-36.880054076726395 Z-2 F120
G01 X36.152725923273614 Y-37.18492770657592 Z-2 F120
G01 X36.816 Y-37.28998000000001 Z-2 F120
G01 X37.47927407672639 Y-37.18492770657592 Z-2 F120
G01 X38.07762226552057 Y-36.880054076726395 Z-2 F120
G01 X38.55247407672639 Y-36.40520226552057 Z-2 F120
G01 X38.85734770657592 Y-35.806854076726395 Z-2 F120
M05
G00 X36.816 Y-35.14358000000001 Z3 F1500
G00 X50.784 Y-39.080580000000005 Z3 F1500
M03 S18000
G00 X50.784 Y-39.080580000000005 Z1 F1500
G01 X50.784 Y-39.080580000000005 Z0 F120
G00 X50.784 Y-39.080580000000005 Z1 F1500
G01 X50.784 Y-39.080580000000005 Z-1 F120
G00 X50.784 Y-39.080580000000005 Z1 F1500
G01 X50.784 Y-39.080580000000005 Z-2 F120
G00 X50.784 Y-39.080580000000005 Z1 F1500
M05
G00 X50.784 Y-39.080580000000005 Z3 F1500
G00 X50.784 Y-40.080580000000005 Z3 F1500
M03 S18000
G00 X50.784 Y-40.080580000000005 Z1 F1500
G01 X50.784 Y-40.080580000000005 Z0 F120
G00 X50.784 Y-40.080580000000005 Z1 F1500
G01 X50.784 Y-40.080580000000005 Z-1 F120
G00 X50.784 Y-40.080580000000005 Z1 F1500
G01 X50.784 Y-40.080580000000005 Z-2 F120
G00 X50.784 Y-40.080580000000005 Z1 F1500
M05
G00 X50.784 Y-40.080580000000005 Z3 F1500
G00 X48.785 Y-39.080580000000005 Z3 F1500
M03 S18000
G00 X48.785 Y-39.080580000000005 Z1 F1500
G01 X48.785 Y-39.080580000000005 Z0 F120
G00 X48.785 Y-39.080580000000005 Z1 F1500
G01 X48.785 Y-39.080580000000005 Z-1 F120
G00 X48.785 Y-39.080580000000005 Z1 F1500
G01 X48.785 Y-39.080580000000005 Z-2 F120
G00 X48.785 Y-39.080580000000005 Z1 F1500
M05
G00 X48.785 Y-39.080580000000005 Z3 F1500
G00 X48.785 Y-40.080580000000005 Z3 F1500
M03 S18000
G00 X48.785 Y-40.080580000000005 Z1 F1500
G01 X48.785 Y-40.080580000000005 Z0 F120
G00 X48.785 Y-40.080580000000005 Z1 F1500
G01 X48.785 Y-40.080580000000005 Z-1 F120
G00 X48.785 Y-40.080580000000005 Z1 F1500
G01 X48.785 Y-40.080580000000005 Z-2 F120
G00 X48.785 Y-40.080580000000005 Z1 F1500
M05
G00 X48.785 Y-40.080580000000005 Z3 F1500
G00 X50.784 Y-38.080580000000005 Z3 F1500
M03 S18000
G00 X50.784 Y-38.080580000000005 Z1 F1500
G01 X50.784 Y-38.080580000000005 Z0 F120
G00 X50.784 Y-38.080580000000005 Z1 F1500
G01 X50.784 Y-38.080580000000005 Z-1 F120
G00 X50.784 Y-38.080580000000005 Z1 F1500
G01 X50.784 Y-38.080580000000005 Z-2 F120
G00 X50.784 Y-38.080580000000005 Z1 F1500
M05
G00 X50.784 Y-38.080580000000005 Z3 F1500
G00 X48.784 Y-38.080580000000005 Z3 F1500
M03 S18000
G00 X48.784 Y-38.080580000000005 Z1 F1500
G01 X48.784 Y-38.080580000000005 Z0 F120
G00 X48.784 Y-38.080580000000005 Z1 F1500
G01 X48.784 Y-38.080580000000005 Z-1 F120
G00 X48.784 Y-38.080580000000005 Z1 F1500
G01 X48.784 Y-38.080580000000005 Z-2 F120
G00 X48.784 Y-38.080580000000005 Z1 F1500
M05
G00 X48.784 Y-38.080580000000005 Z3 F1500
G00 X49.784 Y-39.080580000000005 Z3 F1500
M03 S18000
G00 X49.784 Y-39.080580000000005 Z1 F1500
G01 X49.784 Y-39.080580000000005 Z0 F120
G00 X49.784 Y-39.080580000000005 Z1 F1500
G01 X49.784 Y-39.080580000000005 Z-1 F120
G00 X49.784 Y-39.080580000000005 Z1 F1500
G01 X49.784 Y-39.080580000000005 Z-2 F120
G00 X49.784 Y-39.080580000000005 Z1 F1500
M05
G00 X49.784 Y-39.080580000000005 Z3 F1500
G00 X49.785 Y-38.080580000000005 Z3 F1500
M03 S18000
G00 X49.785 Y-38.080580000000005 Z1 F1500
G01 X49.785 Y-38.080580000000005 Z0 F120
G00 X49.785 Y-38.080580000000005 Z1 F1500
G01 X49.785 Y-38.080580000000005 Z-1 F120
G00 X49.785 Y-38.080580000000005 Z1 F1500
G01 X49.785 Y-38.080580000000005 Z-2 F120
G00 X49.785 Y-38.080580000000005 Z1 F1500
M05
G00 X49.785 Y-38.080580000000005 Z3 F1500
G00 X49.784 Y-40.080580000000005 Z3 F1500
M03 S18000
G00 X49.784 Y-40.080580000000005 Z1 F1500
G01 X49.784 Y-40.080580000000005 Z0 F120
G00 X49.784 Y-40.080580000000005 Z1 F1500
G01 X49.784 Y-40.080580000000005 Z-1 F120
G00 X49.784 Y-40.080580000000005 Z1 F1500
G01 X49.784 Y-40.080580000000005 Z-2 F120
G00 X49.784 Y-40.080580000000005 Z1 F1500
M05
G00 X49.784 Y-40.080580000000005 Z3 F1500
G00 X52.143 Y-44.38958 Z3 F1500
M03 S18000
G00 X52.143 Y-44.38958 Z1 F1500
G01 X52.143 Y-44.38958 Z0 F120
G00 X52.143 Y-44.38958 Z1 F1500
G01 X52.143 Y-44.38958 Z-1 F120
G00 X52.143 Y-44.38958 Z1 F1500
G01 X52.143 Y-44.38958 Z-2 F120
G00 X52.143 Y-44.38958 Z1 F1500
M05
G00 X52.143 Y-44.38958 Z3 F1500
G00 X54.94 Y-34.866580000000006 Z3 F1500
M03 S18000
G00 X54.94 Y-34.866580000000006 Z1 F1500
G01 X54.94 Y-34.866580000000006 Z0 F120
G00 X54.94 Y-34.866580000000006 Z1 F1500
G01 X54.94 Y-34.866580000000006 Z-1 F120
G00 X54.94 Y-34.866580000000006 Z1 F1500
G01 X54.94 Y-34.866580000000006 Z-2 F120
G00 X54.94 Y-34.866580000000006 Z1 F1500
M05
G00 X54.94 Y-34.866580000000006 Z3 F1500
G00 X62.213 Y-46.46658 Z3 F1500
M03 S18000
G00 X62.213 Y-46.46658 Z1 F1500
G01 X62.213 Y-46.46658 Z0 F120
G00 X62.213 Y-46.46658 Z1 F1500
G01 X62.213 Y-46.46658 Z-1 F120
G00 X62.213 Y-46.46658 Z1 F1500
G01 X62.213 Y-46.46658 Z-2 F120
G00 X62.213 Y-46.46658 Z1 F1500
M05
G00 X62.213 Y-46.46658 Z3 F1500
G00 X47.61 Y-36.616580000000006 Z3 F1500
M03 S18000
G00 X47.61 Y-36.616580000000006 Z1 F1500
G01 X47.61 Y-36.616580000000006 Z0 F120
G00 X47.61 Y-36.616580000000006 Z1 F1500
G01 X47.61 Y-36.616580000000006 Z-1 F120
G00 X47.61 Y-36.616580000000006 Z1 F1500
G01 X47.61 Y-36.616580000000006 Z-2 F120
G00 X47.61 Y-36.616580000000006 Z1 F1500
M05
G00 X47.61 Y-36.616580000000006 Z3 F1500
G00 X27.755 Y-36.08458000000001 Z3 F1500
M03 S18000
G00 X27.755 Y-36.08458000000001 Z1 F1500
G01 X27.755 Y-36.08458000000001 Z0 F120
G00 X27.755 Y-36.08458000000001 Z1 F1500
G01 X27.755 Y-36.08458000000001 Z-1 F120
G00 X27.755 Y-36.08458000000001 Z1 F1500
G01 X27.755 Y-36.08458000000001 Z-2 F120
G00 X27.755 Y-36.08458000000001 Z1 F1500
M05
G00 X27.755 Y-36.08458000000001 Z3 F1500
G00 X44.297 Y-36.11158000000001 Z3 F1500
M03 S18000
G00 X44.297 Y-36.11158000000001 Z1 F1500
G01 X44.297 Y-36.11158000000001 Z0 F120
G00 X44.297 Y-36.11158000000001 Z1 F1500
G01 X44.297 Y-36.11158000000001 Z-1 F120
G00 X44.297 Y-36.11158000000001 Z1 F1500
G01 X44.297 Y-36.11158000000001 Z-2 F120
G00 X44.297 Y-36.11158000000001 Z1 F1500
M05
G00 X44.297 Y-36.11158000000001 Z3 F1500
G00 X43.942 Y-39.58858 Z3 F1500
M03 S18000
G00 X43.942 Y-39.58858 Z1 F1500
G01 X43.942 Y-39.58858 Z0 F120
G00 X43.942 Y-39.58858 Z1 F1500
G01 X43.942 Y-39.58858 Z-1 F120
G00 X43.942 Y-39.58858 Z1 F1500
G01 X43.942 Y-39.58858 Z-2 F120
G00 X43.942 Y-39.58858 Z1 F1500
M05
G00 X43.942 Y-39.58858 Z3 F1500
G00 X52.321 Y-40.580580000000005 Z3 F1500
M03 S18000
G00 X52.321 Y-40.580580000000005 Z1 F1500
G01 X52.321 Y-40.580580000000005 Z0 F120
G00 X52.321 Y-40.580580000000005 Z1 F1500
G01 X52.321 Y-40.580580000000005 Z-1 F120
G00 X52.321 Y-40.580580000000005 Z1 F1500
G01 X52.321 Y-40.580580000000005 Z-2 F120
G00 X52.321 Y-40.580580000000005 Z1 F1500
M05
G00 X52.321 Y-40.580580000000005 Z3 F1500
G00 X47.181999999999995 Y-38.080580000000005 Z3 F1500
M03 S18000
G00 X47.181999999999995 Y-38.080580000000005 Z1 F1500
G01 X47.181999999999995 Y-38.080580000000005 Z0 F120
G00 X47.181999999999995 Y-38.080580000000005 Z1 F1500
G01 X47.181999999999995 Y-38.080580000000005 Z-1 F120
G00 X47.181999999999995 Y-38.080580000000005 Z1 F1500
G01 X47.181999999999995 Y-38.080580000000005 Z-2 F120
G00 X47.181999999999995 Y-38.080580000000005 Z1 F1500
M05
G00 X47.181999999999995 Y-38.080580000000005 Z3 F1500
G00 X56.56100000000001 Y-30.722580000000004 Z3 F1500
M03 S18000
G00 X56.56100000000001 Y-30.722580000000004 Z1 F1500
G01 X56.56100000000001 Y-30.722580000000004 Z0 F120
G00 X56.56100000000001 Y-30.722580000000004 Z1 F1500
G01 X56.56100000000001 Y-30.722580000000004 Z-1 F120
G00 X56.56100000000001 Y-30.722580000000004 Z1 F1500
G01 X56.56100000000001 Y-30.722580000000004 Z-2 F120
G00 X56.56100000000001 Y-30.722580000000004 Z1 F1500
M05
G00 X56.56100000000001 Y-30.722580000000004 Z3 F1500
G00 X50.73400000000001 Y-29.66858 Z3 F1500
M03 S18000
G00 X50.73400000000001 Y-29.66858 Z1 F1500
G01 X50.73400000000001 Y-29.66858 Z0 F120
G00 X50.73400000000001 Y-29.66858 Z1 F1500
G01 X50.73400000000001 Y-29.66858 Z-1 F120
G00 X50.73400000000001 Y-29.66858 Z1 F1500
G01 X50.73400000000001 Y-29.66858 Z-2 F120
G00 X50.73400000000001 Y-29.66858 Z1 F1500
M05
G00 X50.73400000000001 Y-29.66858 Z3 F1500
G00 X59.473 Y-30.262580000000007 Z3 F1500
M03 S18000
G00 X59.473 Y-30.262580000000007 Z1 F1500
G01 X59.473 Y-30.262580000000007 Z0 F120
G00 X59.473 Y-30.262580000000007 Z1 F1500
G01 X59.473 Y-30.262580000000007 Z-1 F120
G00 X59.473 Y-30.262580000000007 Z1 F1500
G01 X59.473 Y-30.262580000000007 Z-2 F120
G00 X59.473 Y-30.262580000000007 Z1 F1500
M05
G00 X59.473 Y-30.262580000000007 Z3 F1500
G00 X47.758 Y-26.012580000000007 Z3 F1500
M03 S18000
G00 X47.758 Y-26.012580000000007 Z1 F1500
G01 X47.758 Y-26.012580000000007 Z0 F120
G00 X47.758 Y-26.012580000000007 Z1 F1500
G01 X47.758 Y-26.012580000000007 Z-1 F120
G00 X47.758 Y-26.012580000000007 Z1 F1500
G01 X47.758 Y-26.012580000000007 Z-2 F120
G00 X47.758 Y-26.012580000000007 Z1 F1500
M05
G00 X47.758 Y-26.012580000000007 Z3 F1500
G00 X65.226 Y-32.556580000000004 Z3 F1500
M03 S18000
G00 X65.226 Y-32.556580000000004 Z1 F1500
G01 X65.226 Y-32.556580000000004 Z0 F120
G00 X65.226 Y-32.556580000000004 Z1 F1500
G01 X65.226 Y-32.556580000000004 Z-1 F120
G00 X65.226 Y-32.556580000000004 Z1 F1500
G01 X65.226 Y-32.556580000000004 Z-2 F120
G00 X65.226 Y-32.556580000000004 Z1 F1500
M05
G00 X65.226 Y-32.556580000000004 Z3 F1500
G00 X63.335 Y-49.92058000000001 Z3 F1500
M03 S18000
G00 X63.335 Y-49.92058000000001 Z1 F1500
G01 X63.335 Y-49.92058000000001 Z0 F120
G00 X63.335 Y-49.92058000000001 Z1 F1500
G01 X63.335 Y-49.92058000000001 Z-1 F120
G00 X63.335 Y-49.92058000000001 Z1 F1500
G01 X63.335 Y-49.92058000000001 Z-2 F120
G00 X63.335 Y-49.92058000000001 Z1 F1500
M05
G00 X63.335 Y-49.92058000000001 Z3 F1500
G00 X37.211 Y-31.587580000000013 Z3 F1500
M03 S18000
G00 X37.211 Y-31.587580000000013 Z1 F1500
G01 X37.211 Y-31.587580000000013 Z0 F120
G00 X37.211 Y-31.587580000000013 Z1 F1500
G01 X37.211 Y-31.587580000000013 Z-1 F120
G00 X37.211 Y-31.587580000000013 Z1 F1500
G01 X37.211 Y-31.587580000000013 Z-2 F120
G00 X37.211 Y-31.587580000000013 Z1 F1500
M05
G00 X37.211 Y-31.587580000000013 Z3 F1500
G00 X43.815 Y-38.19158000000001 Z3 F1500
M03 S18000
G00 X43.815 Y-38.19158000000001 Z1 F1500
G01 X43.815 Y-38.19158000000001 Z0 F120
G00 X43.815 Y-38.19158000000001 Z1 F1500
G01 X43.815 Y-38.19158000000001 Z-1 F120
G00 X43.815 Y-38.19158000000001 Z1 F1500
G01 X43.815 Y-38.19158000000001 Z-2 F120
G00 X43.815 Y-38.19158000000001 Z1 F1500
M05
G00 X43.815 Y-38.19158000000001 Z3 F1500
G00 X44.831 Y-39.20758 Z3 F1500
M03 S18000
G00 X44.831 Y-39.20758 Z1 F1500
G01 X44.831 Y-39.20758 Z0 F120
G00 X44.831 Y-39.20758 Z1 F1500
G01 X44.831 Y-39.20758 Z-1 F120
G00 X44.831 Y-39.20758 Z1 F1500
G01 X44.831 Y-39.20758 Z-2 F120
G00 X44.831 Y-39.20758 Z1 F1500
M05
G00 X44.831 Y-39.20758 Z3 F1500
G00 X44.958 Y-41.49358 Z3 F1500
M03 S18000
G00 X44.958 Y-41.49358 Z1 F1500
G01 X44.958 Y-41.49358 Z0 F120
G00 X44.958 Y-41.49358 Z1 F1500
G01 X44.958 Y-41.49358 Z-1 F120
G00 X44.958 Y-41.49358 Z1 F1500
G01 X44.958 Y-41.49358 Z-2 F120
G00 X44.958 Y-41.49358 Z1 F1500
M05
G00 X44.958 Y-41.49358 Z3 F1500
G00 X35.941 Y-43.39858 Z3 F1500
M03 S18000
G00 X35.941 Y-43.39858 Z1 F1500
G01 X35.941 Y-43.39858 Z0 F120
G00 X35.941 Y-43.39858 Z1 F1500
G01 X35.941 Y-43.39858 Z-1 F120
G00 X35.941 Y-43.39858 Z1 F1500
G01 X35.941 Y-43.39858 Z-2 F120
G00 X35.941 Y-43.39858 Z1 F1500
M05
G00 X35.941 Y-43.39858 Z3 F1500
G00 X34.345 Y-41.41858 Z3 F1500
M03 S18000
G00 X34.345 Y-41.41858 Z1 F1500
G01 X34.345 Y-41.41858 Z0 F120
G01 X34.345 Y-41.41858 Z0 F120
G01 X34.345 Y-41.41858 Z0 F120
G01 X34.345 Y-41.41858 Z0 F120
G01 X34.345 Y-41.41858 Z0 F120
G01 X34.345 Y-41.41858 Z0 F120
G01 X34.345 Y-41.41858 Z0 F120
G01 X34.345 Y-41.41858 Z0 F120
G01 X34.345 Y-41.41858 Z0 F120
G01 X34.345 Y-41.41858 Z0 F120
G01 X34.345 Y-41.41858 Z0 F120
G01 X34.345 Y-41.41858 Z0 F120
G01 X34.345 Y-41.41858 Z0 F120
G01 X34.345 Y-41.41858 Z0 F120
G01 X34.345 Y-41.41858 Z0 F120
G01 X34.345 Y-41.41858 Z0 F120
G01 X34.345 Y-41.41858 Z0 F120
G01 X34.345 Y-41.41858 Z0 F120
G01 X34.345 Y-41.41858 Z0 F120
G01 X34.345 Y-41.41858 Z0 F120
G01 X34.7409 Y-41.41858 Z0 F120
G01 X34.72152327480125 Y-41.296240171926954 Z0 F120
G01 X34.66528982807304 Y-41.18587581861741 Z0 F120
G01 X34.57770418138259 Y-41.098290171926955 Z0 F120
G01 X34.467339828073044 Y-41.042056725198755 Z0 F120
G01 X34.345 Y-41.02268 Z0 F120
G01 X34.22266017192696 Y-41.042056725198755 Z0 F120
G01 X34.11229581861741 Y-41.098290171926955 Z0 F120
G01 X34.024710171926955 Y-41.18587581861741 Z0 F120
G01 X33.96847672519875 Y-41.296240171926954 Z0 F120
G01 X33.9491 Y-41.41858 Z0 F120
G01 X33.96847672519875 Y-41.540919828073044 Z0 F120
G01 X34.024710171926955 Y-41.651284181382586 Z0 F120
G01 X34.11229581861741 Y-41.73886982807305 Z0 F120
G01 X34.22266017192696 Y-41.79510327480125 Z0 F120
G01 X34.345 Y-41.81448 Z0 F120
G01 X34.467339828073044 Y-41.79510327480125 Z0 F120
G01 X34.57770418138259 Y-41.73886982807305 Z0 F120
G01 X34.66528982807304 Y-41.651284181382586 Z0 F120
G01 X34.72152327480125 Y-41.540919828073044 Z0 F120
G01 X34.345 Y-41.41858 Z-1 F120
G01 X34.345 Y-41.41858 Z-1 F120
G01 X34.345 Y-41.41858 Z-1 F120
G01 X34.345 Y-41.41858 Z-1 F120
G01 X34.345 Y-41.41858 Z-1 F120
G01 X34.345 Y-41.41858 Z-1 F120
G01 X34.345 Y-41.41858 Z-1 F120
G01 X34.345 Y-41.41858 Z-1 F120
G01 X34.345 Y-41.41858 Z-1 F120
G01 X34.345 Y-41.41858 Z-1 F120
G01 X34.345 Y-41.41858 Z-1 F120
G01 X34.345 Y-41.41858 Z-1 F120
G01 X34.345 Y-41.41858 Z-1 F120
G01 X34.345 Y-41.41858 Z-1 F120
G01 X34.345 Y-41.41858 Z-1 F120
G01 X34.345 Y-41.41858 Z-1 F120
G01 X34.345 Y-41.41858 Z-1 F120
G01 X34.345 Y-41.41858 Z-1 F120
G01 X34.345 Y-41.41858 Z-1 F120
G01 X34.345 Y-41.41858 Z-1 F120
G01 X34.7409 Y-41.41858 Z-1 F120
G01 X34.72152327480125 Y-41.296240171926954 Z-1 F120
G01 X34.66528982807304 Y-41.18587581861741 Z-1 F120
G01 X34.57770418138259 Y-41.098290171926955 Z-1 F120
G01 X34.467339828073044 Y-41.042056725198755 Z-1 F120
G01 X34.345 Y-41.02268 Z-1 F120
G01 X34.22266017192696 Y-41.042056725198755 Z-1 F120
G01 X34.11229581861741 Y-41.098290171926955 Z-1 F120
G01 X34.024710171926955 Y-41.18587581861741 Z-1 F120
G01 X33.96847672519875 Y-41.296240171926954 Z-1 F120
G01 X33.9491 Y-41.41858 Z-1 F120
G01 X33.96847672519875 Y-41.540919828073044 Z-1 F120
G01 X34.024710171926955 Y-41.651284181382586 Z-1 F120
G01 X34.11229581861741 Y-41.73886982807305 Z-1 F120
G01 X34.22266017192696 Y-41.79510327480125 Z-1 F120
G01 X34.345 Y-41.81448 Z-1 F120
G01 X34.467339828073044 Y-41.79510327480125 Z-1 F120
G01 X34.57770418138259 Y-41.73886982807305 Z-1 F120
G01 X34.66528982807304 Y-41.651284181382586 Z-1 F120
G01 X34.72152327480125 Y-41.540919828073044 Z-1 F120
G01 X34.345 Y-41.41858 Z-2 F120
G01 X34.345 Y-41.41858 Z-2 F120
G01 X34.345 Y-41.41858 Z-2 F120
G01 X34.345 Y-41.41858 Z-2 F120
G01 X34.345 Y-41.41858 Z-2 F120
G01 X34.345 Y-41.41858 Z-2 F120
G01 X34.345 Y-41.41858 Z-2 F120
G01 X34.345 Y-41.41858 Z-2 F120
G01 X34.345 Y-41.41858 Z-2 F120
G01 X34.345 Y-41.41858 Z-2 F120
G01 X34.345 Y-41.41858 Z-2 F120
G01 X34.345 Y-41.41858 Z-2 F120
G01 X34.345 Y-41.41858 Z-2 F120
G01 X34.345 Y-41.41858 Z-2 F120
G01 X34.345 Y-41.41858 Z-2 F120
G01 X34.345 Y-41.41858 Z-2 F120
G01 X34.345 Y-41.41858 Z-2 F120
G01 X34.345 Y-41.41858 Z-2 F120
G01 X34.345 Y-41.41858 Z-2 F120
G01 X34.345 Y-41.41858 Z-2 F120
G01 X34.7409 Y-41.41858 Z-2 F120
G01 X34.72152327480125 Y-41.296240171926954 Z-2 F120
G01 X34.66528982807304 Y-41.18587581861741 Z-2 F120
G01 X34.57770418138259 Y-41.098290171926955 Z-2 F120
G01 X34.467339828073044 Y-41.042056725198755 Z-2 F120
G01 X34.345 Y-41.02268 Z-2 F120
G01 X34.22266017192696 Y-41.042056725198755 Z-2 F120
G01 X34.11229581861741 Y-41.098290171926955 Z-2 F120
G01 X34.024710171926955 Y-41.18587581861741 Z-2 F120
G01 X33.96847672519875 Y-41.296240171926954 Z-2 F120
G01 X33.9491 Y-41.41858 Z-2 F120
G01 X33.96847672519875 Y-41.540919828073044 Z-2 F120
G01 X34.024710171926955 Y-41.651284181382586 Z-2 F120
G01 X34.11229581861741 Y-41.73886982807305 Z-2 F120
G01 X34.22266017192696 Y-41.79510327480125 Z-2 F120
G01 X34.345 Y-41.81448 Z-2 F120
G01 X34.467339828073044 Y-41.79510327480125 Z-2 F120
G01 X34.57770418138259 Y-41.73886982807305 Z-2 F120
G01 X34.66528982807304 Y-41.651284181382586 Z-2 F120
G01 X34.72152327480125 Y-41.540919828073044 Z-2 F120
M05
G00 X34.345 Y-41.41858 Z3 F1500
G00 X36.345 Y-41.41858 Z3 F1500
M03 S18000
G00 X36.345 Y-41.41858 Z1 F1500
G01 X36.345 Y-41.41858 Z0 F120
G01 X36.345 Y-41.41858 Z0 F120
G01 X36.345 Y-41.41858 Z0 F120
G01 X36.345 Y-41.41858 Z0 F120
G01 X36.345 Y-41.41858 Z0 F120
G01 X36.345 Y-41.41858 Z0 F120
G01 X36.345 Y-41.41858 Z0 F120
G01 X36.345 Y-41.41858 Z0 F120
G01 X36.345 Y-41.41858 Z0 F120
G01 X36.345 Y-41.41858 Z0 F120
G01 X36.345 Y-41.41858 Z0 F120
G01 X36.345 Y-41.41858 Z0 F120
G01 X36.345 Y-41.41858 Z0 F120
G01 X36.345 Y-41.41858 Z0 F120
G01 X36.345 Y-41.41858 Z0 F120
G01 X36.345 Y-41.41858 Z0 F120
G01 X36.345 Y-41.41858 Z0 F120
G01 X36.345 Y-41.41858 Z0 F120
G01 X36.345 Y-41.41858 Z0 F120
G01 X36.345 Y-41.41858 Z0 F120
G01 X36.7409 Y-41.41858 Z0 F120
G01 X36.72152327480125 Y-41.296240171926954 Z0 F120
G01 X36.66528982807304 Y-41.18587581861741 Z0 F120
G01 X36.57770418138259 Y-41.098290171926955 Z0 F120
G01 X36.467339828073044 Y-41.042056725198755 Z0 F120
G01 X36.345 Y-41.02268 Z0 F120
G01 X36.22266017192696 Y-41.042056725198755 Z0 F120
G01 X36.11229581861741 Y-41.098290171926955 Z0 F120
G01 X36.024710171926955 Y-41.18587581861741 Z0 F120
G01 X35.96847672519875 Y-41.296240171926954 Z0 F120
G01 X35.9491 Y-41.41858 Z0 F120
G01 X35.96847672519875 Y-41.540919828073044 Z0 F120
G01 X36.024710171926955 Y-41.651284181382586 Z0 F120
G01 X36.11229581861741 Y-41.73886982807305 Z0 F120
G01 X36.22266017192696 Y-41.79510327480125 Z0 F120
G01 X36.345 Y-41.81448 Z0 F120
G01 X36.467339828073044 Y-41.79510327480125 Z0 F120
G01 X36.57770418138259 Y-41.73886982807305 Z0 F120
G01 X36.66528982807304 Y-41.651284181382586 Z0 F120
G01 X36.72152327480125 Y-41.540919828073044 Z0 F120
G01 X36.345 Y-41.41858 Z-1 F120
G01 X36.345 Y-41.41858 Z-1 F120
G01 X36.345 Y-41.41858 Z-1 F120
G01 X36.345 Y-41.41858 Z-1 F120
G01 X36.345 Y-41.41858 Z-1 F120
G01 X36.345 Y-41.41858 Z-1 F120
G01 X36.345 Y-41.41858 Z-1 F120
G01 X36.345 Y-41.41858 Z-1 F120
G01 X36.345 Y-41.41858 Z-1 F120
G01 X36.345 Y-41.41858 Z-1 F120
G01 X36.345 Y-41.41858 Z-1 F120
G01 X36.345 Y-41.41858 Z-1 F120
G01 X36.345 Y-41.41858 Z-1 F120
G01 X36.345 Y-41.41858 Z-1 F120
G01 X36.345 Y-41.41858 Z-1 F120
G01 X36.345 Y-41.41858 Z-1 F120
G01 X36.345 Y-41.41858 Z-1 F120
G01 X36.345 Y-41.41858 Z-1 F120
G01 X36.345 Y-41.41858 Z-1 F120
G01 X36.345 Y-41.41858 Z-1 F120
G01 X36.7409 Y-41.41858 Z-1 F120
G01 X36.72152327480125 Y-41.296240171926954 Z-1 F120
G01 X36.66528982807304 Y-41.18587581861741 Z-1 F120
G01 X36.57770418138259 Y-41.098290171926955 Z-1 F120
G01 X36.467339828073044 Y-41.042056725198755 Z-1 F120
G01 X36.345 Y-41.02268 Z-1 F120
G01 X36.22266017192696 Y-41.042056725198755 Z-1 F120
G01 X36.11229581861741 Y-41.098290171926955 Z-1 F120
G01 X36.024710171926955 Y-41.18587581861741 Z-1 F120
G01 X35.96847672519875 Y-41.296240171926954 Z-1 F120
G01 X35.9491 Y-41.41858 Z-1 F120
G01 X35.96847672519875 Y-41.540919828073044 Z-1 F120
G01 X36.024710171926955 Y-41.651284181382586 Z-1 F120
G01 X36.11229581861741 Y-41.73886982807305 Z-1 F120
G01 X36.22266017192696 Y-41.79510327480125 Z-1 F120
G01 X36.345 Y-41.81448 Z-1 F120
G01 X36.467339828073044 Y-41.79510327480125 Z-1 F120
G01 X36.57770418138259 Y-41.73886982807305 Z-1 F120
G01 X36.66528982807304 Y-41.651284181382586 Z-1 F120
G01 X36.72152327480125 Y-41.540919828073044 Z-1 F120
G01 X36.345 Y-41.41858 Z-2 F120
G01 X36.345 Y-41.41858 Z-2 F120
G01 X36.345 Y-41.41858 Z-2 F120
G01 X36.345 Y-41.41858 Z-2 F120
G01 X36.345 Y-41.41858 Z-2 F120
G01 X36.345 Y-41.41858 Z-2 F120
G01 X36.345 Y-41.41858 Z-2 F120
G01 X36.345 Y-41.41858 Z-2 F120
G01 X36.345 Y-41.41858 Z-2 F120
G01 X36.345 Y-41.41858 Z-2 F120
G01 X36.345 Y-41.41858 Z-2 F120
G01 X36.345 Y-41.41858 Z-2 F120
G01 X36.345 Y-41.41858 Z-2 F120
G01 X36.345 Y-41.41858 Z-2 F120
G01 X36.345 Y-41.41858 Z-2 F120
G01 X36.345 Y-41.41858 Z-2 F120
G01 X36.345 Y-41.41858 Z-2 F120
G01 X36.345 Y-41.41858 Z-2 F120
G01 X36.345 Y-41.41858 Z-2 F120
G01 X36.345 Y-41.41858 Z-2 F120
G01 X36.7409 Y-41.41858 Z-2 F120
G01 X36.72152327480125 Y-41.296240171926954 Z-2 F120
G01 X36.66528982807304 Y-41.18587581861741 Z-2 F120
G01 X36.57770418138259 Y-41.098290171926955 Z-2 F120
G01 X36.467339828073044 Y-41.042056725198755 Z-2 F120
G01 X36.345 Y-41.02268 Z-2 F120
G01 X36.22266017192696 Y-41.042056725198755 Z-2 F120
G01 X36.11229581861741 Y-41.098290171926955 Z-2 F120
G01 X36.024710171926955 Y-41.18587581861741 Z-2 F120
G01 X35.96847672519875 Y-41.296240171926954 Z-2 F120
G01 X35.9491 Y-41.41858 Z-2 F120
G01 X35.96847672519875 Y-41.540919828073044 Z-2 F120
G01 X36.024710171926955 Y-41.651284181382586 Z-2 F120
G01 X36.11229581861741 Y-41.73886982807305 Z-2 F120
G01 X36.22266017192696 Y-41.79510327480125 Z-2 F120
G01 X36.345 Y-41.81448 Z-2 F120
G01 X36.467339828073044 Y-41.79510327480125 Z-2 F120
G01 X36.57770418138259 Y-41.73886982807305 Z-2 F120
G01 X36.66528982807304 Y-41.651284181382586 Z-2 F120
G01 X36.72152327480125 Y-41.540919828073044 Z-2 F120
M05
G00 X36.345 Y-41.41858 Z3 F1500
G00 X38.345 Y-41.41858 Z3 F1500
M03 S18000
G00 X38.345 Y-41.41858 Z1 F1500
G01 X38.345 Y-41.41858 Z0 F120
G01 X38.345 Y-41.41858 Z0 F120
G01 X38.345 Y-41.41858 Z0 F120
G01 X38.345 Y-41.41858 Z0 F120
G01 X38.345 Y-41.41858 Z0 F120
G01 X38.345 Y-41.41858 Z0 F120
G01 X38.345 Y-41.41858 Z0 F120
G01 X38.345 Y-41.41858 Z0 F120
G01 X38.345 Y-41.41858 Z0 F120
G01 X38.345 Y-41.41858 Z0 F120
G01 X38.345 Y-41.41858 Z0 F120
G01 X38.345 Y-41.41858 Z0 F120
G01 X38.345 Y-41.41858 Z0 F120
G01 X38.345 Y-41.41858 Z0 F120
G01 X38.345 Y-41.41858 Z0 F120
G01 X38.345 Y-41.41858 Z0 F120
G01 X38.345 Y-41.41858 Z0 F120
G01 X38.345 Y-41.41858 Z0 F120
G01 X38.345 Y-41.41858 Z0 F120
G01 X38.345 Y-41.41858 Z0 F120
G01 X38.7409 Y-41.41858 Z0 F120
G01 X38.72152327480125 Y-41.296240171926954 Z0 F120
G01 X38.66528982807304 Y-41.18587581861741 Z0 F120
G01 X38.57770418138259 Y-41.098290171926955 Z0 F120
G01 X38.467339828073044 Y-41.042056725198755 Z0 F120
G01 X38.345 Y-41.02268 Z0 F120
G01 X38.22266017192696 Y-41.042056725198755 Z0 F120
G01 X38.11229581861741 Y-41.098290171926955 Z0 F120
G01 X38.024710171926955 Y-41.18587581861741 Z0 F120
G01 X37.96847672519875 Y-41.296240171926954 Z0 F120
G01 X37.9491 Y-41.41858 Z0 F120
G01 X37.96847672519875 Y-41.540919828073044 Z0 F120
G01 X38.024710171926955 Y-41.651284181382586 Z0 F120
G01 X38.11229581861741 Y-41.73886982807305 Z0 F120
G01 X38.22266017192696 Y-41.79510327480125 Z0 F120
G01 X38.345 Y-41.81448 Z0 F120
G01 X38.467339828073044 Y-41.79510327480125 Z0 F120
G01 X38.57770418138259 Y-41.73886982807305 Z0 F120
G01 X38.66528982807304 Y-41.651284181382586 Z0 F120
G01 X38.72152327480125 Y-41.540919828073044 Z0 F120
G01 X38.345 Y-41.41858 Z-1 F120
G01 X38.345 Y-41.41858 Z-1 F120
G01 X38.345 Y-41.41858 Z-1 F120
G01 X38.345 Y-41.41858 Z-1 F120
G01 X38.345 Y-41.41858 Z-1 F120
G01 X38.345 Y-41.41858 Z-1 F120
G01 X38.345 Y-41.41858 Z-1 F120
G01 X38.345 Y-41.41858 Z-1 F120
G01 X38.345 Y-41.41858 Z-1 F120
G01 X38.345 Y-41.41858 Z-1 F120
G01 X38.345 Y-41.41858 Z-1 F120
G01 X38.345 Y-41.41858 Z-1 F120
G01 X38.345 Y-41.41858 Z-1 F120
G01 X38.345 Y-41.41858 Z-1 F120
G01 X38.345 Y-41.41858 Z-1 F120
G01 X38.345 Y-41.41858 Z-1 F120
G01 X38.345 Y-41.41858 Z-1 F120
G01 X38.345 Y-41.41858 Z-1 F120
G01 X38.345 Y-41.41858 Z-1 F120
G01 X38.345 Y-41.41858 Z-1 F120
G01 X38.7409 Y-41.41858 Z-1 F120
G01 X38.72152327480125 Y-41.296240171926954 Z-1 F120
G01 X38.66528982807304 Y-41.18587581861741 Z-1 F120
G01 X38.57770418138259 Y-41.098290171926955 Z-1 F120
G01 X38.467339828073044 Y-41.042056725198755 Z-1 F120
G01 X38.345 Y-41.02268 Z-1 F120
G01 X38.22266017192696 Y-41.042056725198755 Z-1 F120
G01 X38.11229581861741 Y-41.098290171926955 Z-1 F120
G01 X38.024710171926955 Y-41.18587581861741 Z-1 F120
G01 X37.96847672519875 Y-41.296240171926954 Z-1 F120
G01 X37.9491 Y-41.41858 Z-1 F120
G01 X37.96847672519875 Y-41.540919828073044 Z-1 F120
G01 X38.024710171926955 Y-41.651284181382586 Z-1 F120
G01 X38.11229581861741 Y-41.73886982807305 Z-1 F120
G01 X38.22266017192696 Y-41.79510327480125 Z-1 F120
G01 X38.345 Y-41.81448 Z-1 F120
G01 X38.467339828073044 Y-41.79510327480125 Z-1 F120
G01 X38.57770418138259 Y-41.73886982807305 Z-1 F120
G01 X38.66528982807304 Y-41.651284181382586 Z-1 F120
G01 X38.72152327480125 Y-41.540919828073044 Z-1 F120
G01 X38.345 Y-41.41858 Z-2 F120
G01 X38.345 Y-41.41858 Z-2 F120
G01 X38.345 Y-41.41858 Z-2 F120
G01 X38.345 Y-41.41858 Z-2 F120
G01 X38.345 Y-41.41858 Z-2 F120
G01 X38.345 Y-41.41858 Z-2 F120
G01 X38.345 Y-41.41858 Z-2 F120
G01 X38.345 Y-41.41858 Z-2 F120
G01 X38.345 Y-41.41858 Z-2 F120
G01 X38.345 Y-41.41858 Z-2 F120
G01 X38.345 Y-41.41858 Z-2 F120
G01 X38.345 Y-41.41858 Z-2 F120
G01 X38.345 Y-41.41858 Z-2 F120
G01 X38.345 Y-41.41858 Z-2 F120
G01 X38.345 Y-41.41858 Z-2 F120
G01 X38.345 Y-41.41858 Z-2 F120
G01 X38.345 Y-41.41858 Z-2 F120
G01 X38.345 Y-41.41858 Z-2 F120
G01 X38.345 Y-41.41858 Z-2 F120
G01 X38.345 Y-41.41858 Z-2 F120
G01 X38.7409 Y-41.41858 Z-2 F120
G01 X38.72152327480125 Y-41.296240171926954 Z-2 F120
G01 X38.66528982807304 Y-41.18587581861741 Z-2 F120
G01 X38.57770418138259 Y-41.098290171926955 Z-2 F120
G01 X38.467339828073044 Y-41.042056725198755 Z-2 F120
G01 X38.345 Y-41.02268 Z-2 F120
G01 X38.22266017192696 Y-41.042056725198755 Z-2 F120
G01 X38.11229581861741 Y-41.098290171926955 Z-2 F120
G01 X38.024710171926955 Y-41.18587581861741 Z-2 F120
G01 X37.96847672519875 Y-41.296240171926954 Z-2 F120
G01 X37.9491 Y-41.41858 Z-2 F120
G01 X37.96847672519875 Y-41.540919828073044 Z-2 F120
G01 X38.024710171926955 Y-41.651284181382586 Z-2 F120
G01 X38.11229581861741 Y-41.73886982807305 Z-2 F120
G01 X38.22266017192696 Y-41.79510327480125 Z-2 F120
G01 X38.345 Y-41.81448 Z-2 F120
G01 X38.467339828073044 Y-41.79510327480125 Z-2 F120
G01 X38.57770418138259 Y-41.73886982807305 Z-2 F120
G01 X38.66528982807304 Y-41.651284181382586 Z-2 F120
G01 X38.72152327480125 Y-41.540919828073044 Z-2 F120
M05
G00 X38.345 Y-41.41858 Z3 F1500
G00 X40.345 Y-41.41858 Z3 F1500
M03 S18000
G00 X40.345 Y-41.41858 Z1 F1500
G01 X40.345 Y-41.41858 Z0 F120
G01 X40.345 Y-41.41858 Z0 F120
G01 X40.345 Y-41.41858 Z0 F120
G01 X40.345 Y-41.41858 Z0 F120
G01 X40.345 Y-41.41858 Z0 F120
G01 X40.345 Y-41.41858 Z0 F120
G01 X40.345 Y-41.41858 Z0 F120
G01 X40.345 Y-41.41858 Z0 F120
G01 X40.345 Y-41.41858 Z0 F120
G01 X40.345 Y-41.41858 Z0 F120
G01 X40.345 Y-41.41858 Z0 F120
G01 X40.345 Y-41.41858 Z0 F120
G01 X40.345 Y-41.41858 Z0 F120
G01 X40.345 Y-41.41858 Z0 F120
G01 X40.345 Y-41.41858 Z0 F120
G01 X40.345 Y-41.41858 Z0 F120
G01 X40.345 Y-41.41858 Z0 F120
G01 X40.345 Y-41.41858 Z0 F120
G01 X40.345 Y-41.41858 Z0 F120
G01 X40.345 Y-41.41858 Z0 F120
G01 X40.7409 Y-41.41858 Z0 F120
G01 X40.72152327480125 Y-41.296240171926954 Z0 F120
G01 X40.66528982807304 Y-41.18587581861741 Z0 F120
G01 X40.57770418138259 Y-41.098290171926955 Z0 F120
G01 X40.467339828073044 Y-41.042056725198755 Z0 F120
G01 X40.345 Y-41.02268 Z0 F120
G01 X40.22266017192696 Y-41.042056725198755 Z0 F120
G01 X40.11229581861741 Y-41.098290171926955 Z0 F120
G01 X40.024710171926955 Y-41.18587581861741 Z0 F120
G01 X39.96847672519875 Y-41.296240171926954 Z0 F120
G01 X39.9491 Y-41.41858 Z0 F120
G01 X39.96847672519875 Y-41.540919828073044 Z0 F120
G01 X40.024710171926955 Y-41.651284181382586 Z0 F120
G01 X40.11229581861741 Y-41.73886982807305 Z0 F120
G01 X40.22266017192696 Y-41.79510327480125 Z0 F120
G01 X40.345 Y-41.81448 Z0 F120
G01 X40.467339828073044 Y-41.79510327480125 Z0 F120
G01 X40.57770418138259 Y-41.73886982807305 Z0 F120
G01 X40.66528982807304 Y-41.651284181382586 Z0 F120
G01 X40.72152327480125 Y-41.540919828073044 Z0 F120
G01 X40.345 Y-41.41858 Z-1 F120
G01 X40.345 Y-41.41858 Z-1 F120
G01 X40.345 Y-41.41858 Z-1 F120
G01 X40.345 Y-41.41858 Z-1 F120
G01 X40.345 Y-41.41858 Z-1 F120
G01 X40.345 Y-41.41858 Z-1 F120
G01 X40.345 Y-41.41858 Z-1 F120
G01 X40.345 Y-41.41858 Z-1 F120
G01 X40.345 Y-41.41858 Z-1 F120
G01 X40.345 Y-41.41858 Z-1 F120
G01 X40.345 Y-41.41858 Z-1 F120
G01 X40.345 Y-41.41858 Z-1 F120
G01 X40.345 Y-41.41858 Z-1 F120
G01 X40.345 Y-41.41858 Z-1 F120
G01 X40.345 Y-41.41858 Z-1 F120
G01 X40.345 Y-41.41858 Z-1 F120
G01 X40.345 Y-41.41858 Z-1 F120
G01 X40.345 Y-41.41858 Z-1 F120
G01 X40.345 Y-41.41858 Z-1 F120
G01 X40.345 Y-41.41858 Z-1 F120
G01 X40.7409 Y-41.41858 Z-1 F120
G01 X40.72152327480125 Y-41.296240171926954 Z-1 F120
G01 X40.66528982807304 Y-41.18587581861741 Z-1 F120
G01 X40.57770418138259 Y-41.098290171926955 Z-1 F120
G01 X40.467339828073044 Y-41.042056725198755 Z-1 F120
G01 X40.345 Y-41.02268 Z-1 F120
G01 X40.22266017192696 Y-41.042056725198755 Z-1 F120
G01 X40.11229581861741 Y-41.098290171926955 Z-1 F120
G01 X40.024710171926955 Y-41.18587581861741 Z-1 F120
G01 X39.96847672519875 Y-41.296240171926954 Z-1 F120
G01 X39.9491 Y-41.41858 Z-1 F120
G01 X39.96847672519875 Y-41.540919828073044 Z-1 F120
G01 X40.024710171926955 Y-41.651284181382586 Z-1 F120
G01 X40.11229581861741 Y-41.73886982807305 Z-1 F120
G01 X40.22266017192696 Y-41.79510327480125 Z-1 F120
G01 X40.345 Y-41.81448 Z-1 F120
G01 X40.467339828073044 Y-41.79510327480125 Z-1 F120
G01 X40.57770418138259 Y-41.73886982807305 Z-1 F120
G01 X40.66528982807304 Y-41.651284181382586 Z-1 F120
G01 X40.72152327480125 Y-41.540919828073044 Z-1 F120
G01 X40.345 Y-41.41858 Z-2 F120
G01 X40.345 Y-41.41858 Z-2 F120
G01 X40.345 Y-41.41858 Z-2 F120
G01 X40.345 Y-41.41858 Z-2 F120
G01 X40.345 Y-41.41858 Z-2 F120
G01 X40.345 Y-41.41858 Z-2 F120
G01 X40.345 Y-41.41858 Z-2 F120
G01 X40.345 Y-41.41858 Z-2 F120
G01 X40.345 Y-41.41858 Z-2 F120
G01 X40.345 Y-41.41858 Z-2 F120
G01 X40.345 Y-41.41858 Z-2 F120
G01 X40.345 Y-41.41858 Z-2 F120
G01 X40.345 Y-41.41858 Z-2 F120
G01 X40.345 Y-41.41858 Z-2 F120
G01 X40.345 Y-41.41858 Z-2 F120
G01 X40.345 Y-41.41858 Z-2 F120
G01 X40.345 Y-41.41858 Z-2 F120
G01 X40.345 Y-41.41858 Z-2 F120
G01 X40.345 Y-41.41858 Z-2 F120
G01 X40.345 Y-41.41858 Z-2 F120
G01 X40.7409 Y-41.41858 Z-2 F120
G01 X40.72152327480125 Y-41.296240171926954 Z-2 F120
G01 X40.66528982807304 Y-41.18587581861741 Z-2 F120
G01 X40.57770418138259 Y-41.098290171926955 Z-2 F120
G01 X40.467339828073044 Y-41.042056725198755 Z-2 F120
G01 X40.345 Y-41.02268 Z-2 F120
G01 X40.22266017192696 Y-41.042056725198755 Z-2 F120
G01 X40.11229581861741 Y-41.098290171926955 Z-2 F120
G01 X40.024710171926955 Y-41.18587581861741 Z-2 F120
G01 X39.96847672519875 Y-41.296240171926954 Z-2 F120
G01 X39.9491 Y-41.41858 Z-2 F120
G01 X39.96847672519875 Y-41.540919828073044 Z-2 F120
G01 X40.024710171926955 Y-41.651284181382586 Z-2 F120
G01 X40.11229581861741 Y-41.73886982807305 Z-2 F120
G01 X40.22266017192696 Y-41.79510327480125 Z-2 F120
G01 X40.345 Y-41.81448 Z-2 F120
G01 X40.467339828073044 Y-41.79510327480125 Z-2 F120
G01 X40.57770418138259 Y-41.73886982807305 Z-2 F120
G01 X40.66528982807304 Y-41.651284181382586 Z-2 F120
G01 X40.72152327480125 Y-41.540919828073044 Z-2 F120
M05
G00 X40.345 Y-41.41858 Z3 F1500
G00 X41.346 Y-28.86858 Z3 F1500
M03 S18000
G00 X41.346 Y-28.86858 Z1 F1500
G01 X41.346 Y-28.86858 Z0 F120
G01 X41.346 Y-28.86858 Z0 F120
G01 X41.346 Y-28.86858 Z0 F120
G01 X41.346 Y-28.86858 Z0 F120
G01 X41.346 Y-28.86858 Z0 F120
G01 X41.346 Y-28.86858 Z0 F120
G01 X41.346 Y-28.86858 Z0 F120
G01 X41.346 Y-28.86858 Z0 F120
G01 X41.346 Y-28.86858 Z0 F120
G01 X41.346 Y-28.86858 Z0 F120
G01 X41.346 Y-28.86858 Z0 F120
G01 X41.346 Y-28.86858 Z0 F120
G01 X41.346 Y-28.86858 Z0 F120
G01 X41.346 Y-28.86858 Z0 F120
G01 X41.346 Y-28.86858 Z0 F120
G01 X41.346 Y-28.86858 Z0 F120
G01 X41.346 Y-28.86858 Z0 F120
G01 X41.346 Y-28.86858 Z0 F120
G01 X41.346 Y-28.86858 Z0 F120
G01 X41.346 Y-28.86858 Z0 F120
G01 X41.741899999999994 Y-28.86858 Z0 F120
G01 X41.72252327480124 Y-28.74624017192696 Z0 F120
G01 X41.66628982807304 Y-28.63587581861741 Z0 F120
G01 X41.578704181382584 Y-28.54829017192696 Z0 F120
G01 X41.46833982807304 Y-28.49205672519875 Z0 F120
G01 X41.346 Y-28.47268 Z0 F120
G01 X41.22366017192695 Y-28.49205672519875 Z0 F120
G01 X41.11329581861741 Y-28.54829017192696 Z0 F120
G01 X41.025710171926946 Y-28.63587581861741 Z0 F120
G01 X40.969476725198746 Y-28.74624017192696 Z0 F120
G01 X40.95009999999999 Y-28.86858 Z0 F120
G01 X40.969476725198746 Y-28.990919828073043 Z0 F120
G01 X41.025710171926946 Y-29.101284181382592 Z0 F120
G01 X41.11329581861741 Y-29.18886982807304 Z0 F120
G01 X41.22366017192695 Y-29.245103274801252 Z0 F120
G01 X41.346 Y-29.264480000000002 Z0 F120
G01 X41.46833982807304 Y-29.245103274801252 Z0 F120
G01 X41.578704181382584 Y-29.18886982807304 Z0 F120
G01 X41.66628982807304 Y-29.101284181382592 Z0 F120
G01 X41.72252327480124 Y-28.990919828073043 Z0 F120
G01 X41.346 Y-28.86858 Z-1 F120
G01 X41.346 Y-28.86858 Z-1 F120
G01 X41.346 Y-28.86858 Z-1 F120
G01 X41.346 Y-28.86858 Z-1 F120
G01 X41.346 Y-28.86858 Z-1 F120
G01 X41.346 Y-28.86858 Z-1 F120
G01 X41.346 Y-28.86858 Z-1 F120
G01 X41.346 Y-28.86858 Z-1 F120
G01 X41.346 Y-28.86858 Z-1 F120
G01 X41.346 Y-28.86858 Z-1 F120
G01 X41.346 Y-28.86858 Z-1 F120
G01 X41.346 Y-28.86858 Z-1 F120
G01 X41.346 Y-28.86858 Z-1 F120
G01 X41.346 Y-28.86858 Z-1 F120
G01 X41.346 Y-28.86858 Z-1 F120
G01 X41.346 Y-28.86858 Z-1 F120
G01 X41.346 Y-28.86858 Z-1 F120
G01 X41.346 Y-28.86858 Z-1 F120
G01 X41.346 Y-28.86858 Z-1 F120
G01 X41.346 Y-28.86858 Z-1 F120
G01 X41.741899999999994 Y-28.86858 Z-1 F120
G01 X41.72252327480124 Y-28.74624017192696 Z-1 F120
G01 X41.66628982807304 Y-28.63587581861741 Z-1 F120
G01 X41.578704181382584 Y-28.54829017192696 Z-1 F120
G01 X41.46833982807304 Y-28.49205672519875 Z-1 F120
G01 X41.346 Y-28.47268 Z-1 F120
G01 X41.22366017192695 Y-28.49205672519875 Z-1 F120
G01 X41.11329581861741 Y-28.54829017192696 Z-1 F120
G01 X41.025710171926946 Y-28.63587581861741 Z-1 F120
G01 X40.969476725198746 Y-28.74624017192696 Z-1 F120
G01 X40.95009999999999 Y-28.86858 Z-1 F120
G01 X40.969476725198746 Y-28.990919828073043 Z-1 F120
G01 X41.025710171926946 Y-29.101284181382592 Z-1 F120
G01 X41.11329581861741 Y-29.18886982807304 Z-1 F120
G01 X41.22366017192695 Y-29.245103274801252 Z-1 F120
G01 X41.346 Y-29.264480000000002 Z-1 F120
G01 X41.46833982807304 Y-29.245103274801252 Z-1 F120
G01 X41.578704181382584 Y-29.18886982807304 Z-1 F120
G01 X41.66628982807304 Y-29.101284181382592 Z-1 F120
G01 X41.72252327480124 Y-28.990919828073043 Z-1 F120
G01 X41.346 Y-28.86858 Z-2 F120
G01 X41.346 Y-28.86858 Z-2 F120
G01 X41.346 Y-28.86858 Z-2 F120
G01 X41.346 Y-28.86858 Z-2 F120
G01 X41.346 Y-28.86858 Z-2 F120
G01 X41.346 Y-28.86858 Z-2 F120
G01 X41.346 Y-28.86858 Z-2 F120
G01 X41.346 Y-28.86858 Z-2 F120
G01 X41.346 Y-28.86858 Z-2 F120
G01 X41.346 Y-28.86858 Z-2 F120
G01 X41.346 Y-28.86858 Z-2 F120
G01 X41.346 Y-28.86858 Z-2 F120
G01 X41.346 Y-28.86858 Z-2 F120
G01 X41.346 Y-28.86858 Z-2 F120
G01 X41.346 Y-28.86858 Z-2 F120
G01 X41.346 Y-28.86858 Z-2 F120
G01 X41.346 Y-28.86858 Z-2 F120
G01 X41.346 Y-28.86858 Z-2 F120
G01 X41.346 Y-28.86858 Z-2 F120
G01 X41.346 Y-28.86858 Z-2 F120
G01 X41.741899999999994 Y-28.86858 Z-2 F120
G01 X41.72252327480124 Y-28.74624017192696 Z-2 F120
G01 X41.66628982807304 Y-28.63587581861741 Z-2 F120
G01 X41.578704181382584 Y-28.54829017192696 Z-2 F120
G01 X41.46833982807304 Y-28.49205672519875 Z-2 F120
G01 X41.346 Y-28.47268 Z-2 F120
G01 X41.22366017192695 Y-28.49205672519875 Z-2 F120
G01 X41.11329581861741 Y-28.54829017192696 Z-2 F120
G01 X41.025710171926946 Y-28.63587581861741 Z-2 F120
G01 X40.969476725198746 Y-28.74624017192696 Z-2 F120
G01 X40.95009999999999 Y-28.86858 Z-2 F120
G01 X40.969476725198746 Y-28.990919828073043 Z-2 F120
G01 X41.025710171926946 Y-29.101284181382592 Z-2 F120
G01 X41.11329581861741 Y-29.18886982807304 Z-2 F120
G01 X41.22366017192695 Y-29.245103274801252 Z-2 F120
G01 X41.346 Y-29.264480000000002 Z-2 F120
G01 X41.46833982807304 Y-29.245103274801252 Z-2 F120
G01 X41.578704181382584 Y-29.18886982807304 Z-2 F120
G01 X41.66628982807304 Y-29.101284181382592 Z-2 F120
G01 X41.72252327480124 Y-28.990919828073043 Z-2 F120
M05
G00 X41.346 Y-28.86858 Z3 F1500
G00 X39.346 Y-28.86858 Z3 F1500
M03 S18000
G00 X39.346 Y-28.86858 Z1 F1500
G01 X39.346 Y-28.86858 Z0 F120
G01 X39.346 Y-28.86858 Z0 F120
G01 X39.346 Y-28.86858 Z0 F120
G01 X39.346 Y-28.86858 Z0 F120
G01 X39.346 Y-28.86858 Z0 F120
G01 X39.346 Y-28.86858 Z0 F120
G01 X39.346 Y-28.86858 Z0 F120
G01 X39.346 Y-28.86858 Z0 F120
G01 X39.346 Y-28.86858 Z0 F120
G01 X39.346 Y-28.86858 Z0 F120
G01 X39.346 Y-28.86858 Z0 F120
G01 X39.346 Y-28.86858 Z0 F120
G01 X39.346 Y-28.86858 Z0 F120
G01 X39.346 Y-28.86858 Z0 F120
G01 X39.346 Y-28.86858 Z0 F120
G01 X39.346 Y-28.86858 Z0 F120
G01 X39.346 Y-28.86858 Z0 F120
G01 X39.346 Y-28.86858 Z0 F120
G01 X39.346 Y-28.86858 Z0 F120
G01 X39.346 Y-28.86858 Z0 F120
G01 X39.741899999999994 Y-28.86858 Z0 F120
G01 X39.72252327480125 Y-28.74624017192696 Z0 F120
G01 X39.66628982807303 Y-28.63587581861741 Z0 F120
G01 X39.578704181382584 Y-28.54829017192696 Z0 F120
G01 X39.468339828073034 Y-28.49205672519875 Z0 F120
G01 X39.346 Y-28.47268 Z0 F120
G01 X39.22366017192695 Y-28.49205672519875 Z0 F120
G01 X39.1132958186174 Y-28.54829017192696 Z0 F120
G01 X39.02571017192695 Y-28.63587581861741 Z0 F120
G01 X38.969476725198746 Y-28.74624017192696 Z0 F120
G01 X38.95009999999999 Y-28.86858 Z0 F120
G01 X38.969476725198746 Y-28.990919828073043 Z0 F120
G01 X39.02571017192695 Y-29.101284181382592 Z0 F120
G01 X39.1132958186174 Y-29.18886982807304 Z0 F120
G01 X39.22366017192695 Y-29.245103274801252 Z0 F120
G01 X39.346 Y-29.264480000000002 Z0 F120
G01 X39.468339828073034 Y-29.245103274801252 Z0 F120
G01 X39.578704181382584 Y-29.18886982807304 Z0 F120
G01 X39.66628982807303 Y-29.101284181382592 Z0 F120
G01 X39.72252327480125 Y-28.990919828073043 Z0 F120
G01 X39.346 Y-28.86858 Z-1 F120
G01 X39.346 Y-28.86858 Z-1 F120
G01 X39.346 Y-28.86858 Z-1 F120
G01 X39.346 Y-28.86858 Z-1 F120
G01 X39.346 Y-28.86858 Z-1 F120
G01 X39.346 Y-28.86858 Z-1 F120
G01 X39.346 Y-28.86858 Z-1 F120
G01 X39.346 Y-28.86858 Z-1 F120
G01 X39.346 Y-28.86858 Z-1 F120
G01 X39.346 Y-28.86858 Z-1 F120
G01 X39.346 Y-28.86858 Z-1 F120
G01 X39.346 Y-28.86858 Z-1 F120
G01 X39.346 Y-28.86858 Z-1 F120
G01 X39.346 Y-28.86858 Z-1 F120
G01 X39.346 Y-28.86858 Z-1 F120
G01 X39.346 Y-28.86858 Z-1 F120
G01 X39.346 Y-28.86858 Z-1 F120
G01 X39.346 Y-28.86858 Z-1 F120
G01 X39.346 Y-28.86858 Z-1 F120
G01 X39.346 Y-28.86858 Z-1 F120
G01 X39.741899999999994 Y-28.86858 Z-1 F120
G01 X39.72252327480125 Y-28.74624017192696 Z-1 F120
G01 X39.66628982807303 Y-28.63587581861741 Z-1 F120
G01 X39.578704181382584 Y-28.54829017192696 Z-1 F120
G01 X39.468339828073034 Y-28.49205672519875 Z-1 F120
G01 X39.346 Y-28.47268 Z-1 F120
G01 X39.22366017192695 Y-28.49205672519875 Z-1 F120
G01 X39.1132958186174 Y-28.54829017192696 Z-1 F120
G01 X39.02571017192695 Y-28.63587581861741 Z-1 F120
G01 X38.969476725198746 Y-28.74624017192696 Z-1 F120
G01 X38.95009999999999 Y-28.86858 Z-1 F120
G01 X38.969476725198746 Y-28.990919828073043 Z-1 F120
G01 X39.02571017192695 Y-29.101284181382592 Z-1 F120
G01 X39.1132958186174 Y-29.18886982807304 Z-1 F120
G01 X39.22366017192695 Y-29.245103274801252 Z-1 F120
G01 X39.346 Y-29.264480000000002 Z-1 F120
